;Sliced by ideaMaker 5.3.2.8640, 2026-02-05 09:57:46 UTC+0100
;Slicer Version: 5.3.0.8620
;Dimension: 250.000 250.000 250.000 0.400
;Plate Shape: 0
;Origin Center: 0
;Extruder Offset #1: 25.000 0.000
;Filament Diameter #1: 1.750
;Filament Diameter #2: 1.750
;Filament Compensation #1: 94.000
;Filament Compensation #2: 90.000
;Filament Density #1: 1240.000
;Filament Density #2: 1240.000
;Filament Type #1: PLA
;Filament Type #2: PLA
;Filament Name #1: [Raise3D] Premium PLA 1.75mm
;Filament Name #2: [Raise3D] Premium PLA 1.75mm
;Filament #1: PLA 1.75mm
;Filament #2: PLA 1.75mm
;Printer Type: floppy
;Firmware: Klipper
;Bounding Box: 62.650 187.318 103.810 155.615 0.000 29.400
;Model Gap: 0.000
M221 T0 S94.00
M140 S48.00
M104 T0 S195.00
M109 T0 S195.00
T0
M190 S48.00
G21 ;metric values
G90 ;absolute positioning
M82 ;set extruder to absolute mode
M107 ;start with the fan off
G28 X0 Y0 ;move X/Y to min endstops
G28 Z0 ;move Z to min endstops
G1 Z15.0 F9000 ;move the platform down 15mm

G92 E0 ;zero the extruded length

G0 X43 Y27 F2000  ;go to the edge of the bed
G92 X0 Y0 E0 ;set zero to edge of the bed
G0 F9000 Z1 ;Z up with 1mm
G1 F200 Z0 ;Z home slowly

G1 Z15.0 F9000 ;move the platform down 15mm

G1 F9000 ;speed setting
G92 E-3 ;retraction
M117 Printing...
M1001
;TOTAL_NUM: 1
;PRINTING_TIME: 0
;REMAINING_TIME: 8598
;LAYER:0
;Z:0.300
;HEIGHT:0.300
;PRINTING: NON-OBJECT
;PRINTING_ID: -1
G1 F2400 E-3.0000
G0 F3900 X63.082 Y103.841
G0 F300 Z0.300
G0 F3900 X62.650 Y104.421
;TYPE:SKIRT
;WIDTH:0.400
G1 F1500 E0.0000
G1 F900 X63.082 Y103.841 E0.0361
G1 X69.138 Y103.810 E0.3382
G1 X69.719 Y104.242 E0.3743
G1 X69.749 Y131.507 E1.7346
G1 X70.609 Y131.086 E1.7824
G1 X72.196 Y130.820 E1.8626
G1 X73.102 Y131.144 E1.9107
G1 X73.920 Y131.903 E1.9663
G1 X74.410 Y131.695 E1.9929
G1 X74.410 Y104.421 E3.3536
G1 X74.842 Y103.841 E3.3897
G1 X81.010 Y103.841 E3.6974
G1 X81.382 Y104.097 E3.7199
G1 X81.509 Y135.455 E5.2844
G1 X86.170 Y135.455 E5.5169
G1 X86.170 Y104.421 E7.0652
G1 X86.602 Y103.841 E7.1013
G1 X92.658 Y103.810 E7.4034
G1 X93.239 Y104.242 E7.4396
G1 X93.270 Y135.455 E8.9968
G1 X97.930 Y135.455 E9.2293
G1 X97.930 Y104.421 E10.7776
G1 X98.362 Y103.841 E10.8136
G1 X104.418 Y103.810 E11.1158
G1 X104.999 Y104.242 E11.1519
G1 X105.030 Y135.455 E12.7091
G1 X109.690 Y135.455 E12.9416
G1 X109.690 Y104.421 E14.4899
G1 X109.976 Y103.905 E14.5193
G1 X116.178 Y103.810 E14.8288
G1 X116.759 Y104.242 E14.8649
G1 X116.790 Y135.455 E16.4221
G1 X121.450 Y135.455 E16.6546
G1 X121.450 Y104.421 E18.2029
G1 X121.627 Y104.021 E18.2247
G1 X121.882 Y103.841 E18.2403
G1 X127.937 Y103.810 E18.5424
G1 X128.518 Y104.242 E18.5785
G1 X128.549 Y135.455 E20.1358
G1 X133.209 Y135.455 E20.3682
G1 X133.272 Y104.155 E21.9298
G1 X133.633 Y103.911 E21.9515
G1 X139.692 Y103.810 E22.2539
G1 X140.099 Y103.987 E22.2760
G1 X140.279 Y104.242 E22.2916
G1 X140.310 Y135.455 E23.8488
G1 X144.970 Y135.455 E24.0813
G1 X144.970 Y104.421 E25.6296
G1 X145.402 Y103.841 E25.6657
G1 X151.726 Y103.873 E25.9812
G1 X151.969 Y104.240 E26.0031
G1 X152.069 Y135.455 E27.5605
G1 X156.730 Y135.455 E27.7930
G1 X156.730 Y104.421 E29.3413
G1 X157.162 Y103.841 E29.3774
G1 X163.430 Y103.870 E29.6901
G1 X163.799 Y104.242 E29.7162
G1 X163.830 Y135.455 E31.2735
G1 X168.490 Y135.455 E31.5060
G1 X168.553 Y104.155 E33.0675
G1 X168.914 Y103.911 E33.0893
G1 X175.190 Y103.870 E33.4024
G1 X175.559 Y104.242 E33.4285
G1 X175.590 Y131.620 E34.7944
G1 X176.066 Y131.835 E34.8205
G1 X177.020 Y131.088 E34.8809
G1 X178.303 Y130.806 E34.9465
G1 X179.357 Y131.052 E35.0005
G1 X179.752 Y131.350 E35.0251
G1 X180.250 Y131.139 E35.0521
G1 X180.313 Y104.155 E36.3984
G1 X180.676 Y103.911 E36.4202
G1 X186.843 Y103.841 E36.7279
G1 X187.132 Y103.959 E36.7435
G1 X187.248 Y104.240 E36.7586
G1 X187.318 Y145.688 E38.8265
G1 X187.197 Y145.976 E38.8421
G1 X186.925 Y146.089 E38.8567
G1 X181.300 Y146.184 E39.1374
G1 X181.195 Y146.869 E39.1720
G1 X181.709 Y147.053 E39.1992
G1 X182.601 Y147.717 E39.2547
G1 X183.348 Y148.626 E39.3134
G1 X184.003 Y150.624 E39.4183
G1 X183.868 Y152.216 E39.4980
G1 X183.064 Y153.833 E39.5881
G1 X181.393 Y155.184 E39.6953
G1 X179.856 Y155.615 E39.7750
G1 X177.328 Y155.472 E39.9013
G1 X175.576 Y154.571 E39.9996
G1 X174.519 Y153.313 E40.0815
G1 X173.948 Y151.615 E40.1709
G1 X174.063 Y149.865 E40.2584
G1 X174.966 Y148.119 E40.3565
G1 X176.056 Y147.153 E40.4292
G1 X176.779 Y146.871 E40.4679
G1 X176.671 Y146.190 E40.5023
G1 X72.745 Y146.190 E45.6872
G1 X72.641 Y146.869 E45.7214
G1 X73.162 Y147.061 E45.7491
G1 X74.301 Y147.985 E45.8223
G1 X75.264 Y149.698 E45.9203
G1 X75.466 Y151.294 E46.0006
G1 X75.106 Y152.831 E46.0794
G1 X73.830 Y154.543 E46.1859
G1 X72.073 Y155.467 E46.2849
G1 X70.300 Y155.615 E46.3737
G1 X68.760 Y155.195 E46.4533
G1 X67.306 Y154.119 E46.5436
G1 X66.267 Y152.237 E46.6508
G1 X66.125 Y150.643 E46.7307
G1 X66.637 Y148.904 E46.8211
G1 X67.641 Y147.622 E46.9023
G1 X69.098 Y146.800 E46.9858
G1 X68.946 Y146.190 E47.0172
G1 X63.261 Y146.190 E47.3008
G1 X62.681 Y145.758 E47.3369
G1 X62.650 Y104.421 E49.3992
G0 F3900 X63.050 Y104.421
G1 F900 X63.167 Y104.232 E49.4103
G1 X69.139 Y104.210 E49.7082
G1 X69.328 Y104.327 E49.7193
G1 X69.350 Y132.159 E51.1079
G1 X70.687 Y131.478 E51.1827
G1 X72.077 Y131.202 E51.2534
G1 X72.830 Y131.437 E51.2928
G1 X73.838 Y132.373 E51.3614
G1 X74.810 Y131.959 E51.4141
G1 X74.810 Y104.421 E52.7880
G1 X74.927 Y104.232 E52.7991
G1 X81.009 Y104.241 E53.1025
G1 X81.110 Y135.855 E54.6797
G1 X86.570 Y135.855 E54.9521
G1 X86.570 Y104.421 E56.5204
G1 X86.687 Y104.232 E56.5315
G1 X92.659 Y104.210 E56.8294
G1 X92.848 Y104.327 E56.8405
G1 X92.870 Y135.855 E58.4134
G1 X98.330 Y135.855 E58.6859
G1 X98.330 Y104.421 E60.2541
G1 X98.447 Y104.232 E60.2652
G1 X104.419 Y104.210 E60.5631
G1 X104.608 Y104.327 E60.5742
G1 X104.630 Y135.855 E62.1472
G1 X110.090 Y135.855 E62.4196
G1 X110.090 Y104.421 E63.9878
G1 X110.207 Y104.232 E63.9989
G1 X116.179 Y104.210 E64.2968
G1 X116.368 Y104.327 E64.3079
G1 X116.390 Y135.855 E65.8809
G1 X121.850 Y135.855 E66.1533
G1 X121.850 Y104.421 E67.7215
G1 X121.967 Y104.232 E67.7326
G1 X127.938 Y104.210 E68.0305
G1 X128.127 Y104.327 E68.0416
G1 X128.149 Y135.855 E69.6145
G1 X133.609 Y135.855 E69.8869
G1 X133.640 Y104.311 E71.4607
G1 X139.699 Y104.210 E71.7630
G1 X139.888 Y104.327 E71.7741
G1 X139.910 Y135.855 E73.3470
G1 X145.370 Y135.855 E73.6194
G1 X145.370 Y104.421 E75.1877
G1 X145.487 Y104.232 E75.1988
G1 X151.569 Y104.241 E75.5022
G1 X151.670 Y135.855 E77.0794
G1 X157.130 Y135.855 E77.3518
G1 X157.130 Y104.421 E78.9201
G1 X157.247 Y104.232 E78.9312
G1 X163.219 Y104.210 E79.2291
G1 X163.408 Y104.327 E79.2402
G1 X163.430 Y135.855 E80.8132
G1 X168.890 Y135.855 E81.0856
G1 X168.921 Y104.311 E82.6593
G1 X174.979 Y104.210 E82.9616
G1 X175.168 Y104.327 E82.9727
G1 X175.190 Y131.879 E84.3472
G1 X176.132 Y132.304 E84.3988
G1 X177.106 Y131.479 E84.4625
G1 X178.389 Y131.197 E84.5280
G1 X179.250 Y131.437 E84.5726
G1 X179.673 Y131.817 E84.6010
G1 X180.650 Y131.404 E84.6539
G1 X180.681 Y104.311 E86.0056
G1 X186.848 Y104.241 E86.3133
G1 X186.918 Y145.689 E88.3811
G1 X180.956 Y145.790 E88.6786
G1 X180.748 Y147.148 E88.7471
G1 X181.470 Y147.374 E88.7849
G1 X182.362 Y148.038 E88.8404
G1 X183.036 Y148.877 E88.8941
G1 X183.604 Y150.598 E88.9845
G1 X183.510 Y152.038 E89.0565
G1 X182.706 Y153.655 E89.1466
G1 X181.280 Y154.800 E89.2378
G1 X179.873 Y155.215 E89.3110
G1 X177.505 Y155.114 E89.4292
G1 X175.877 Y154.308 E89.5199
G1 X174.898 Y153.186 E89.5942
G1 X174.327 Y151.488 E89.6835
G1 X174.421 Y150.043 E89.7558
G1 X175.231 Y148.418 E89.8464
G1 X176.321 Y147.452 E89.9190
G1 X177.227 Y147.140 E89.9668
G1 X177.013 Y145.790 E90.0350
G1 X72.402 Y145.790 E95.2541
G1 X72.194 Y147.148 E95.3226
G1 X72.910 Y147.372 E95.3601
G1 X74.049 Y148.296 E95.4332
G1 X74.912 Y149.889 E95.5236
G1 X75.068 Y151.337 E95.5963
G1 X74.718 Y152.734 E95.6681
G1 X73.638 Y154.192 E95.7586
G1 X72.035 Y155.069 E95.8498
G1 X70.398 Y155.227 E95.9319
G1 X68.998 Y154.873 E96.0039
G1 X67.544 Y153.797 E96.0941
G1 X66.665 Y152.194 E96.1854
G1 X66.509 Y150.756 E96.2575
G1 X67.021 Y149.017 E96.3480
G1 X67.951 Y147.875 E96.4214
G1 X69.561 Y147.004 E96.5128
G1 X69.259 Y145.790 E96.5752
G1 X63.261 Y145.790 E96.8744
G1 X63.072 Y145.673 E96.8855
G1 X63.050 Y104.421 E98.9436
;PRINTING: cable_management_thingy_v5.stl
;PRINTING_ID: 0
G1 F2400 E95.9436
G1 F300 Z0.500
G0 F3900 X68.940 Y136.265
;TYPE:WALL-OUTER
;WIDTH:0.400
G1 F300 Z0.300
G1 F1500 E98.9436
G1 F2400 X75.220 Y136.265 E99.2569
G1 X75.220 Y104.620 E100.8357
G1 X80.700 Y104.620 E101.1091
G1 X80.700 Y136.265 E102.6878
G1 X86.980 Y136.265 E103.0011
G1 X86.980 Y104.620 E104.5799
G1 X92.460 Y104.620 E104.8533
G1 X92.460 Y136.265 E106.4321
G1 X98.740 Y136.265 E106.7454
G1 X98.740 Y104.620 E108.3242
G1 X104.220 Y104.620 E108.5976
G1 X104.220 Y136.265 E110.1764
G1 X110.500 Y136.265 E110.4897
G1 X110.500 Y104.620 E112.0684
G1 X115.980 Y104.620 E112.3418
G1 X115.980 Y136.265 E113.9206
G1 X122.260 Y136.265 E114.2339
G1 X122.260 Y104.620 E115.8127
G1 X127.739 Y104.620 E116.0860
G1 X127.739 Y136.265 E117.6648
G1 X134.019 Y136.265 E117.9781
G1 X134.019 Y104.620 E119.5569
G1 X139.500 Y104.620 E119.8304
G1 X139.500 Y136.265 E121.4091
G1 X145.780 Y136.265 E121.7224
G1 X145.780 Y104.620 E123.3012
G1 X151.260 Y104.620 E123.5746
G1 X151.260 Y136.265 E125.1534
G1 X157.540 Y136.265 E125.4667
G1 X157.540 Y104.620 E127.0455
G1 X163.020 Y104.620 E127.3189
G1 X163.020 Y136.265 E128.8977
G1 X169.300 Y136.265 E129.2110
G1 X169.300 Y104.620 E130.7897
G1 X174.780 Y104.620 E131.0631
G1 X174.780 Y136.265 E132.6419
G1 X181.060 Y136.265 E132.9552
G1 X181.060 Y104.620 E134.5340
G1 X186.539 Y104.620 E134.8073
G1 X186.539 Y145.380 E136.8409
G1 X63.460 Y145.380 E142.9813
G1 X63.460 Y104.620 E145.0148
G1 X68.940 Y104.620 E145.2882
G1 X68.940 Y136.265 E146.8670
G0 F3900 X68.540 Y136.665
;TYPE:WALL-INNER
;WIDTH:0.400
G1 F2400 X75.620 Y136.665 E147.2202
G1 X75.620 Y105.020 E148.7990
G1 X80.300 Y105.020 E149.0325
G1 X80.300 Y136.665 E150.6113
G1 X87.380 Y136.665 E150.9645
G1 X87.380 Y105.020 E152.5433
G1 X92.060 Y105.020 E152.7767
G1 X92.060 Y136.665 E154.3555
G1 X99.140 Y136.665 E154.7087
G1 X99.140 Y105.020 E156.2875
G1 X103.820 Y105.020 E156.5210
G1 X103.820 Y136.665 E158.0998
G1 X110.900 Y136.665 E158.4530
G1 X110.900 Y105.020 E160.0318
G1 X115.580 Y105.020 E160.2653
G1 X115.580 Y136.665 E161.8440
G1 X122.660 Y136.665 E162.1973
G1 X122.660 Y105.020 E163.7760
G1 X127.339 Y105.020 E164.0095
G1 X127.339 Y136.665 E165.5883
G1 X134.419 Y136.665 E165.9415
G1 X134.419 Y105.020 E167.5203
G1 X139.100 Y105.020 E167.7538
G1 X139.100 Y136.665 E169.3326
G1 X146.180 Y136.665 E169.6858
G1 X146.180 Y105.020 E171.2646
G1 X150.860 Y105.020 E171.4980
G1 X150.860 Y136.665 E173.0768
G1 X157.940 Y136.665 E173.4300
G1 X157.940 Y105.020 E175.0088
G1 X162.620 Y105.020 E175.2423
G1 X162.620 Y136.665 E176.8211
G1 X169.700 Y136.665 E177.1743
G1 X169.700 Y105.020 E178.7531
G1 X174.380 Y105.020 E178.9866
G1 X174.380 Y136.665 E180.5653
G1 X181.460 Y136.665 E180.9186
G1 X181.460 Y105.020 E182.4973
G1 X186.139 Y105.020 E182.7308
G1 X186.139 Y144.980 E184.7244
G1 X63.860 Y144.980 E190.8249
G1 X63.860 Y105.020 E192.8185
G1 X68.540 Y105.020 E193.0520
G1 X68.540 Y136.665 E194.6308
G0 F3900 X68.140 Y137.065
G1 F2400 X76.020 Y137.065 E195.0239
G1 X76.020 Y105.420 E196.6027
G1 X79.900 Y105.420 E196.7963
G1 X79.900 Y137.065 E198.3750
G1 X87.780 Y137.065 E198.7682
G1 X87.780 Y105.420 E200.3470
G1 X91.660 Y105.420 E200.5405
G1 X91.660 Y137.065 E202.1193
G1 X99.540 Y137.065 E202.5124
G1 X99.540 Y105.420 E204.0912
G1 X103.420 Y105.420 E204.2848
G1 X103.420 Y137.065 E205.8636
G1 X111.300 Y137.065 E206.2567
G1 X111.300 Y105.420 E207.8355
G1 X115.180 Y105.420 E208.0290
G1 X115.180 Y137.065 E209.6078
G1 X123.060 Y137.065 E210.0010
G1 X123.060 Y105.420 E211.5797
G1 X126.939 Y105.420 E211.7733
G1 X126.939 Y137.065 E213.3520
G1 X134.819 Y137.065 E213.7452
G1 X134.819 Y105.420 E215.3239
G1 X138.700 Y105.420 E215.5176
G1 X138.700 Y137.065 E217.0963
G1 X146.580 Y137.065 E217.4895
G1 X146.580 Y105.420 E219.0683
G1 X150.460 Y105.420 E219.2618
G1 X150.460 Y137.065 E220.8406
G1 X158.340 Y137.065 E221.2337
G1 X158.340 Y105.420 E222.8125
G1 X162.220 Y105.420 E223.0061
G1 X162.220 Y137.065 E224.5849
G1 X170.100 Y137.065 E224.9780
G1 X170.100 Y105.420 E226.5568
G1 X173.980 Y105.420 E226.7503
G1 X173.980 Y137.065 E228.3291
G1 X181.860 Y137.065 E228.7223
G1 X181.860 Y105.420 E230.3010
G1 X185.739 Y105.420 E230.4946
G1 X185.739 Y144.580 E232.4483
G1 X64.260 Y144.580 E238.5089
G1 X64.260 Y105.420 E240.4626
G1 X68.140 Y105.420 E240.6561
G1 X68.140 Y137.065 E242.2349
G0 F3900 X67.740 Y137.465
G1 F2400 X76.420 Y137.465 E242.6680
G1 X76.420 Y105.820 E244.2467
G1 X79.500 Y105.820 E244.4004
G1 X79.500 Y137.465 E245.9792
G1 X88.180 Y137.465 E246.4122
G1 X88.180 Y105.820 E247.9910
G1 X91.260 Y105.820 E248.1447
G1 X91.260 Y137.465 E249.7234
G1 X99.940 Y137.465 E250.1565
G1 X99.940 Y105.820 E251.7353
G1 X103.020 Y105.820 E251.8889
G1 X103.020 Y137.465 E253.4677
G1 X111.700 Y137.465 E253.9007
G1 X111.700 Y105.820 E255.4795
G1 X114.780 Y105.820 E255.6332
G1 X114.780 Y137.465 E257.2120
G1 X123.460 Y137.465 E257.6450
G1 X123.460 Y105.820 E259.2238
G1 X126.539 Y105.820 E259.3774
G1 X126.539 Y137.465 E260.9562
G1 X135.219 Y137.465 E261.3892
G1 X135.219 Y105.820 E262.9680
G1 X138.300 Y105.820 E263.1217
G1 X138.300 Y137.465 E264.7005
G1 X146.980 Y137.465 E265.1335
G1 X146.980 Y105.820 E266.7123
G1 X150.060 Y105.820 E266.8660
G1 X150.060 Y137.465 E268.4447
G1 X158.740 Y137.465 E268.8778
G1 X158.740 Y105.820 E270.4566
G1 X161.820 Y105.820 E270.6102
G1 X161.820 Y137.465 E272.1890
G1 X170.500 Y137.465 E272.6220
G1 X170.500 Y105.820 E274.2008
G1 X173.580 Y105.820 E274.3545
G1 X173.580 Y137.465 E275.9333
G1 X182.260 Y137.465 E276.3663
G1 X182.260 Y105.820 E277.9451
G1 X185.339 Y105.820 E278.0987
G1 X185.339 Y144.180 E280.0125
G1 X64.660 Y144.180 E286.0332
G1 X64.660 Y105.820 E287.9470
G1 X67.740 Y105.820 E288.1006
G1 X67.740 Y137.465 E289.6794
G1 F2400 E286.6794
G1 F300 Z0.500
G0 F3900 X64.843 Y143.756
;TYPE:SOLID-FILL
;WIDTH:0.400
G1 F300 Z0.300
G1 F1500 E289.6794
G1 F2400 X65.082 Y143.995 E289.6963
G0 F2400 X65.647 Y143.995
G1 F2400 X64.843 Y143.191 E289.7530
G0 F2400 X64.843 Y142.625
G1 F2400 X66.213 Y143.995 E289.8497
G0 F2400 X66.779 Y143.995
G1 F2400 X64.843 Y142.059 E289.9863
G0 F2400 X64.843 Y141.494
G1 F2400 X67.344 Y143.995 E290.1627
G0 F2400 X67.910 Y143.995
G1 F2400 X64.843 Y140.928 E290.3791
G0 F2400 X64.843 Y140.362
G1 F2400 X68.476 Y143.995 E290.6354
G0 F2400 X69.041 Y143.995
G1 F2400 X64.843 Y139.797 E290.9316
G0 F2400 X64.843 Y139.231
G1 F2400 X69.607 Y143.995 E291.2677
G0 F2400 X70.173 Y143.995
G1 F2400 X64.843 Y138.665 E291.6438
G0 F2400 X64.843 Y138.100
G1 F2400 X70.738 Y143.995 E292.0597
G0 F2400 X71.304 Y143.995
G1 F2400 X64.843 Y137.534 E292.5156
G0 F2400 X64.843 Y136.968
G1 F2400 X71.870 Y143.995 E293.0114
G0 F2400 X72.436 Y143.995
G1 F2400 X64.843 Y136.403 E293.5471
G0 F2400 X64.843 Y135.837
G1 F2400 X73.001 Y143.995 E294.1227
G0 F2400 X73.567 Y143.995
G1 F2400 X64.843 Y135.271 E294.7382
G0 F2400 X64.843 Y134.705
G1 F2400 X67.556 Y137.418 E294.9296
G0 F2400 X67.786 Y137.648
G1 F2400 X74.133 Y143.995 E295.3774
G0 F2400 X74.698 Y143.995
G1 F2400 X68.351 Y137.648 E295.8252
G0 F2400 X68.917 Y137.648
G1 F2400 X75.264 Y143.995 E296.2731
G0 F2400 X75.830 Y143.995
G1 F2400 X69.483 Y137.648 E296.7209
G0 F2400 X70.048 Y137.648
G1 F2400 X76.395 Y143.995 E297.1687
G0 F2400 X76.961 Y143.995
G1 F2400 X70.614 Y137.648 E297.6165
G0 F2400 X71.180 Y137.648
G1 F2400 X77.527 Y143.995 E298.0643
G0 F2400 X78.092 Y143.995
G1 F2400 X71.745 Y137.648 E298.5121
G0 F2400 X72.311 Y137.648
G1 F2400 X78.658 Y143.995 E298.9599
G0 F2400 X79.224 Y143.995
G1 F2400 X72.877 Y137.648 E299.4078
G0 F2400 X73.442 Y137.648
G1 F2400 X79.789 Y143.995 E299.8556
G0 F2400 X80.355 Y143.995
G1 F2400 X74.008 Y137.648 E300.3034
G0 F2400 X74.574 Y137.648
G1 F2400 X80.921 Y143.995 E300.7512
G0 F2400 X81.486 Y143.995
G1 F2400 X75.139 Y137.648 E301.1990
G0 F2400 X75.705 Y137.648
