;Sliced by ideaMaker 5.3.2.8640, 2026-02-10 20:00:50 UTC+0100
;Slicer Version: 5.3.0.8620
;Dimension: 250.000 250.000 250.000 0.400
;Plate Shape: 0
;Origin Center: 0
;Extruder Offset #1: 25.000 0.000
;Filament Diameter #1: 1.750
;Filament Diameter #2: 1.750
;Filament Compensation #1: 94.000
;Filament Compensation #2: 90.000
;Filament Density #1: 1240.000
;Filament Density #2: 1240.000
;Filament Type #1: PLA
;Filament Type #2: PLA
;Filament Name #1: [Raise3D] Premium PLA 1.75mm
;Filament Name #2: [Raise3D] Premium PLA 1.75mm
;Filament #1: PLA 1.75mm
;Filament #2: PLA 1.75mm
;Printer Type: floppy
;Firmware: Klipper
;Bounding Box: 108.685 141.314 108.688 141.314 0.000 3.000
;Model Gap: 0.000
M221 T0 S94.00
M140 S48.00
M104 T0 S195.00
M109 T0 S195.00
T0
M190 S48.00
G21 ;metric values
G90 ;absolute positioning
M82 ;set extruder to absolute mode
M107 ;start with the fan off
G28 X0 Y0 ;move X/Y to min endstops
G28 Z0 ;move Z to min endstops
G1 Z15.0 F9000 ;move the platform down 15mm

G92 E0 ;zero the extruded length

G0 X43 Y27 F2000  ;go to the edge of the bed
G92 X0 Y0 E0 ;set zero to edge of the bed
G0 F9000 Z1 ;Z up with 1mm
G1 F200 Z0 ;Z home slowly

G1 Z15.0 F9000 ;move the platform down 15mm

G1 F9000 ;speed setting
G92 E-3 ;retraction
M117 Printing...
M1001
;TOTAL_NUM: 1
;PRINTING_TIME: 0
;REMAINING_TIME: 293
;LAYER:0
;Z:0.300
;HEIGHT:0.300
;PRINTING: NON-OBJECT
;PRINTING_ID: -1
G1 F2400 E-3.0000
G0 F3900 X113.419 Y113.511
G0 F300 Z0.300
;TYPE:SKIRT
;WIDTH:0.400
G1 F1500 E0.0000
G1 F900 X115.886 Y111.469 E0.1598
G1 X118.702 Y109.950 E0.3194
G1 X121.758 Y109.010 E0.4789
G1 X125.048 Y108.688 E0.6438
G1 X128.122 Y108.987 E0.7979
G1 X131.185 Y109.904 E0.9574
G1 X134.014 Y111.402 E1.1171
G1 X136.488 Y113.419 E1.2764
G1 X138.529 Y115.884 E1.4361
G1 X140.049 Y118.702 E1.5958
G1 X140.988 Y121.752 E1.7550
G1 X141.314 Y124.938 E1.9148
G1 X141.012 Y128.123 E2.0744
G1 X140.092 Y131.193 E2.2343
G1 X138.600 Y134.008 E2.3932
G1 X136.578 Y136.493 E2.5531
G1 X134.113 Y138.530 E2.7126
G1 X131.297 Y140.049 E2.8722
G1 X128.247 Y140.988 E3.0315
G1 X125.062 Y141.314 E3.1912
G1 X121.876 Y141.012 E3.3508
G1 X118.816 Y140.096 E3.5102
G1 X115.985 Y138.597 E3.6700
G1 X113.509 Y136.578 E3.8294
G1 X111.469 Y134.113 E3.9890
G1 X109.950 Y131.297 E4.1487
G1 X109.011 Y128.247 E4.3079
G1 X108.685 Y125.059 E4.4678
G1 X108.987 Y121.876 E4.6273
G1 X109.903 Y118.816 E4.7866
G1 X111.404 Y115.982 E4.9466
G1 X113.419 Y113.511 E5.1057
G0 F3900 X113.728 Y113.764
G1 F900 X116.140 Y111.778 E5.2616
G1 X118.891 Y110.303 E5.4173
G1 X121.875 Y109.393 E5.5729
G1 X125.086 Y109.086 E5.7339
G1 X128.082 Y109.385 E5.8841
G1 X131.069 Y110.287 E6.0398
G1 X133.826 Y111.755 E6.1956
G1 X136.235 Y113.728 E6.3509
G1 X138.220 Y116.138 E6.5067
G1 X139.696 Y118.891 E6.6626
G1 X140.605 Y121.869 E6.8179
G1 X140.916 Y124.978 E6.9738
G1 X140.614 Y128.084 E7.1295
G1 X139.709 Y131.077 E7.2855
G1 X138.247 Y133.820 E7.4405
G1 X136.268 Y136.240 E7.5965
G1 X133.859 Y138.221 E7.7521
G1 X131.108 Y139.696 E7.9078
G1 X128.130 Y140.605 E8.0632
G1 X125.022 Y140.916 E8.2190
G1 X121.915 Y140.614 E8.3747
G1 X118.932 Y139.713 E8.5302
G1 X116.173 Y138.244 E8.6862
G1 X113.762 Y136.269 E8.8416
G1 X111.778 Y133.859 E8.9974
G1 X110.303 Y131.108 E9.1531
G1 X109.394 Y128.130 E9.3085
G1 X109.083 Y125.019 E9.4644
G1 X109.385 Y121.915 E9.6200
G1 X110.286 Y118.932 E9.7755
G1 X111.757 Y116.170 E9.9316
G1 X113.728 Y113.764 E10.0868
;PRINTING: hole_cap_mid_29.5.STL
;PRINTING_ID: 0
G1 F2400 E7.0868
G1 F300 Z0.500
G0 F3900 X114.035 Y114.035
;TYPE:WALL-OUTER
;WIDTH:0.400
G1 F300 Z0.300
G1 F1500 E10.0868
G1 F2400 X116.388 Y112.104 E10.2386
G1 X119.065 Y110.673 E10.3901
G1 X121.972 Y109.791 E10.5416
G1 X125.111 Y109.496 E10.6989
G1 X128.027 Y109.791 E10.8452
G1 X130.934 Y110.673 E10.9967
G1 X133.611 Y112.104 E11.1482
G1 X135.964 Y114.035 E11.3000
G1 X137.895 Y116.388 E11.4519
G1 X139.326 Y119.065 E11.6033
G1 X140.208 Y121.972 E11.7549
G1 X140.506 Y125.000 E11.9067
G1 X140.208 Y128.027 E12.0584
G1 X139.326 Y130.935 E12.2100
G1 X137.895 Y133.611 E12.3614
G1 X135.964 Y135.964 E12.5133
G1 X133.611 Y137.895 E12.6651
G1 X130.934 Y139.326 E12.8166
G1 X128.027 Y140.208 E12.9681
G1 X125.000 Y140.506 E13.1199
G1 X121.972 Y140.208 E13.2717
G1 X119.065 Y139.326 E13.4233
G1 X116.388 Y137.895 E13.5747
G1 X114.035 Y135.964 E13.7266
G1 X112.104 Y133.611 E13.8784
G1 X110.673 Y130.934 E14.0299
G1 X109.791 Y128.027 E14.1814
G1 X109.493 Y125.000 E14.3332
G1 X109.791 Y121.972 E14.4850
G1 X110.673 Y119.065 E14.6365
G1 X112.104 Y116.388 E14.7880
G1 X114.035 Y114.035 E14.9398
G0 F3900 X114.319 Y114.319
;TYPE:WALL-INNER
;WIDTH:0.400
G1 F2400 X116.611 Y112.438 E15.0877
G1 X119.219 Y111.044 E15.2353
G1 X122.050 Y110.185 E15.3829
G1 X125.110 Y109.898 E15.5362
G1 X127.948 Y110.185 E15.6785
G1 X130.780 Y111.044 E15.8262
G1 X133.388 Y112.438 E15.9737
G1 X135.680 Y114.319 E16.1216
G1 X137.561 Y116.611 E16.2696
G1 X138.955 Y119.219 E16.4171
G1 X139.814 Y122.050 E16.5647
G1 X140.104 Y125.000 E16.7126
G1 X139.814 Y127.949 E16.8604
G1 X138.955 Y130.781 E17.0081
G1 X137.561 Y133.388 E17.1555
G1 X135.680 Y135.680 E17.3035
G1 X133.388 Y137.561 E17.4514
G1 X130.780 Y138.955 E17.5989
G1 X127.949 Y139.814 E17.7465
G1 X125.000 Y140.104 E17.8944
G1 X122.050 Y139.814 E18.0423
G1 X119.219 Y138.955 E18.1898
G1 X116.611 Y137.561 E18.3374
G1 X114.319 Y135.680 E18.4853
G1 X112.438 Y133.388 E18.6332
G1 X111.044 Y130.780 E18.7808
G1 X110.185 Y127.949 E18.9284
G1 X109.895 Y125.000 E19.0762
G1 X110.185 Y122.050 E19.2241
G1 X111.044 Y119.219 E19.3717
G1 X112.438 Y116.611 E19.5192
G1 X114.319 Y114.319 E19.6671
G0 F3900 X114.603 Y114.603
G1 F2400 X116.834 Y112.772 E19.8111
G1 X119.373 Y111.415 E19.9548
G1 X122.128 Y110.579 E20.0984
G1 X125.109 Y110.300 E20.2478
G1 X127.869 Y110.579 E20.3862
G1 X130.626 Y111.415 E20.5299
G1 X133.165 Y112.772 E20.6735
G1 X135.396 Y114.603 E20.8175
G1 X137.227 Y116.834 E20.9615
G1 X138.584 Y119.373 E21.1051
G1 X139.420 Y122.128 E21.2488
G1 X139.702 Y125.000 E21.3928
G1 X139.420 Y127.871 E21.5367
G1 X138.584 Y130.627 E21.6804
G1 X137.227 Y133.165 E21.8239
G1 X135.396 Y135.396 E21.9679
G1 X133.165 Y137.227 E22.1119
G1 X130.626 Y138.584 E22.2556
G1 X127.871 Y139.420 E22.3992
G1 X125.000 Y139.702 E22.5431
G1 X122.128 Y139.420 E22.6871
G1 X119.373 Y138.584 E22.8307
G1 X116.834 Y137.227 E22.9744
G1 X114.603 Y135.396 E23.1183
G1 X112.772 Y133.165 E23.2623
G1 X111.415 Y130.626 E23.4060
G1 X110.579 Y127.871 E23.5496
G1 X110.297 Y125.000 E23.6935
G1 X110.579 Y122.128 E23.8375
G1 X111.415 Y119.373 E23.9811
G1 X112.772 Y116.834 E24.1248
G1 X114.603 Y114.603 E24.2688
G0 F3900 X114.887 Y114.887
G1 F2400 X117.057 Y113.106 E24.4088
G1 X119.527 Y111.786 E24.5485
G1 X122.205 Y110.973 E24.6882
G1 X125.108 Y110.702 E24.8336
G1 X127.790 Y110.973 E24.9681
G1 X130.472 Y111.786 E25.1079
G1 X132.942 Y113.106 E25.2476
G1 X135.112 Y114.887 E25.3877
G1 X136.893 Y117.057 E25.5278
G1 X138.213 Y119.527 E25.6675
G1 X139.026 Y122.206 E25.8072
G1 X139.300 Y125.000 E25.9472
G1 X139.026 Y127.793 E26.0872
G1 X138.213 Y130.473 E26.2270
G1 X136.893 Y132.942 E26.3666
G1 X135.112 Y135.112 E26.5067
G1 X132.942 Y136.893 E26.6467
G1 X130.472 Y138.213 E26.7865
G1 X127.793 Y139.026 E26.9261
G1 X125.000 Y139.300 E27.0662
G1 X122.206 Y139.026 E27.2062
G1 X119.527 Y138.213 E27.3459
G1 X117.057 Y136.893 E27.4856
G1 X114.887 Y135.112 E27.6257
G1 X113.106 Y132.942 E27.7657
G1 X111.786 Y130.472 E27.9054
G1 X110.973 Y127.793 E28.0451
G1 X110.699 Y125.000 E28.1851
G1 X110.973 Y122.206 E28.3252
G1 X111.786 Y119.527 E28.4649
G1 X113.106 Y117.057 E28.6046
G1 X114.887 Y114.887 E28.7446
G1 F2400 E25.7446
G1 F300 Z0.500
G0 F3900 X113.185 Y132.702
;TYPE:SOLID-FILL
;WIDTH:0.400
G1 F300 Z0.300
G1 F1500 E28.7446
G1 F2400 X117.294 Y136.810 E29.0345
G0 F2400 X118.508 Y137.459
G1 F2400 X112.537 Y131.487 E29.4558
G0 F2400 X111.930 Y130.315
G1 F2400 X119.682 Y138.066 E30.0028
G0 F2400 X120.494 Y138.313
G1 F2400 X111.683 Y129.503 E30.6244
G0 F2400 X111.437 Y128.690
G1 F2400 X121.306 Y138.560 E31.3207
G0 F2400 X122.118 Y138.806
G1 F2400 X111.191 Y127.878 E32.0917
G0 F2400 X111.102 Y127.224
G1 F2400 X122.773 Y138.895 E32.9152
G0 F2400 X123.400 Y138.957
G1 F2400 X111.040 Y126.596 E33.7873
G0 F2400 X110.978 Y125.969
G1 F2400 X124.027 Y139.018 E34.7080
G0 F2400 X124.655 Y139.080
G1 F2400 X110.917 Y125.342 E35.6772
G0 F2400 X110.906 Y124.766
G1 F2400 X125.231 Y139.090 E36.6879
G0 F2400 X125.746 Y139.040
G1 F2400 X110.957 Y124.250 E37.7314
G0 F2400 X111.007 Y123.735
G1 F2400 X126.262 Y138.990 E38.8077
G0 F2400 X126.777 Y138.939
G1 F2400 X111.058 Y123.220 E39.9168
G0 F2400 X111.108 Y122.704
G1 F2400 X127.292 Y138.889 E41.0587
G0 F2400 X127.799 Y138.830
G1 F2400 X111.166 Y122.197 E42.2322
G0 F2400 X111.298 Y121.763
G1 F2400 X128.233 Y138.698 E43.4271
G0 F2400 X128.667 Y138.567
G1 F2400 X111.430 Y121.329 E44.6433
G0 F2400 X111.561 Y120.895
G1 F2400 X129.101 Y138.435 E45.8808
G0 F2400 X129.535 Y138.303
G1 F2400 X111.693 Y120.462 E47.1396
G0 F2400 X111.825 Y120.027
G1 F2400 X129.969 Y138.172 E48.4198
G0 F2400 X130.403 Y138.039
G1 F2400 X111.957 Y119.594 E49.7213
G0 F2400 X112.154 Y119.225
G1 F2400 X130.771 Y137.842 E51.0348
G0 F2400 X131.140 Y137.646
G1 F2400 X112.351 Y118.856 E52.3605
G0 F2400 X112.548 Y118.488
G1 F2400 X131.509 Y137.448 E53.6983
G0 F2400 X131.877 Y137.251
G1 F2400 X112.746 Y118.120 E55.0481
G0 F2400 X112.942 Y117.750
G1 F2400 X132.246 Y137.054 E56.4101
G0 F2400 X132.615 Y136.857
G1 F2400 X113.139 Y117.382 E57.7842
G0 F2400 X113.359 Y117.036
G1 F2400 X132.961 Y136.638 E59.1672
G0 F2400 X133.271 Y136.383
G1 F2400 X113.614 Y116.725 E60.5541
G0 F2400 X113.869 Y116.415
G1 F2400 X133.582 Y136.127 E61.9449
G0 F2400 X133.892 Y135.872
G1 F2400 X114.124 Y116.104 E63.3397
G0 F2400 X114.379 Y115.793
G1 F2400 X134.203 Y135.617 E64.7384
G0 F2400 X134.514 Y135.362
G1 F2400 X114.634 Y115.483 E66.1410
G0 F2400 X114.890 Y115.172
G1 F2400 X134.824 Y135.107 E67.5475
G0 F2400 X135.108 Y134.825
G1 F2400 X115.173 Y114.890 E68.9540
G0 F2400 X115.483 Y114.635
G1 F2400 X135.363 Y134.515 E70.3566
G0 F2400 X135.618 Y134.204
G1 F2400 X115.795 Y114.380 E71.7553
G0 F2400 X116.105 Y114.125
G1 F2400 X135.873 Y133.893 E73.1500
G0 F2400 X136.128 Y133.583
G1 F2400 X116.415 Y113.870 E74.5409
G0 F2400 X116.726 Y113.615
G1 F2400 X136.383 Y133.272 E75.9278
G0 F2400 X136.639 Y132.962
G1 F2400 X117.036 Y113.359 E77.3109
G0 F2400 X117.383 Y113.140
G1 F2400 X136.859 Y132.616 E78.6850
G0 F2400 X137.055 Y132.247
G1 F2400 X117.751 Y112.943 E80.0470
G0 F2400 X118.120 Y112.746
G1 F2400 X137.252 Y131.878 E81.3969
G0 F2400 X137.450 Y131.510
G1 F2400 X118.489 Y112.549 E82.7347
G0 F2400 X118.857 Y112.352
G1 F2400 X137.646 Y131.141 E84.0604
G0 F2400 X137.844 Y130.773
G1 F2400 X119.226 Y112.155 E85.3740
G0 F2400 X119.595 Y111.958
G1 F2400 X138.040 Y130.403 E86.6754
G0 F2400 X138.172 Y129.970
G1 F2400 X120.028 Y111.826 E87.9555
G0 F2400 X120.462 Y111.694
G1 F2400 X138.305 Y129.537 E89.2144
G0 F2400 X138.436 Y129.102
G1 F2400 X120.896 Y111.562 E90.4520
G0 F2400 X121.330 Y111.430
G1 F2400 X138.568 Y128.668 E91.6682
G0 F2400 X138.699 Y128.234
G1 F2400 X121.764 Y111.299 E92.8631
G0 F2400 X122.197 Y111.167
G1 F2400 X138.831 Y127.800 E94.0367
G0 F2400 X138.889 Y127.293
G1 F2400 X122.707 Y111.111 E95.1784
G0 F2400 X123.224 Y111.062
G1 F2400 X138.940 Y126.778 E96.2872
G0 F2400 X138.991 Y126.263
G1 F2400 X123.742 Y111.014 E97.3631
G0 F2400 X124.259 Y110.965
G1 F2400 X139.041 Y125.747 E98.4061
G0 F2400 X139.092 Y125.232
G1 F2400 X124.776 Y110.917 E99.4161
G0 F2400 X125.334 Y110.909
G1 F2400 X139.081 Y124.656 E100.3860
G0 F2400 X139.020 Y124.029
G1 F2400 X125.964 Y110.973 E101.3072
G0 F2400 X126.593 Y111.036
G1 F2400 X138.958 Y123.402 E102.1797
G0 F2400 X138.896 Y122.774
G1 F2400 X127.222 Y111.100 E103.0033
G0 F2400 X127.880 Y111.192
G1 F2400 X138.807 Y122.120 E103.7743
G0 F2400 X138.561 Y121.307
G1 F2400 X128.692 Y111.439 E104.4706
G0 F2400 X129.504 Y111.685
G1 F2400 X138.314 Y120.495 E105.0922
G0 F2400 X138.067 Y119.682
G1 F2400 X130.316 Y111.931 E105.6391
G0 F2400 X131.489 Y112.538
G1 F2400 X137.460 Y118.509 E106.0603
G0 F2400 X136.811 Y117.294
G1 F2400 X132.704 Y113.187 E106.3501
;PRINTING_TIME: 71
;REMAINING_TIME: 221
;LAYER:1
;Z:0.600
;HEIGHT:0.300
M106 S64
;PRINTING: hole_cap_mid_29.5.STL
;PRINTING_ID: 0
G1 F2400 E103.3501
G1 F300 Z0.800
G0 F3900 X114.389 Y114.390
G0 F300 Z0.600
G0 F3900 X114.035 Y114.035
;TYPE:WALL-OUTER
;WIDTH:0.400
G1 F300 Z0.300
G1 F1500 E106.3501
G1 F2100 X115.211 Y113.069 Z0.323 E106.3559
G1 X116.388 Y112.104 Z0.346 E106.3675
G1 X117.726 Y111.388 Z0.368 E106.3847
G1 X119.065 Y110.673 Z0.391 E106.4077
G1 X120.518 Y110.232 Z0.414 E106.4365
G1 X121.972 Y109.791 Z0.437 E106.4711
G1 X123.652 Y109.646 Z0.462 E106.5165
G1 X125.332 Y109.501 Z0.487 E106.5691
G1 X126.679 Y109.646 Z0.508 E106.6158
G1 X128.027 Y109.791 Z0.528 E106.6673
G1 X129.480 Y110.232 Z0.551 E106.7306
G1 X130.934 Y110.673 Z0.574 E106.7997
G1 X132.487 Y111.503 Z0.600 E106.8876
G1 X133.611 Y112.104 Z0.600 E106.9511
G1 X135.964 Y114.035 Z0.600 E107.1030
G1 X137.895 Y116.388 Z0.600 E107.2549
G1 X139.326 Y119.065 Z0.600 E107.4063
G1 X140.208 Y121.972 Z0.600 E107.5579
G1 X140.506 Y125.000 Z0.600 E107.7097
G1 X140.208 Y128.027 Z0.600 E107.8614
G1 X139.326 Y130.935 Z0.600 E108.0130
G1 X137.895 Y133.611 Z0.600 E108.1644
G1 X135.964 Y135.964 Z0.600 E108.3163
G1 X133.611 Y137.895 Z0.600 E108.4681
G1 X130.934 Y139.326 Z0.600 E108.6196
G1 X128.027 Y140.208 Z0.600 E108.7711
G1 X125.000 Y140.506 Z0.600 E108.9229
G1 X121.972 Y140.208 Z0.600 E109.0747
G1 X119.065 Y139.326 Z0.600 E109.2262
G1 X116.388 Y137.895 Z0.600 E109.3777
G1 X114.035 Y135.964 Z0.600 E109.5295
G1 X112.104 Y133.611 Z0.600 E109.6814
G1 X110.673 Y130.934 Z0.600 E109.8328
G1 X109.791 Y128.027 Z0.600 E109.9844
G1 X109.493 Y125.000 Z0.600 E110.1362
G1 X109.791 Y121.972 Z0.600 E110.2879
G1 X110.673 Y119.065 Z0.600 E110.4395
G1 X112.104 Y116.388 Z0.600 E110.5909
G1 X114.035 Y114.035 Z0.600 E110.7428
G1 X115.211 Y113.069 Z0.600 E110.8130
G1 X116.388 Y112.104 Z0.600 E110.8773
G1 X117.726 Y111.388 Z0.600 E110.9358
G1 X119.065 Y110.673 Z0.600 E110.9885
G1 X120.518 Y110.232 Z0.600 E111.0355
G1 X121.972 Y109.791 Z0.600 E111.0767
G1 X123.652 Y109.646 Z0.600 E111.1154
G1 X125.332 Y109.501 Z0.600 E111.1470
G1 X126.679 Y109.646 Z0.600 E111.1678
G1 X128.027 Y109.791 Z0.600 E111.1840
G1 X129.480 Y110.232 Z0.600 E111.1965
G1 X130.934 Y110.673 Z0.600 E111.2031
G1 X132.487 Y111.503 Z0.600 E111.2031
G1 F2400 E108.2031
G1 F300 Z0.800
G0 F3900 X132.250 Y111.943
G0 X114.389 Y114.390
G0 X114.319 Y114.319
;TYPE:WALL-INNER
;WIDTH:0.400
;FLOW:90.0
G1 F300 Z0.300
G1 F1500 E111.2031
G1 F2400 X115.465 Y113.378 Z0.322 E111.2081
G1 X116.611 Y112.438 Z0.344 E111.2179
G1 X117.915 Y111.741 Z0.367 E111.2327
G1 X119.219 Y111.044 Z0.389 E111.2523
G1 X120.633 Y110.615 Z0.411 E111.2769
G1 X122.048 Y110.186 Z0.433 E111.3064
G1 X123.688 Y110.044 Z0.458 E111.3453
G1 X125.328 Y109.903 Z0.483 E111.3902
G1 X126.637 Y110.044 Z0.502 E111.4301
G1 X127.947 Y110.185 Z0.522 E111.4739
G1 X129.363 Y110.614 Z0.544 E111.5280
G1 X130.780 Y111.044 Z0.566 E111.5870
G1 X131.765 Y111.570 Z0.583 E111.6344
G1 X132.750 Y112.097 Z0.600 E111.6845
G1 X133.388 Y112.438 Z0.600 E111.7170
G1 X135.680 Y114.319 Z0.600 E111.8502
G1 X137.561 Y116.611 Z0.600 E111.9833
G1 X138.955 Y119.219 Z0.600 E112.1161
G1 X139.814 Y122.050 Z0.600 E112.2489
G1 X140.104 Y125.000 Z0.600 E112.3820
G1 X139.814 Y127.949 Z0.600 E112.5151
G1 X138.955 Y130.781 Z0.600 E112.6479
G1 X137.561 Y133.388 Z0.600 E112.7807
G1 X135.680 Y135.680 Z0.600 E112.9138
G1 X133.388 Y137.561 Z0.600 E113.0469
G1 X130.780 Y138.955 Z0.600 E113.1797
G1 X127.949 Y139.814 Z0.600 E113.3126
G1 X125.000 Y140.104 Z0.600 E113.4456
G1 X122.050 Y139.814 Z0.600 E113.5787
G1 X119.219 Y138.955 Z0.600 E113.7116
G1 X116.611 Y137.561 Z0.600 E113.8443
G1 X114.319 Y135.680 Z0.600 E113.9775
G1 X112.438 Y133.388 Z0.600 E114.1106
G1 X111.044 Y130.780 Z0.600 E114.2434
G1 X110.185 Y127.949 Z0.600 E114.3762
G1 X109.895 Y125.000 Z0.600 E114.5093
G1 X110.185 Y122.050 Z0.600 E114.6424
G1 X111.044 Y119.219 Z0.600 E114.7752
