;Sliced by ideaMaker 5.2.2.8570, 2025-04-23 11:02:07 UTC+0200
;Slicer Version: 5.2.2.8570
;Dimension: 250.000 250.000 250.000 0.400
;Plate Shape: 0
;Origin Center: 0
;Extruder Offset #1: 25.000 0.000
;Filament Diameter #1: 1.750
;Filament Diameter #2: 1.750
;Filament Compensation #1: 94.000
;Filament Compensation #2: 90.000
;Filament Density #1: 1240.000
;Filament Density #2: 1240.000
;Filament Type #1: PLA
;Filament Type #2: PLA
;Filament Name #1: [Raise3D] Premium PLA 1.75mm
;Filament Name #2: [Raise3D] Premium PLA 1.75mm
;Filament #1: PLA 1.75mm
;Filament #2: PLA 1.75mm
;Printer Type: floppy
;Firmware: Klipper
;Bounding Box: 107.729 142.205 98.935 151.104 0.000 2.400
;Model Gap: 0.000
M221 T0 S94.00
M140 S50.00
M104 T0 S190.00
M109 T0 S190.00
T0
M190 S50.00
G21 ;metric values
G90 ;absolute positioning
M82 ;set extruder to absolute mode
M107 ;start with the fan off
G28 X0 Y0 ;move X/Y to min endstops
G28 Z0 ;move Z to min endstops
G1 Z15.0 F9000 ;move the platform down 15mm
G92 E0 ;zero the extruded length
G0 X43 Y27 F2000  ;go to the edge of the bed
G92 X0 Y0 E0 ;set zero to edge of the bed
G0 F9000 Z1 ;Z up with 1mm
G1 F200 Z0 ;Z home slowly
G1 Z15.0 F9000 ;move the platform down 15mm
G1 F9000 ;speed setting
G92 E-3 ;retraction
M117 Printing...
M1001
;TOTAL_NUM: 1
;PRINTING_TIME: 0
;REMAINING_TIME: 553
;LAYER:0
;Z:0.300
;HEIGHT:0.300
;PRINTING: NON-OBJECT
;PRINTING_ID: -1
G1 F2400 E-3.0000
G0 F3900 X114.715 Y104.062
G0 F300 Z0.300
;TYPE:SKIRT
;WIDTH:0.400
G1 F1500 E0.0000
G1 F900 X116.502 Y102.101 E0.1324
G1 X118.373 Y100.708 E0.2487
G1 X120.725 Y99.599 E0.3785
G1 X123.285 Y98.978 E0.5099
G1 X126.481 Y98.935 E0.6694
G1 X127.930 Y99.189 E0.7427
G1 X130.292 Y100.007 E0.8675
G1 X132.567 Y101.345 E0.9991
G1 X134.539 Y103.143 E1.1323
G1 X136.104 Y105.330 E1.2664
G1 X137.065 Y107.428 E1.3816
G1 X137.714 Y110.628 E1.5445
G1 X137.793 Y122.263 E2.1250
G1 X139.782 Y124.805 E2.2860
G1 X141.343 Y128.090 E2.4674
G1 X142.174 Y131.608 E2.6478
G1 X142.205 Y135.711 E2.8525
G1 X141.724 Y138.365 E2.9870
G1 X140.916 Y140.694 E3.1100
G1 X138.950 Y144.074 E3.3051
G1 X136.088 Y147.110 E3.5133
G1 X133.007 Y149.175 E3.6983
G1 X129.631 Y150.507 E3.8794
G1 X126.062 Y151.104 E4.0599
G1 X122.965 Y151.028 E4.2145
G1 X119.508 Y150.246 E4.3913
G1 X116.665 Y149.010 E4.5460
G1 X113.760 Y146.998 E4.7223
G1 X111.588 Y144.789 E4.8768
G1 X109.645 Y141.837 E5.0531
G1 X108.459 Y138.986 E5.2072
G1 X107.765 Y135.540 E5.3826
G1 X107.729 Y132.424 E5.5380
G1 X108.374 Y128.961 E5.7138
G1 X109.738 Y125.632 E5.8933
G1 X112.181 Y122.227 E6.1023
G1 X112.216 Y111.143 E6.6553
G1 X112.535 Y108.833 E6.7717
G1 X113.366 Y106.360 E6.9018
G1 X114.715 Y104.062 E7.0348
G0 F3900 X115.059 Y104.266
G1 F900 X116.797 Y102.371 E7.1630
G1 X118.611 Y101.030 E7.2756
G1 X120.895 Y99.961 E7.4014
G1 X123.378 Y99.367 E7.5288
G1 X126.412 Y99.329 E7.6801
G1 X127.861 Y99.583 E7.7535
G1 X130.160 Y100.385 E7.8750
G1 X132.363 Y101.689 E8.0027
G1 X134.268 Y103.438 E8.1318
G1 X135.778 Y105.562 E8.2618
G1 X136.701 Y107.593 E8.3731
G1 X137.322 Y110.706 E8.5314
G1 X137.394 Y122.401 E9.1149
G1 X139.467 Y125.051 E9.2828
G1 X140.981 Y128.261 E9.4598
G1 X141.785 Y131.699 E9.6360
G1 X141.805 Y135.713 E9.8363
G1 X141.331 Y138.293 E9.9671
G1 X140.538 Y140.562 E10.0870
G1 X138.605 Y143.872 E10.2783
G1 X135.798 Y146.835 E10.4819
G1 X132.785 Y148.842 E10.6625
G1 X129.485 Y150.135 E10.8393
G1 X125.997 Y150.709 E11.0157
G1 X122.976 Y150.628 E11.1665
G1 X119.597 Y149.856 E11.3394
G1 X116.825 Y148.644 E11.4903
G1 X113.989 Y146.670 E11.6627
G1 X111.874 Y144.509 E11.8136
G1 X109.980 Y141.618 E11.9860
G1 X108.829 Y138.833 E12.1363
G1 X108.157 Y135.462 E12.3078
G1 X108.129 Y132.420 E12.4596
G1 X108.767 Y129.035 E12.6315
G1 X110.108 Y125.785 E12.8069
G1 X112.581 Y122.356 E13.0178
G1 X112.616 Y111.144 E13.5772
G1 X112.931 Y108.888 E13.6908
G1 X113.745 Y106.489 E13.8172
G1 X115.059 Y104.266 E13.9460
G0 F3900 X115.403 Y104.471
G1 F900 X117.091 Y102.642 E14.0702
G1 X118.848 Y101.352 E14.1789
G1 X121.063 Y100.324 E14.3008
G1 X123.470 Y99.756 E14.4242
G1 X126.343 Y99.723 E14.5675
G1 X127.792 Y99.977 E14.6409
G1 X130.027 Y100.762 E14.7591
G1 X132.158 Y102.033 E14.8829
G1 X133.997 Y103.732 E15.0078
G1 X135.451 Y105.793 E15.1336
G1 X136.336 Y107.757 E15.2411
G1 X136.929 Y110.783 E15.3949
G1 X136.995 Y122.539 E15.9814
G1 X139.152 Y125.297 E16.1561
G1 X140.619 Y128.431 E16.3288
G1 X141.395 Y131.789 E16.5007
G1 X141.405 Y135.714 E16.6965
G1 X140.938 Y138.220 E16.8237
G1 X140.161 Y140.429 E16.9405
G1 X138.260 Y143.670 E17.1280
G1 X135.508 Y146.559 E17.3270
G1 X132.564 Y148.508 E17.5032
G1 X129.340 Y149.762 E17.6758
G1 X125.933 Y150.314 E17.8480
G1 X122.988 Y150.228 E17.9950
G1 X119.687 Y149.466 E18.1640
G1 X116.986 Y148.278 E18.3112
G1 X114.218 Y146.342 E18.4797
G1 X112.160 Y144.230 E18.6268
G1 X110.315 Y141.400 E18.7954
G1 X109.199 Y138.681 E18.9420
G1 X108.549 Y135.385 E19.1096
G1 X108.529 Y132.417 E19.2577
G1 X109.160 Y129.110 E19.4257
G1 X110.477 Y125.938 E19.5970
G1 X112.427 Y123.096 E19.7690
G1 X112.981 Y122.518 E19.8089
G1 X113.016 Y111.145 E20.3763
G1 X113.327 Y108.944 E20.4872
G1 X114.123 Y106.619 E20.6098
G1 X115.403 Y104.471 E20.7346
G0 F3900 X115.746 Y104.677
G1 F900 X117.384 Y102.914 E20.8546
G1 X119.084 Y101.675 E20.9596
G1 X121.230 Y100.687 E21.0774
G1 X123.560 Y100.146 E21.1968
G1 X126.274 Y100.117 E21.3322
G1 X127.723 Y100.371 E21.4056
G1 X129.894 Y101.139 E21.5205
G1 X131.952 Y102.376 E21.6403
G1 X133.725 Y104.025 E21.7611
G1 X135.123 Y106.022 E21.8827
G1 X135.971 Y107.920 E21.9864
G1 X136.536 Y110.859 E22.1357
G1 X136.596 Y122.677 E22.7253
G1 X138.837 Y125.543 E22.9068
G1 X140.256 Y128.599 E23.0749
G1 X141.005 Y131.878 E23.2427
G1 X141.005 Y135.714 E23.4341
G1 X140.545 Y138.146 E23.5576
G1 X139.784 Y140.295 E23.6713
G1 X137.915 Y143.467 E23.8550
G1 X135.219 Y146.282 E24.0495
G1 X132.344 Y148.174 E24.2212
G1 X129.196 Y149.389 E24.3895
G1 X125.870 Y149.919 E24.5575
G1 X123.001 Y149.828 E24.7007
G1 X119.778 Y149.076 E24.8659
G1 X117.148 Y147.912 E25.0093
G1 X114.448 Y146.015 E25.1740
G1 X112.447 Y143.952 E25.3174
G1 X110.651 Y141.182 E25.4821
G1 X109.569 Y138.530 E25.6250
G1 X108.942 Y135.309 E25.7887
G1 X108.929 Y132.415 E25.9331
G1 X109.553 Y129.186 E26.0971
G1 X110.846 Y126.092 E26.2644
G1 X112.756 Y123.323 E26.4323
G1 X113.381 Y122.681 E26.4770
G1 X113.416 Y111.146 E27.0524
G1 X113.723 Y109.001 E27.1605
G1 X114.501 Y106.750 E27.2794
G1 X115.746 Y104.677 E27.4000
G0 F3900 X116.088 Y104.884
G1 F900 X117.676 Y103.187 E27.5160
G1 X119.318 Y101.999 E27.6171
G1 X121.396 Y101.051 E27.7310
G1 X123.649 Y100.536 E27.8463
G1 X126.205 Y100.511 E27.9738
G1 X127.654 Y100.765 E28.0472
G1 X129.760 Y101.516 E28.1588
G1 X131.745 Y102.718 E28.2746
G1 X133.451 Y104.317 E28.3912
G1 X134.795 Y106.250 E28.5087
G1 X135.605 Y108.082 E28.6086
G1 X136.143 Y110.933 E28.7534
G1 X136.197 Y122.815 E29.3462
G1 X138.522 Y125.789 E29.5345
G1 X139.893 Y128.766 E29.6980
G1 X140.615 Y131.966 E29.8617
G1 X140.605 Y135.713 E30.0486
G1 X140.152 Y138.071 E30.1684
G1 X139.407 Y140.161 E30.2791
G1 X137.571 Y143.263 E30.4589
G1 X134.931 Y146.005 E30.6488
G1 X132.125 Y147.839 E30.8161
G1 X129.053 Y149.015 E30.9802
G1 X125.808 Y149.524 E31.1441
G1 X123.015 Y149.428 E31.2835
G1 X119.870 Y148.687 E31.4447
G1 X117.311 Y147.547 E31.5844
G1 X114.679 Y145.688 E31.7452
G1 X112.735 Y143.674 E31.8849
G1 X110.987 Y140.965 E32.0457
G1 X109.940 Y138.380 E32.1849
G1 X109.335 Y135.233 E32.3447
G1 X109.329 Y132.414 E32.4854
G1 X109.946 Y129.263 E32.6456
G1 X111.215 Y126.247 E32.8088
G1 X113.085 Y123.551 E32.9725
G1 X113.781 Y122.846 E33.0219
G1 X113.816 Y111.147 E33.6056
G1 X114.119 Y109.058 E33.7109
G1 X114.879 Y106.882 E33.8259
G1 X116.088 Y104.884 E33.9424
G0 F3900 X116.429 Y105.092
G1 F900 X117.967 Y103.461 E34.0542
G1 X119.551 Y102.324 E34.1515
G1 X121.561 Y101.416 E34.2616
G1 X123.737 Y100.926 E34.3728
G1 X126.136 Y100.905 E34.4925
G1 X127.585 Y101.159 E34.5659
G1 X129.625 Y101.892 E34.6741
G1 X131.537 Y103.059 E34.7858
G1 X133.176 Y104.608 E34.8983
G1 X134.466 Y106.477 E35.0116
G1 X135.239 Y108.242 E35.1078
G1 X135.750 Y111.006 E35.2480
G1 X135.798 Y122.988 E35.8458
G1 X136.340 Y123.499 E35.8830
G1 X138.200 Y126.026 E36.0395
G1 X139.529 Y128.932 E36.1989
G1 X140.225 Y132.053 E36.3584
G1 X140.205 Y135.711 E36.5409
G1 X139.759 Y137.994 E36.6570
G1 X139.030 Y140.026 E36.7647
G1 X137.227 Y143.059 E36.9407
G1 X134.644 Y145.727 E37.1260
G1 X131.907 Y147.504 E37.2888
G1 X128.911 Y148.641 E37.4487
G1 X125.747 Y149.129 E37.6084
G1 X123.030 Y149.028 E37.7441
G1 X119.963 Y148.298 E37.9013
G1 X117.475 Y147.182 E38.0374
G1 X114.911 Y145.362 E38.1942
G1 X113.024 Y143.397 E38.3302
G1 X111.324 Y140.749 E38.4872
G1 X110.311 Y138.231 E38.6226
G1 X109.728 Y135.158 E38.7786
G1 X109.729 Y132.414 E38.9155
G1 X110.338 Y129.341 E39.0718
G1 X111.583 Y126.403 E39.2310
G1 X113.413 Y123.780 E39.3906
G1 X114.180 Y123.012 E39.4447
G1 X114.216 Y111.148 E40.0366
G1 X114.515 Y109.116 E40.1391
G1 X115.256 Y107.015 E40.2502
G1 X116.429 Y105.092 E40.3626
G0 F3900 X116.770 Y105.302
G1 F900 X118.257 Y103.737 E40.4703
G1 X119.783 Y102.650 E40.5638
G1 X121.724 Y101.781 E40.6699
G1 X123.823 Y101.317 E40.7771
G1 X126.067 Y101.299 E40.8891
G1 X127.516 Y101.553 E40.9625
G1 X129.489 Y102.268 E41.0672
G1 X131.327 Y103.400 E41.1749
G1 X132.900 Y104.898 E41.2832
G1 X134.136 Y106.703 E41.3924
G1 X134.872 Y108.401 E41.4847
G1 X135.356 Y111.077 E41.6204
G1 X135.399 Y123.161 E42.2233
G1 X136.066 Y123.790 E42.2690
G1 X137.877 Y126.262 E42.4219
G1 X139.165 Y129.097 E42.5772
G1 X139.834 Y132.139 E42.7326
G1 X139.805 Y135.708 E42.9107
G1 X139.367 Y137.916 E43.0230
G1 X138.654 Y139.890 E43.1277
G1 X136.884 Y142.854 E43.2999
G1 X134.357 Y145.448 E43.4806
G1 X131.690 Y147.168 E43.6389
G1 X128.770 Y148.267 E43.7946
G1 X125.687 Y148.734 E43.9502
G1 X123.046 Y148.628 E44.0820
G1 X120.057 Y147.909 E44.2354
G1 X117.640 Y146.817 E44.3677
G1 X115.143 Y145.036 E44.5207
G1 X113.313 Y143.121 E44.6529
G1 X111.661 Y140.534 E44.8060
G1 X110.683 Y138.083 E44.9377
G1 X110.121 Y135.084 E45.0899
G1 X110.129 Y132.415 E45.2231
G1 X110.730 Y129.420 E45.3755
G1 X111.951 Y126.560 E45.5306
G1 X113.740 Y124.010 E45.6860
G1 X114.580 Y123.179 E45.7450
G1 X114.616 Y111.149 E46.3452
G1 X114.911 Y109.175 E46.4447
G1 X115.633 Y107.149 E46.5520
G1 X116.770 Y105.302 E46.6602
G0 F3900 X117.110 Y105.513
G1 F900 X118.546 Y104.014 E46.7638
G1 X120.014 Y102.977 E46.8535
G1 X121.886 Y102.147 E46.9556
G1 X123.908 Y101.708 E47.0589
G1 X125.998 Y101.693 E47.1631
G1 X127.447 Y101.947 E47.2365
G1 X129.351 Y102.644 E47.3377
G1 X131.116 Y103.740 E47.4413
G1 X132.623 Y105.187 E47.5456
G1 X133.805 Y106.928 E47.6506
G1 X134.504 Y108.559 E47.7391
G1 X134.962 Y111.147 E47.8702
G1 X135.000 Y123.334 E48.4782
G1 X135.791 Y124.081 E48.5325
G1 X137.554 Y126.498 E48.6818
G1 X138.800 Y129.261 E48.8330
G1 X139.443 Y132.224 E48.9842
G1 X139.405 Y135.704 E49.1579
G1 X138.975 Y137.837 E49.2664
G1 X138.278 Y139.753 E49.3681
G1 X136.541 Y142.648 E49.5366
G1 X134.071 Y145.168 E49.7126
G1 X131.474 Y146.831 E49.8665
G1 X128.630 Y147.892 E50.0179
G1 X125.628 Y148.338 E50.1693
G1 X123.063 Y148.228 E50.2974
G1 X120.151 Y147.520 E50.4469
G1 X117.806 Y146.453 E50.5755
G1 X115.376 Y144.711 E50.7246
G1 X113.603 Y142.845 E50.8530
G1 X111.999 Y140.320 E51.0023
G1 X111.055 Y137.936 E51.1302
G1 X110.514 Y135.011 E51.2786
G1 X110.529 Y132.417 E51.4080
G1 X111.122 Y129.500 E51.5565
G1 X112.318 Y126.718 E51.7076
G1 X114.067 Y124.241 E51.8589
G1 X114.980 Y123.348 E51.9226
G1 X115.016 Y111.150 E52.5312
G1 X115.306 Y109.235 E52.6278
G1 X116.009 Y107.285 E52.7312
G1 X117.110 Y105.513 E52.8353
G0 F3900 X117.449 Y105.725
G1 F900 X118.834 Y104.292 E52.9347
G1 X120.243 Y103.305 E53.0205
G1 X122.047 Y102.513 E53.1188
G1 X123.991 Y102.099 E53.2180
G1 X125.929 Y102.087 E53.3147
G1 X127.378 Y102.341 E53.3881
G1 X129.212 Y103.019 E53.4856
G1 X130.904 Y104.079 E53.5852
G1 X132.345 Y105.474 E53.6853
G1 X133.473 Y107.151 E53.7861
G1 X134.136 Y108.715 E53.8709
G1 X134.568 Y111.215 E53.9975
G1 X134.600 Y123.507 E54.6107
G1 X135.517 Y124.372 E54.6736
G1 X137.230 Y126.733 E54.8191
G1 X138.435 Y129.424 E54.9662
G1 X139.052 Y132.308 E55.1134
G1 X139.005 Y135.698 E55.2825
G1 X138.583 Y137.757 E55.3874
G1 X137.902 Y139.615 E55.4861
G1 X136.198 Y142.441 E55.6507
G1 X133.786 Y144.887 E55.8221
G1 X131.259 Y146.493 E55.9715
G1 X128.491 Y147.517 E56.1187
G1 X125.570 Y147.942 E56.2660
G1 X123.081 Y147.828 E56.3903
G1 X120.246 Y147.132 E56.5360
G1 X117.973 Y146.089 E56.6607
G1 X115.610 Y144.386 E56.8060
G1 X113.894 Y142.570 E56.9307
G1 X112.337 Y140.106 E57.0761
G1 X111.427 Y137.790 E57.2003
G1 X110.908 Y134.939 E57.3448
G1 X110.929 Y132.420 E57.4705
G1 X111.514 Y129.581 E57.6151
G1 X112.685 Y126.877 E57.7621
G1 X114.393 Y124.473 E57.9093
G1 X115.379 Y123.517 E57.9778
G1 X115.416 Y111.151 E58.5947
G1 X115.701 Y109.296 E58.6884
G1 X116.385 Y107.422 E58.7879
G1 X117.449 Y105.725 E58.8878
G0 F3900 X117.787 Y105.939
G1 F900 X119.120 Y104.571 E58.9831
G1 X120.471 Y103.634 E59.0651
G1 X122.206 Y102.880 E59.1595
G1 X124.073 Y102.491 E59.2547
G1 X125.860 Y102.481 E59.3438
G1 X127.309 Y102.735 E59.4172
G1 X129.072 Y103.394 E59.5111
G1 X130.690 Y104.417 E59.6066
G1 X132.066 Y105.760 E59.7025
G1 X133.140 Y107.373 E59.7992
G1 X133.767 Y108.870 E59.8802
G1 X134.174 Y111.282 E60.0022
G1 X134.200 Y123.680 E60.6208
G1 X135.243 Y124.663 E60.6923
G1 X136.906 Y126.967 E60.8340
G1 X138.069 Y129.586 E60.9770
G1 X138.661 Y132.391 E61.1200
G1 X138.605 Y135.691 E61.2847
G1 X138.191 Y137.675 E61.3858
G1 X137.527 Y139.477 E61.4816
G1 X135.856 Y142.234 E61.6424
G1 X133.502 Y144.605 E61.8091
G1 X131.046 Y146.155 E61.9540
G1 X128.353 Y147.141 E62.0971
G1 X125.514 Y147.546 E62.2402
G1 X123.101 Y147.428 E62.3607
G1 X120.342 Y146.744 E62.5025
G1 X118.141 Y145.726 E62.6235
G1 X115.845 Y144.062 E62.7650
G1 X114.185 Y142.296 E62.8859
G1 X112.676 Y139.893 E63.0274
G1 X111.800 Y137.645 E63.1478
G1 X111.302 Y134.868 E63.2886
G1 X111.329 Y132.424 E63.4105
G1 X111.906 Y129.663 E63.5512
G1 X113.052 Y127.037 E63.6942
G1 X114.718 Y124.706 E63.8371
G1 X115.779 Y123.687 E63.9105
G1 X115.816 Y111.152 E64.5359
G1 X116.096 Y109.358 E64.6265
G1 X116.760 Y107.561 E64.7221
G1 X117.787 Y105.939 E64.8178
G0 F3900 X118.124 Y106.155
G1 F900 X119.405 Y104.851 E64.9090
G1 X120.697 Y103.964 E64.9872
G1 X122.364 Y103.247 E65.0777
G1 X124.153 Y102.883 E65.1688
G1 X125.791 Y102.875 E65.2506
G1 X127.240 Y103.129 E65.3239
G1 X128.931 Y103.768 E65.4141
G1 X130.475 Y104.754 E65.5055
G1 X131.785 Y106.045 E65.5973
G1 X132.806 Y107.593 E65.6898
G1 X133.397 Y109.023 E65.7670
G1 X133.779 Y111.347 E65.8845
G1 X133.800 Y123.853 E66.5084
G1 X134.969 Y124.954 E66.5885
G1 X136.581 Y127.200 E66.7265
G1 X137.703 Y129.747 E66.8653
G1 X138.269 Y132.472 E67.0042
G1 X138.205 Y135.683 E67.1644
G1 X137.800 Y137.592 E67.2618
G1 X137.152 Y139.338 E67.3547
G1 X135.514 Y142.026 E67.5117
G1 X133.219 Y144.322 E67.6737
G1 X130.834 Y145.816 E67.8141
G1 X128.217 Y146.765 E67.9530
G1 X125.459 Y147.150 E68.0919
G1 X123.122 Y147.029 E68.2087
G1 X120.439 Y146.356 E68.3467
G1 X118.310 Y145.363 E68.4639
G1 X116.081 Y143.739 E68.6014
G1 X114.477 Y142.023 E68.7186
G1 X113.015 Y139.681 E68.8564
G1 X112.173 Y137.501 E68.9730
G1 X111.696 Y134.798 E69.1099
G1 X111.729 Y132.430 E69.2281
G1 X112.297 Y129.746 E69.3649
G1 X113.418 Y127.198 E69.5038
G1 X115.043 Y124.940 E69.6426
G1 X116.179 Y123.859 E69.7208
G1 X116.216 Y111.153 E70.3547
G1 X116.491 Y109.421 E70.4422
G1 X117.135 Y107.701 E70.5339
G1 X118.124 Y106.155 E70.6254
G0 F3900 X118.460 Y106.372
G1 F900 X119.689 Y105.133 E70.7125
G1 X120.922 Y104.295 E70.7869
G1 X122.521 Y103.615 E70.8736
G1 X124.231 Y103.275 E70.9605
G1 X125.722 Y103.269 E71.0349
G1 X127.171 Y103.523 E71.1083
G1 X128.788 Y104.142 E71.1947
G1 X130.258 Y105.090 E71.2820
G1 X131.503 Y106.329 E71.3696
G1 X132.471 Y107.812 E71.4579
G1 X133.027 Y109.174 E71.5313
G1 X133.384 Y111.410 E71.6443
G1 X133.400 Y124.026 E72.2737
G1 X134.695 Y125.245 E72.3625
G1 X136.255 Y127.432 E72.4965
G1 X137.336 Y129.907 E72.6312
G1 X137.877 Y132.552 E72.7659
G1 X137.805 Y135.674 E72.9217
