;Sliced by ideaMaker 5.2.3.8580, 2025-04-26 15:02:25 UTC+0200
;Slicer Version: 5.2.3.8580
;Dimension: 250.000 250.000 250.000 0.400
;Plate Shape: 0
;Origin Center: 0
;Extruder Offset #1: 25.000 0.000
;Filament Diameter #1: 1.750
;Filament Diameter #2: 1.750
;Filament Compensation #1: 94.000
;Filament Compensation #2: 90.000
;Filament Density #1: 1240.000
;Filament Density #2: 1240.000
;Filament Type #1: PLA
;Filament Type #2: PLA
;Filament Name #1: [Raise3D] Premium PLA 1.75mm
;Filament Name #2: [Raise3D] Premium PLA 1.75mm
;Filament #1: PLA 1.75mm
;Filament #2: PLA 1.75mm
;Printer Type: floppy
;Firmware: Klipper
;Bounding Box: 107.686 142.301 98.959 151.133 0.000 2.400
;Model Gap: 0.000
M221 T0 S94.00
M140 S50.00
M104 T0 S190.00
M109 T0 S190.00
T0
M190 S50.00
G21 ;metric values
G90 ;absolute positioning
M82 ;set extruder to absolute mode
M107 ;start with the fan off
G28 X0 Y0 ;move X/Y to min endstops
G28 Z0 ;move Z to min endstops
G1 Z15.0 F9000 ;move the platform down 15mm
G92 E0 ;zero the extruded length
G0 X43 Y27 F2000  ;go to the edge of the bed
G92 X0 Y0 E0 ;set zero to edge of the bed
G0 F9000 Z1 ;Z up with 1mm
G1 F200 Z0 ;Z home slowly
G1 Z15.0 F9000 ;move the platform down 15mm
G1 F9000 ;speed setting
G92 E-3 ;retraction
M117 Printing...
M1001
;TOTAL_NUM: 1
;PRINTING_TIME: 0
;REMAINING_TIME: 556
;LAYER:0
;Z:0.300
;HEIGHT:0.300
;PRINTING: NON-OBJECT
;PRINTING_ID: -1
G1 F2400 E-3.0000
G0 F3900 X115.572 Y103.071
G0 F300 Z0.300
;TYPE:SKIRT
;WIDTH:0.400
G1 F1500 E0.0000
G1 F900 X118.675 Y100.583 E0.1984
G1 X122.389 Y99.170 E0.3967
G1 X126.417 Y98.959 E0.5979
G1 X129.452 Y99.684 E0.7536
G1 X132.266 Y101.159 E0.9121
G1 X134.716 Y103.385 E1.0772
G1 X136.414 Y105.952 E1.2308
G1 X137.311 Y108.230 E1.3529
G1 X137.728 Y110.512 E1.4687
G1 X137.794 Y122.215 E2.0525
G1 X140.113 Y125.364 E2.2477
G1 X141.676 Y129.184 E2.4536
G1 X142.301 Y133.331 E2.6628
G1 X142.014 Y137.042 E2.8485
G1 X141.164 Y140.057 E3.0048
G1 X139.566 Y143.190 E3.1802
G1 X137.669 Y145.640 E3.3348
G1 X135.012 Y147.954 E3.5106
G1 X131.865 Y149.717 E3.6906
G1 X128.910 Y150.698 E3.8459
G1 X125.414 Y151.133 E4.0217
G1 X122.317 Y150.937 E4.1765
G1 X118.892 Y150.026 E4.3533
G1 X115.686 Y148.420 E4.5322
G1 X112.863 Y146.175 E4.7121
G1 X110.577 Y143.406 E4.8913
G1 X109.077 Y140.654 E5.0477
G1 X108.129 Y137.776 E5.1988
G1 X107.686 Y134.281 E5.3746
G1 X108.071 Y130.204 E5.5789
G1 X109.216 Y126.694 E5.7631
G1 X111.047 Y123.560 E5.9442
G1 X112.200 Y122.279 E6.0302
G1 X112.204 Y111.370 E6.5744
G1 X112.386 Y109.541 E6.6661
G1 X113.392 Y106.380 E6.8316
G1 X115.572 Y103.071 E7.0293
G0 F3900 X115.906 Y103.291
G1 F900 X118.819 Y100.956 E7.2156
G1 X122.412 Y99.569 E7.4077
G1 X126.324 Y99.348 E7.6032
G1 X129.359 Y100.073 E7.7589
G1 X131.997 Y101.455 E7.9074
G1 X134.447 Y103.681 E8.0726
G1 X136.079 Y106.171 E8.2211
G1 X136.938 Y108.375 E8.3391
G1 X137.334 Y110.583 E8.4511
G1 X137.395 Y122.347 E9.0380
G1 X139.791 Y125.601 E9.2396
G1 X141.305 Y129.334 E9.4406
G1 X141.905 Y133.390 E9.6451
G1 X141.615 Y137.010 E9.8263
G1 X140.779 Y139.947 E9.9786
G1 X139.210 Y143.008 E10.1502
G1 X137.353 Y145.394 E10.3011
G1 X134.750 Y147.652 E10.4730
G1 X131.670 Y149.368 E10.6489
G1 X128.785 Y150.318 E10.8004
G1 X125.365 Y150.736 E10.9723
G1 X122.343 Y150.538 E11.1234
G1 X118.996 Y149.640 E11.2963
G1 X115.866 Y148.063 E11.4712
G1 X113.113 Y145.863 E11.6470
G1 X110.886 Y143.152 E11.8220
G1 X109.429 Y140.463 E11.9746
G1 X108.509 Y137.652 E12.1222
G1 X108.083 Y134.232 E12.2941
G1 X108.469 Y130.243 E12.4941
G1 X109.596 Y126.819 E12.6739
G1 X111.392 Y123.763 E12.8507
G1 X112.600 Y122.434 E12.9403
G1 X112.604 Y111.370 E13.4923
G1 X112.784 Y109.581 E13.5820
G1 X113.726 Y106.600 E13.7380
G1 X115.906 Y103.291 E13.9357
G0 F3900 X116.158 Y103.602
G1 F900 X118.963 Y101.329 E14.1158
G1 X122.556 Y99.942 E14.3080
G1 X126.233 Y99.737 E14.4917
G1 X129.173 Y100.427 E14.6424
G1 X131.811 Y101.809 E14.7909
G1 X134.177 Y103.976 E14.9510
G1 X135.744 Y106.389 E15.0945
G1 X136.565 Y108.519 E15.2084
G1 X136.940 Y110.652 E15.3165
G1 X136.996 Y122.516 E15.9084
G1 X137.481 Y122.989 E15.9422
G1 X139.463 Y125.830 E16.1150
G1 X140.934 Y129.483 E16.3115
G1 X141.509 Y133.447 E16.5113
G1 X141.216 Y136.977 E16.6880
G1 X140.395 Y139.837 E16.8365
G1 X138.854 Y142.825 E17.0042
G1 X137.038 Y145.148 E17.1513
G1 X134.489 Y147.349 E17.3193
G1 X131.476 Y149.018 E17.4912
G1 X128.661 Y149.938 E17.6389
G1 X125.317 Y150.339 E17.8069
G1 X122.370 Y150.139 E17.9543
G1 X119.101 Y149.254 E18.1233
G1 X116.047 Y147.706 E18.2941
G1 X113.363 Y145.551 E18.4658
G1 X111.196 Y142.899 E18.6367
G1 X109.781 Y140.273 E18.7855
G1 X108.889 Y137.528 E18.9295
G1 X108.480 Y134.183 E19.0976
G1 X108.867 Y130.282 E19.2932
G1 X109.976 Y126.945 E19.4686
G1 X111.736 Y123.967 E19.6412
G1 X113.000 Y122.591 E19.7344
G1 X113.004 Y111.370 E20.2943
G1 X113.182 Y109.622 E20.3819
G1 X114.061 Y106.818 E20.5285
G1 X116.158 Y103.602 E20.7201
G0 F3900 X116.411 Y103.911
G1 F900 X119.109 Y101.701 E20.8941
G1 X122.580 Y100.341 E21.0800
G1 X126.143 Y100.127 E21.2581
G1 X128.989 Y100.782 E21.4038
G1 X131.541 Y102.104 E21.5472
G1 X133.907 Y104.271 E21.7073
G1 X135.408 Y106.605 E21.8457
G1 X136.191 Y108.661 E21.9555
G1 X136.546 Y110.720 E22.0597
G1 X136.597 Y122.685 E22.6567
G1 X137.202 Y123.275 E22.6988
G1 X139.134 Y126.058 E22.8678
G1 X140.563 Y129.632 E23.0599
G1 X141.113 Y133.503 E23.2549
G1 X140.817 Y136.943 E23.4272
G1 X140.011 Y139.726 E23.5717
G1 X138.499 Y142.641 E23.7356
G1 X136.723 Y144.901 E23.8790
G1 X134.228 Y147.046 E24.0431
G1 X131.283 Y148.668 E24.2109
G1 X128.538 Y149.557 E24.3548
G1 X125.270 Y149.942 E24.5190
G1 X122.398 Y149.740 E24.6626
G1 X119.206 Y148.868 E24.8277
G1 X116.229 Y147.350 E24.9944
G1 X113.614 Y145.240 E25.1621
G1 X111.506 Y142.647 E25.3288
G1 X110.134 Y140.084 E25.4738
G1 X109.270 Y137.405 E25.6143
G1 X108.877 Y134.135 E25.7786
G1 X109.265 Y130.323 E25.9697
G1 X110.355 Y127.072 E26.1408
G1 X112.080 Y124.171 E26.3092
G1 X113.400 Y122.748 E26.4060
G1 X113.404 Y111.370 E26.9737
G1 X113.580 Y109.663 E27.0593
G1 X114.397 Y107.035 E27.1966
G1 X116.411 Y103.911 E27.3820
G0 F3900 X116.666 Y104.219
G1 F900 X119.257 Y102.073 E27.5499
G1 X122.606 Y100.740 E27.7297
G1 X126.055 Y100.517 E27.9021
G1 X128.805 Y101.137 E28.0428
G1 X131.357 Y102.459 E28.1862
G1 X133.636 Y104.565 E28.3410
G1 X135.071 Y106.820 E28.4743
G1 X135.817 Y108.802 E28.5800
G1 X136.152 Y110.787 E28.6804
G1 X136.198 Y122.854 E29.2824
G1 X136.923 Y123.561 E29.3330
G1 X138.805 Y126.285 E29.4982
G1 X140.191 Y129.779 E29.6857
G1 X140.717 Y133.558 E29.8760
G1 X140.419 Y136.908 E30.0438
G1 X139.627 Y139.614 E30.1845
G1 X138.144 Y142.456 E30.3444
G1 X136.409 Y144.653 E30.4841
G1 X133.968 Y146.742 E30.6444
G1 X131.091 Y148.317 E30.8080
G1 X128.416 Y149.176 E30.9482
G1 X125.224 Y149.545 E31.1085
G1 X122.427 Y149.341 E31.2484
G1 X119.312 Y148.482 E31.4096
G1 X116.412 Y146.994 E31.5722
G1 X113.866 Y144.929 E31.7358
G1 X111.817 Y142.395 E31.8984
G1 X110.487 Y139.896 E32.0396
G1 X109.651 Y137.283 E32.1765
G1 X109.274 Y134.088 E32.3370
G1 X109.663 Y130.365 E32.5237
G1 X110.734 Y127.200 E32.6904
G1 X112.423 Y124.376 E32.8546
G1 X113.800 Y122.906 E32.9551
G1 X113.804 Y111.370 E33.5306
G1 X113.978 Y109.705 E33.6141
G1 X114.734 Y107.250 E33.7423
G1 X116.666 Y104.219 E33.9216
G0 F3900 X116.923 Y104.526
G1 F900 X119.407 Y102.444 E34.0833
G1 X122.634 Y101.139 E34.2570
G1 X125.969 Y100.908 E34.4238
G1 X128.621 Y101.492 E34.5592
G1 X131.173 Y102.814 E34.7026
G1 X133.363 Y104.857 E34.8520
G1 X134.733 Y107.033 E34.9803
G1 X135.442 Y108.941 E35.0819
G1 X135.757 Y110.852 E35.1785
G1 X135.799 Y123.023 E35.7857
G1 X136.644 Y123.847 E35.8446
G1 X138.475 Y126.512 E36.0059
G1 X139.819 Y129.926 E36.1890
G1 X140.321 Y133.612 E36.3746
G1 X140.021 Y136.871 E36.5378
G1 X139.243 Y139.500 E36.6746
G1 X137.790 Y142.270 E36.8307
G1 X136.096 Y144.404 E36.9666
G1 X133.709 Y146.438 E37.1231
G1 X130.900 Y147.966 E37.2826
G1 X128.295 Y148.795 E37.4190
G1 X125.179 Y149.148 E37.5754
G1 X122.457 Y148.942 E37.7116
G1 X119.419 Y148.097 E37.8690
G1 X116.596 Y146.639 E38.0275
G1 X114.119 Y144.619 E38.1869
G1 X112.129 Y142.144 E38.3454
G1 X110.841 Y139.709 E38.4828
G1 X110.032 Y137.162 E38.6161
G1 X109.671 Y134.042 E38.7728
G1 X110.061 Y130.408 E38.9552
G1 X111.113 Y127.329 E39.1175
G1 X112.766 Y124.582 E39.2774
G1 X114.200 Y123.066 E39.3816
G1 X114.204 Y111.370 E39.9651
G1 X114.376 Y109.747 E40.0465
G1 X115.072 Y107.463 E40.1656
G1 X116.923 Y104.526 E40.3388
G0 F3900 X117.180 Y104.833
G1 F900 X119.664 Y102.751 E40.5005
G1 X122.664 Y101.538 E40.6620
G1 X125.883 Y101.299 E40.8230
G1 X128.535 Y101.883 E40.9585
G1 X130.987 Y103.168 E41.0966
G1 X133.089 Y105.148 E41.2407
G1 X134.393 Y107.244 E41.3638
G1 X135.066 Y109.079 E41.4613
G1 X135.362 Y110.916 E41.5542
G1 X135.400 Y123.192 E42.1666
G1 X136.365 Y124.133 E42.2339
G1 X138.145 Y126.738 E42.3913
G1 X139.446 Y130.071 E42.5698
G1 X139.925 Y133.665 E42.7507
G1 X139.623 Y136.833 E42.9094
G1 X138.860 Y139.385 E43.0423
G1 X137.436 Y142.083 E43.1945
G1 X135.783 Y144.154 E43.3267
G1 X133.450 Y146.133 E43.4793
G1 X130.710 Y147.614 E43.6347
G1 X128.175 Y148.414 E43.7674
G1 X125.135 Y148.750 E43.9199
G1 X122.488 Y148.543 E44.0524
G1 X119.527 Y147.712 E44.2058
G1 X116.781 Y146.284 E44.3603
G1 X114.373 Y144.310 E44.5156
G1 X112.441 Y141.894 E44.6699
G1 X111.195 Y139.523 E44.8036
G1 X110.414 Y137.042 E44.9333
G1 X110.068 Y133.997 E45.0862
G1 X110.459 Y130.452 E45.2642
G1 X111.491 Y127.459 E45.4221
G1 X113.108 Y124.789 E45.5778
G1 X114.600 Y123.226 E45.6856
G1 X114.604 Y111.370 E46.2771
G1 X114.774 Y109.790 E46.3564
G1 X115.412 Y107.674 E46.4667
G1 X117.180 Y104.833 E46.6336
G0 F3900 X117.439 Y105.138
G1 F900 X119.816 Y103.121 E46.7891
G1 X122.696 Y101.937 E46.9445
G1 X125.799 Y101.690 E47.0998
G1 X128.351 Y102.238 E47.2300
G1 X130.714 Y103.460 E47.3627
G1 X132.749 Y105.359 E47.5016
G1 X134.053 Y107.455 E47.6248
G1 X134.690 Y109.215 E47.7181
G1 X134.967 Y110.978 E47.8072
G1 X135.000 Y123.362 E48.4250
G1 X136.086 Y124.420 E48.5007
G1 X137.814 Y126.963 E48.6541
G1 X139.073 Y130.215 E48.8280
G1 X139.528 Y133.717 E49.0042
G1 X139.225 Y136.794 E49.1585
G1 X138.477 Y139.269 E49.2875
G1 X137.083 Y141.895 E49.4358
G1 X135.471 Y143.904 E49.5643
G1 X133.192 Y145.827 E49.7131
G1 X130.521 Y147.262 E49.8643
G1 X128.056 Y148.032 E49.9932
G1 X125.092 Y148.352 E50.1419
G1 X122.520 Y148.144 E50.2706
G1 X119.636 Y147.327 E50.4202
G1 X116.966 Y145.930 E50.5705
G1 X114.628 Y144.001 E50.7218
G1 X112.754 Y141.645 E50.8719
G1 X111.550 Y139.338 E51.0018
G1 X110.796 Y136.923 E51.1280
G1 X110.466 Y133.953 E51.2771
G1 X110.856 Y130.497 E51.4506
G1 X111.869 Y127.591 E51.6041
G1 X113.450 Y124.997 E51.7557
G1 X115.000 Y123.388 E51.8671
G1 X115.004 Y111.370 E52.4667
G1 X115.172 Y109.833 E52.5439
G1 X115.753 Y107.883 E52.6454
G1 X117.439 Y105.138 E52.8061
G0 F3900 X117.700 Y105.441
G1 F900 X119.970 Y103.490 E52.9554
G1 X122.730 Y102.336 E53.1047
G1 X125.717 Y102.082 E53.2542
G1 X128.169 Y102.594 E53.3792
G1 X130.441 Y103.752 E53.5064
G1 X132.476 Y105.651 E53.6453
G1 X133.712 Y107.664 E53.7631
G1 X134.313 Y109.349 E53.8524
G1 X134.572 Y111.039 E53.9377
G1 X134.600 Y123.530 E54.5609
G1 X135.807 Y124.706 E54.6449
G1 X137.482 Y127.187 E54.7943
G1 X138.700 Y130.358 E54.9638
G1 X139.131 Y133.767 E55.1352
G1 X138.827 Y136.753 E55.2849
G1 X138.094 Y139.152 E55.4101
G1 X136.730 Y141.707 E55.5546
G1 X135.160 Y143.653 E55.6793
G1 X132.935 Y145.521 E55.8243
G1 X130.333 Y146.909 E55.9714
G1 X127.938 Y147.650 E56.0965
G1 X125.050 Y147.954 E56.2414
G1 X122.553 Y147.745 E56.3664
G1 X119.746 Y146.942 E56.5120
G1 X117.152 Y145.576 E56.6583
G1 X114.884 Y143.693 E56.8053
G1 X113.068 Y141.397 E56.9514
G1 X111.905 Y139.154 E57.0774
G1 X111.178 Y136.805 E57.2001
G1 X110.864 Y133.910 E57.3454
G1 X111.253 Y130.543 E57.5145
G1 X112.246 Y127.724 E57.6636
G1 X113.791 Y125.206 E57.8110
G1 X115.400 Y123.551 E57.9262
G1 X115.404 Y111.370 E58.5339
G1 X115.570 Y109.877 E58.6088
G1 X116.095 Y108.090 E58.7017
G1 X117.700 Y105.441 E58.8563
G0 F3900 X117.963 Y105.743
G1 F900 X120.127 Y103.858 E58.9994
G1 X122.766 Y102.734 E59.1425
G1 X125.635 Y102.474 E59.2863
G1 X128.087 Y102.986 E59.4112
G1 X130.257 Y104.107 E59.5331
G1 X132.135 Y105.860 E59.6613
G1 X133.371 Y107.873 E59.7791
G1 X133.936 Y109.482 E59.8642
G1 X134.176 Y111.098 E59.9457
G1 X134.200 Y123.700 E60.5744
G1 X135.528 Y124.993 E60.6669
G1 X137.150 Y127.410 E60.8121
G1 X138.326 Y130.500 E60.9770
G1 X138.734 Y133.816 E61.1437
G1 X138.429 Y136.711 E61.2890
G1 X137.712 Y139.034 E61.4103
G1 X136.378 Y141.518 E61.5509
G1 X134.849 Y143.401 E61.6719
G1 X132.679 Y145.214 E61.8130
G1 X130.146 Y146.556 E61.9560
G1 X127.821 Y147.268 E62.0773
G1 X125.009 Y147.556 E62.2184
G1 X122.588 Y147.346 E62.3396
G1 X119.857 Y146.558 E62.4814
G1 X117.339 Y145.223 E62.6236
G1 X115.141 Y143.386 E62.7665
G1 X113.382 Y141.150 E62.9084
G1 X112.261 Y138.971 E63.0307
G1 X111.560 Y136.688 E63.1498
G1 X111.262 Y133.868 E63.2913
G1 X111.650 Y130.590 E63.4560
G1 X112.623 Y127.858 E63.6007
G1 X114.131 Y125.416 E63.7439
G1 X115.800 Y123.715 E63.8628
G1 X115.804 Y111.370 E64.4787
G1 X115.967 Y109.922 E64.5514
G1 X116.438 Y108.295 E64.6359
G1 X117.963 Y105.743 E64.7842
G0 F3900 X118.228 Y106.043
G1 F900 X120.286 Y104.225 E64.9212
G1 X122.805 Y103.132 E65.0582
G1 X125.555 Y102.866 E65.1960
G1 X127.906 Y103.343 E65.3157
G1 X129.986 Y104.401 E65.4321
G1 X131.794 Y106.069 E65.5548
G1 X133.030 Y108.082 E65.6727
G1 X133.558 Y109.612 E65.7534
G1 X133.780 Y111.155 E65.8312
G1 X133.800 Y123.870 E66.4656
G1 X135.249 Y125.280 E66.5664
G1 X136.817 Y127.632 E66.7075
G1 X137.952 Y130.641 E66.8679
G1 X138.337 Y133.863 E67.0298
G1 X138.031 Y136.668 E67.1706
G1 X137.330 Y138.915 E67.2880
G1 X136.026 Y141.328 E67.4248
G1 X134.539 Y143.148 E67.5421
G1 X132.423 Y144.906 E67.6793
G1 X129.960 Y146.202 E67.8182
G1 X127.705 Y146.885 E67.9357
G1 X124.969 Y147.158 E68.0729
G1 X122.624 Y146.948 E68.1904
G1 X119.969 Y146.174 E68.3284
G1 X117.527 Y144.870 E68.4665
G1 X115.398 Y143.080 E68.6052
G1 X113.697 Y140.904 E68.7430
G1 X112.617 Y138.789 E68.8615
G1 X111.943 Y136.572 E68.9771
G1 X111.660 Y133.827 E69.1148
G1 X112.047 Y130.638 E69.2751
G1 X112.999 Y127.994 E69.4153
G1 X114.471 Y125.627 E69.5543
G1 X116.200 Y123.879 E69.6770
G1 X116.204 Y111.370 E70.3011
G1 X116.364 Y109.967 E70.3715
G1 X116.783 Y108.498 E70.4477
G1 X118.228 Y106.043 E70.5898
G0 F3900 X118.495 Y106.341
G1 F900 X120.448 Y104.591 E70.7207
G1 X122.846 Y103.530 E70.8515
G1 X125.478 Y103.259 E70.9835
G1 X127.725 Y103.700 E71.0977
G1 X129.805 Y104.758 E71.2142
G1 X131.521 Y106.361 E71.3313
G1 X132.688 Y108.289 E71.4438
G1 X133.179 Y109.740 E71.5202
G1 X133.384 Y111.210 E71.5942
G1 X133.400 Y124.040 E72.2343
G1 X134.970 Y125.567 E72.3436
G1 X136.483 Y127.853 E72.4804
G1 X137.577 Y130.781 E72.6363
G1 X137.940 Y133.909 E72.7934
G1 X137.634 Y136.623 E72.9297
G1 X136.949 Y138.795 E73.0433
G1 X135.675 Y141.137 E73.1763
G1 X134.230 Y142.894 E73.2898
G1 X132.168 Y144.598 E73.4232
G1 X129.775 Y145.847 E73.5579
G1 X127.590 Y146.502 E73.6717
G1 X124.930 Y146.760 E73.8050
G1 X122.661 Y146.550 E73.9187
G1 X120.082 Y145.790 E74.0529
G1 X117.716 Y144.518 E74.1869
G1 X115.656 Y142.775 E74.3215
G1 X114.013 Y140.659 E74.4552
G1 X112.974 Y138.608 E74.5699
G1 X112.326 Y136.457 E74.6820
G1 X112.058 Y133.787 E74.8158
G1 X112.444 Y130.687 E74.9717
G1 X113.375 Y128.131 E75.1074
G1 X114.810 Y125.839 E75.2423
G1 X116.600 Y124.045 E75.3687
G1 X116.604 Y111.370 E76.0011
G1 X116.761 Y110.013 E76.0693
G1 X117.167 Y108.609 E76.1422
G1 X118.495 Y106.341 E76.2733
G0 F3900 X118.764 Y106.637
G1 F900 X120.613 Y104.956 E76.3980
G1 X122.890 Y103.928 E76.5226
G1 X125.404 Y103.652 E76.6488
G1 X127.546 Y104.058 E76.7575
G1 X129.534 Y105.052 E76.8684
G1 X131.179 Y106.568 E76.9800
G1 X132.346 Y108.496 E77.0925
G1 X132.799 Y109.866 E77.1645
G1 X132.988 Y111.264 E77.2348
G1 X133.000 Y124.209 E77.8807
G1 X134.691 Y125.854 E77.9984
G1 X136.149 Y128.073 E78.1308
G1 X137.202 Y130.920 E78.2823
G1 X137.542 Y133.954 E78.4346
G1 X137.237 Y136.577 E78.5663
G1 X136.568 Y138.673 E78.6761
G1 X135.324 Y140.945 E78.8053
G1 X133.922 Y142.639 E78.9150
