;Sliced by ideaMaker 5.2.3.8580, 2025-04-29 19:33:07 UTC+0200
;Slicer Version: 5.2.3.8580
;Dimension: 250.000 250.000 250.000 0.400
;Plate Shape: 0
;Origin Center: 0
;Extruder Offset #1: 25.000 0.000
;Filament Diameter #1: 1.750
;Filament Diameter #2: 1.750
;Filament Compensation #1: 94.000
;Filament Compensation #2: 90.000
;Filament Density #1: 1240.000
;Filament Density #2: 1240.000
;Filament Type #1: PLA
;Filament Type #2: PLA
;Filament Name #1: [Raise3D] Premium PLA 1.75mm
;Filament Name #2: [Raise3D] Premium PLA 1.75mm
;Filament #1: PLA 1.75mm
;Filament #2: PLA 1.75mm
;Printer Type: floppy
;Firmware: Klipper
;Bounding Box: 86.725 163.341 113.159 136.849 0.000 18.000
;Model Gap: 0.000
M221 T0 S94.00
M140 S50.00
M104 T0 S190.00
M109 T0 S190.00
T0
M190 S50.00
G21 ;metric values
G90 ;absolute positioning
M82 ;set extruder to absolute mode
M107 ;start with the fan off
G28 X0 Y0 ;move X/Y to min endstops
G28 Z0 ;move Z to min endstops
G1 Z15.0 F9000 ;move the platform down 15mm
G92 E0 ;zero the extruded length
G0 X43 Y27 F2000  ;go to the edge of the bed
G92 X0 Y0 E0 ;set zero to edge of the bed
G0 F9000 Z1 ;Z up with 1mm
G1 F200 Z0 ;Z home slowly
G1 Z15.0 F9000 ;move the platform down 15mm
G1 F9000 ;speed setting
G92 E-3 ;retraction
M117 Printing...
M1001
;TOTAL_NUM: 1
;PRINTING_TIME: 0
;REMAINING_TIME: 1247
;LAYER:0
;Z:0.300
;HEIGHT:0.300
;PRINTING: NON-OBJECT
;PRINTING_ID: -1
G1 F2400 E-3.0000
G0 F3900 X89.510 Y114.886
G0 F300 Z0.300
;TYPE:SKIRT
;WIDTH:0.400
G1 F1500 E0.0000
G1 F900 X91.451 Y114.206 E0.1026
G1 X96.090 Y113.352 E0.3379
G1 X99.435 Y113.159 E0.5051
G1 X151.717 Y113.184 E3.1135
G1 X155.058 Y113.499 E3.2809
G1 X159.728 Y114.544 E3.5196
G1 X162.647 Y117.691 E3.7338
G1 X163.143 Y121.031 E3.9022
G1 X163.341 Y124.805 E4.0908
G1 X163.183 Y128.564 E4.2785
G1 X162.646 Y132.298 E4.4667
G1 X159.738 Y135.455 E4.6808
G1 X155.553 Y136.422 E4.8951
G1 X150.649 Y136.840 E5.1407
G1 X99.640 Y136.849 E7.6855
G1 X95.016 Y136.507 E7.9168
G1 X90.154 Y135.397 E8.1656
G1 X87.599 Y133.084 E8.3376
G1 X86.725 Y127.211 E8.6338
G1 X86.817 Y121.520 E8.9178
G1 X87.952 Y116.185 E9.1899
G1 X89.510 Y114.886 E9.2911
G0 F3900 X89.764 Y115.195
G1 F900 X91.578 Y114.585 E9.3866
G1 X96.162 Y113.745 E9.6191
G1 X99.458 Y113.558 E9.7838
G1 X151.717 Y113.584 E12.3910
G1 X155.020 Y113.897 E12.5565
G1 X159.640 Y114.934 E12.7928
G1 X162.251 Y117.750 E12.9844
G1 X162.747 Y121.090 E13.1528
G1 X162.942 Y124.826 E13.3395
G1 X162.783 Y128.547 E13.5253
G1 X162.250 Y132.241 E13.7115
G1 X159.648 Y135.065 E13.9030
G1 X155.463 Y136.032 E14.1173
G1 X150.615 Y136.441 E14.3601
G1 X99.640 Y136.449 E16.9032
G1 X95.046 Y136.108 E17.1330
G1 X90.243 Y135.007 E17.3789
G1 X87.963 Y132.918 E17.5332
G1 X87.121 Y127.153 E17.8238
G1 X87.217 Y121.527 E18.1045
G1 X88.281 Y116.413 E18.3652
G1 X89.764 Y115.195 E18.4609
G0 F3900 X90.015 Y115.506
G1 F900 X91.700 Y114.966 E18.5492
G1 X96.234 Y114.139 E18.7791
G1 X99.480 Y113.957 E18.9413
G1 X151.717 Y113.984 E21.5474
G1 X154.982 Y114.295 E21.7110
G1 X159.552 Y115.324 E21.9448
G1 X161.855 Y117.809 E22.1138
G1 X162.351 Y121.149 E22.2822
G1 X162.543 Y124.847 E22.4670
G1 X162.383 Y128.530 E22.6509
G1 X161.854 Y132.184 E22.8351
G1 X159.558 Y134.675 E23.0041
G1 X155.373 Y135.642 E23.2184
G1 X150.582 Y136.042 E23.4583
G1 X99.640 Y136.049 E25.9998
G1 X95.076 Y135.709 E26.2281
G1 X90.333 Y134.617 E26.4709
G1 X88.328 Y132.754 E26.6075
G1 X87.517 Y127.096 E26.8926
G1 X87.617 Y121.534 E27.1702
G1 X88.611 Y116.639 E27.4194
G1 X90.015 Y115.506 E27.5094
G0 F3900 X90.263 Y115.820
G1 F900 X91.816 Y115.349 E27.5903
G1 X96.306 Y114.533 E27.8180
G1 X99.502 Y114.356 E27.9777
G1 X151.717 Y114.384 E30.5827
G1 X154.944 Y114.693 E30.7445
G1 X159.464 Y115.714 E30.9756
G1 X161.459 Y117.868 E31.1221
G1 X161.955 Y121.208 E31.2906
G1 X162.144 Y124.868 E31.4734
G1 X161.983 Y128.512 E31.6554
G1 X161.458 Y132.127 E31.8376
G1 X159.468 Y134.285 E31.9841
G1 X155.283 Y135.252 E32.1984
G1 X150.549 Y135.643 E32.4354
G1 X99.640 Y135.649 E34.9752
G1 X95.106 Y135.310 E35.2021
G1 X90.423 Y134.227 E35.4419
G1 X88.694 Y132.593 E35.5606
G1 X87.913 Y127.040 E35.8403
G1 X88.017 Y121.542 E36.1147
G1 X88.942 Y116.863 E36.3526
G1 X90.263 Y115.820 E36.4366
G0 F3900 X90.379 Y116.203
G1 F900 X91.932 Y115.732 E36.5176
G1 X96.377 Y114.927 E36.7429
G1 X99.524 Y114.755 E36.9002
G1 X151.717 Y114.784 E39.5041
G1 X154.906 Y115.091 E39.6639
G1 X159.376 Y116.104 E39.8926
G1 X161.063 Y117.927 E40.0165
G1 X161.559 Y121.267 E40.1850
G1 X161.745 Y124.889 E40.3659
G1 X161.583 Y128.494 E40.5459
G1 X161.062 Y132.069 E40.7262
G1 X159.378 Y133.895 E40.8501
G1 X155.193 Y134.862 E41.0644
G1 X150.516 Y135.244 E41.2985
G1 X99.640 Y135.249 E43.8367
G1 X95.136 Y134.911 E44.0621
G1 X90.514 Y133.837 E44.2988
G1 X89.062 Y132.436 E44.3995
G1 X88.309 Y126.985 E44.6740
G1 X88.417 Y121.550 E44.9452
G1 X89.274 Y117.086 E45.1720
G1 X90.379 Y116.203 E45.2425
G0 F3900 X90.624 Y116.519
G1 F900 X92.041 Y116.117 E45.3160
G1 X96.448 Y115.321 E45.5395
G1 X99.546 Y115.154 E45.6942
G1 X151.717 Y115.184 E48.2971
G1 X154.867 Y115.489 E48.4549
G1 X159.287 Y116.494 E48.6811
G1 X160.667 Y117.986 E48.7825
G1 X161.163 Y121.326 E48.9509
G1 X161.346 Y124.909 E49.1299
G1 X161.183 Y128.476 E49.3081
G1 X160.666 Y132.011 E49.4863
G1 X159.288 Y133.505 E49.5877
G1 X155.103 Y134.472 E49.8020
G1 X150.484 Y134.845 E50.0332
G1 X99.640 Y134.849 E52.5698
G1 X95.166 Y134.512 E52.7937
G1 X90.605 Y133.447 E53.0273
G1 X89.458 Y132.381 E53.1055
G1 X88.705 Y126.930 E53.3800
G1 X88.817 Y121.558 E53.6481
G1 X89.608 Y117.307 E53.8638
G1 X90.624 Y116.519 E53.9279
G0 F3900 X90.733 Y116.904
G1 F900 X92.150 Y116.502 E54.0014
G1 X96.519 Y115.715 E54.2229
G1 X99.567 Y115.553 E54.3752
G1 X151.717 Y115.584 E56.9769
G1 X154.828 Y115.887 E57.1329
G1 X159.198 Y116.884 E57.3565
G1 X160.271 Y118.045 E57.4354
G1 X160.767 Y121.385 E57.6038
G1 X160.947 Y124.929 E57.7809
G1 X160.783 Y128.457 E57.9571
G1 X160.270 Y131.953 E58.1334
G1 X159.198 Y133.115 E58.2122
G1 X155.013 Y134.082 E58.4265
G1 X150.452 Y134.446 E58.6548
G1 X99.640 Y134.449 E61.1898
G1 X95.196 Y134.113 E61.4122
G1 X90.696 Y133.058 E61.6428
G1 X89.826 Y132.223 E61.7029
G1 X89.101 Y126.876 E61.9721
G1 X89.217 Y121.567 E62.2371
G1 X89.943 Y117.526 E62.4419
G1 X90.733 Y116.904 E62.4921
G0 F3900 X90.842 Y117.289
G1 F900 X92.259 Y116.887 E62.5655
G1 X96.590 Y116.109 E62.7851
G1 X99.588 Y115.952 E62.9348
G1 X151.717 Y115.984 E65.5356
G1 X154.789 Y116.285 E65.6896
G1 X159.109 Y117.274 E65.9107
G1 X159.875 Y118.104 E65.9670
G1 X160.371 Y121.444 E66.1355
G1 X160.548 Y124.949 E66.3106
G1 X160.383 Y128.438 E66.4848
G1 X159.874 Y131.895 E66.6592
G1 X159.108 Y132.725 E66.7155
G1 X154.923 Y133.692 E66.9298
G1 X150.421 Y134.047 E67.1551
G1 X99.640 Y134.049 E69.6886
G1 X95.226 Y133.714 E69.9094
G1 X90.788 Y132.669 E70.1369
G1 X90.197 Y132.074 E70.1787
G1 X89.498 Y126.823 E70.4430
G1 X89.617 Y121.576 E70.7049
G1 X90.279 Y117.742 E70.8990
G1 X90.842 Y117.289 E70.9350
G0 F3900 X90.951 Y117.674
G1 F900 X92.368 Y117.272 E71.0085
G1 X96.661 Y116.503 E71.2261
G1 X99.609 Y116.351 E71.3734
G1 X151.717 Y116.384 E73.9730
G1 X154.750 Y116.683 E74.1251
G1 X159.019 Y117.664 E74.3436
G1 X159.479 Y118.163 E74.3775
G1 X159.975 Y121.503 E74.5459
G1 X160.149 Y124.969 E74.7191
G1 X159.983 Y128.419 E74.8914
G1 X159.478 Y131.837 E75.0638
G1 X159.018 Y132.335 E75.0976
G1 X154.833 Y133.302 E75.3119
G1 X150.390 Y133.648 E75.5342
G1 X99.640 Y133.649 E78.0662
G1 X95.256 Y133.315 E78.2855
G1 X90.880 Y132.280 E78.5099
G1 X90.575 Y131.943 E78.5325
G1 X89.895 Y126.771 E78.7928
G1 X90.017 Y121.585 E79.0516
G1 X90.617 Y117.956 E79.2351
G1 X90.951 Y117.674 E79.2569
G0 F3900 X92.477 Y117.657
G1 F900 X96.731 Y116.897 E79.4725
G1 X99.629 Y116.750 E79.6173
G1 X151.717 Y116.784 E82.2159
G1 X154.711 Y117.081 E82.3660
G1 X158.929 Y118.054 E82.5820
G1 X159.083 Y118.222 E82.5934
G1 X159.579 Y121.562 E82.7618
G1 X159.749 Y124.989 E82.9330
G1 X159.583 Y128.400 E83.1034
G1 X159.082 Y131.778 E83.2738
G1 X158.928 Y131.945 E83.2851
G1 X154.743 Y132.912 E83.4994
G1 X150.359 Y133.249 E83.7188
G1 X99.640 Y133.249 E86.2491
G1 X95.287 Y132.916 E86.4670
G1 X90.972 Y131.891 E86.6882
G1 X90.292 Y126.719 E86.9485
G1 X90.417 Y121.595 E87.2042
G1 X90.917 Y118.221 E87.3744
G1 X91.060 Y118.059 E87.3851
G1 X92.477 Y117.657 E87.4586
;PRINTING: blind_rail_end_cap_middle.stl
;PRINTING_ID: 0
G1 F2400 E84.4586
G0 F3900 X91.296 Y131.586
;TYPE:WALL-OUTER
;WIDTH:0.400
G1 F1500 E87.4586
G1 F2400 X90.691 Y126.690 E87.7047
G1 X90.816 Y121.626 E87.9575
G1 X91.294 Y118.407 E88.1198
G1 X92.584 Y118.041 E88.1867
G1 X96.769 Y117.296 E88.3988
G1 X99.659 Y117.150 E88.5432
G1 X151.707 Y117.184 E91.1398
G1 X154.660 Y117.479 E91.2879
G1 X158.706 Y118.413 E91.4951
G1 X159.183 Y121.626 E91.6571
G1 X159.350 Y125.000 E91.8257
G1 X159.183 Y128.373 E91.9941
G1 X158.706 Y131.586 E92.1562
G1 X154.659 Y132.520 E92.3634
G1 X150.348 Y132.850 E92.5791
G1 X99.651 Y132.850 E95.1084
G1 X95.340 Y132.520 E95.3241
G1 X91.296 Y131.586 E95.5312
G0 F3900 X91.659 Y131.259
;TYPE:WALL-INNER
;WIDTH:0.400
G1 F2400 X91.092 Y126.670 E95.7619
G1 X91.215 Y121.660 E96.0119
G1 X91.652 Y118.721 E96.1601
G1 X92.674 Y118.431 E96.2131
G1 X96.814 Y117.694 E96.4229
G1 X99.669 Y117.550 E96.5655
G1 X151.687 Y117.584 E99.1607
G1 X154.595 Y117.874 E99.3065
G1 X158.350 Y118.741 E99.4988
G1 X158.784 Y121.665 E99.6463
G1 X158.950 Y125.000 E99.8129
G1 X158.784 Y128.334 E99.9794
G1 X158.350 Y131.258 E100.1269
G1 X154.598 Y132.123 E100.3190
G1 X150.333 Y132.450 E100.5324
G1 X99.666 Y132.450 E103.0602
G1 X95.401 Y132.123 E103.2736
G1 X91.659 Y131.259 E103.4652
G0 F3900 X92.022 Y130.932
G1 F2400 X91.493 Y126.650 E103.6804
G1 X91.614 Y121.694 E103.9278
G1 X92.010 Y119.035 E104.0619
G1 X92.764 Y118.821 E104.1010
G1 X96.859 Y118.092 E104.3085
G1 X99.679 Y117.950 E104.4494
G1 X151.667 Y117.984 E107.0431
G1 X154.530 Y118.269 E107.1866
G1 X157.994 Y119.069 E107.3640
G1 X158.385 Y121.704 E107.4969
G1 X158.550 Y125.000 E107.6615
G1 X158.385 Y128.295 E107.8261
G1 X157.994 Y130.929 E107.9590
G1 X154.537 Y131.726 E108.1359
G1 X150.318 Y132.050 E108.3471
G1 X99.681 Y132.050 E110.8733
G1 X95.462 Y131.726 E111.0844
G1 X92.022 Y130.932 E111.2606
G0 F3900 X92.385 Y130.605
G1 F2400 X91.894 Y126.630 E111.4604
G1 X92.013 Y121.728 E111.7050
G1 X92.368 Y119.349 E111.8250
G1 X92.854 Y119.211 E111.8502
G1 X96.904 Y118.490 E112.0555
G1 X99.689 Y118.350 E112.1946
G1 X151.647 Y118.384 E114.7868
G1 X154.465 Y118.664 E114.9281
G1 X157.638 Y119.397 E115.0905
G1 X157.986 Y121.743 E115.2089
G1 X158.149 Y125.000 E115.3716
G1 X157.986 Y128.256 E115.5342
G1 X157.638 Y130.600 E115.6524
G1 X154.476 Y131.329 E115.8143
G1 X150.303 Y131.650 E116.0231
G1 X99.696 Y131.650 E118.5479
G1 X95.523 Y131.329 E118.7567
G1 X92.385 Y130.605 E118.9174
G0 F3900 X92.510 Y130.128
;TYPE:SOLID-FILL
;WIDTH:0.400
G1 F2400 X92.922 Y130.540 E118.9465
G0 F2400 X93.657 Y130.709
G1 F2400 X92.430 Y129.483 E119.0330
G0 F2400 X92.350 Y128.837
G1 F2400 X94.392 Y130.879 E119.1771
G0 F2400 X95.127 Y131.048
G1 F2400 X92.271 Y128.192 E119.3786
G0 F2400 X92.191 Y127.547
G1 F2400 X95.810 Y131.166 E119.6339
G0 F2400 X96.423 Y131.212
G1 F2400 X92.112 Y126.902 E119.9381
G0 F2400 X92.085 Y126.309
G1 F2400 X97.036 Y131.260 E120.2874
G0 F2400 X97.648 Y131.306
G1 F2400 X92.098 Y125.756 E120.6790
G0 F2400 X92.112 Y125.205
G1 F2400 X98.261 Y131.354 E121.1128
G0 F2400 X98.874 Y131.400
G1 F2400 X92.126 Y124.653 E121.5889
G0 F2400 X92.139 Y124.100
G1 F2400 X99.487 Y131.448 E122.1073
G0 F2400 X100.069 Y131.465
G1 F2400 X92.152 Y123.548 E122.6659
G0 F2400 X92.166 Y122.996
G1 F2400 X100.635 Y131.465 E123.2634
G0 F2400 X101.201 Y131.465
G1 F2400 X92.179 Y122.444 E123.9000
G0 F2400 X92.193 Y121.891
G1 F2400 X101.766 Y131.465 E124.5754
G0 F2400 X102.332 Y131.465
G1 F2400 X92.250 Y121.383 E125.2868
G0 F2400 X92.324 Y120.891
G1 F2400 X102.898 Y131.465 E126.0328
G0 F2400 X103.463 Y131.465
G1 F2400 X92.397 Y120.399 E126.8136
G0 F2400 X92.471 Y119.906
G1 F2400 X104.029 Y131.465 E127.6291
G0 F2400 X104.595 Y131.465
G1 F2400 X92.603 Y119.473 E128.4752
G0 F2400 X93.056 Y119.361
G1 F2400 X105.160 Y131.465 E129.3292
G0 F2400 X105.726 Y131.465
G1 F2400 X93.536 Y119.275 E130.1893
G0 F2400 X94.016 Y119.189
G1 F2400 X106.292 Y131.465 E131.0554
G0 F2400 X106.857 Y131.465
G1 F2400 X94.497 Y119.104 E131.9275
G0 F2400 X94.977 Y119.019
G1 F2400 X107.423 Y131.465 E132.8056
G0 F2400 X107.989 Y131.465
G1 F2400 X95.458 Y118.933 E133.6898
G0 F2400 X95.938 Y118.848
G1 F2400 X108.555 Y131.465 E134.5800
G0 F2400 X109.120 Y131.465
G1 F2400 X96.418 Y118.762 E135.4762
G0 F2400 X96.898 Y118.677
G1 F2400 X109.686 Y131.465 E136.3785
G0 F2400 X110.252 Y131.465
G1 F2400 X97.433 Y118.646 E137.2829
G0 F2400 X97.972 Y118.619
G1 F2400 X110.817 Y131.465 E138.1893
G0 F2400 X111.383 Y131.465
G1 F2400 X98.511 Y118.593 E139.0974
G0 F2400 X99.049 Y118.565
G1 F2400 X111.949 Y131.465 E140.0076
G0 F2400 X112.514 Y131.465
G1 F2400 X99.588 Y118.538 E140.9196
G0 F2400 X100.148 Y118.533
G1 F2400 X113.080 Y131.465 E141.8321
G0 F2400 X113.646 Y131.465
G1 F2400 X100.714 Y118.533 E142.7445
G0 F2400 X101.281 Y118.534
G1 F2400 X114.211 Y131.465 E143.6568
G0 F2400 X114.777 Y131.465
G1 F2400 X101.847 Y118.535 E144.5691
G0 F2400 X102.413 Y118.535
G1 F2400 X115.343 Y131.465 E145.4814
G0 F2400 X115.908 Y131.465
G1 F2400 X102.979 Y118.535 E146.3936
G0 F2400 X103.545 Y118.535
G1 F2400 X116.474 Y131.465 E147.3059
G0 F2400 X117.040 Y131.465
G1 F2400 X104.111 Y118.536 E148.2181
G0 F2400 X104.677 Y118.536
G1 F2400 X117.605 Y131.465 E149.1302
G0 F2400 X118.171 Y131.465
G1 F2400 X105.243 Y118.537 E150.0424
G0 F2400 X105.809 Y118.537
G1 F2400 X118.737 Y131.465 E150.9545
G0 F2400 X119.303 Y131.465
G1 F2400 X106.375 Y118.537 E151.8667
G0 F2400 X106.941 Y118.537
G1 F2400 X119.868 Y131.465 E152.7788
G0 F2400 X120.434 Y131.465
G1 F2400 X107.507 Y118.538 E153.6908
G0 F2400 X108.073 Y118.538
G1 F2400 X121.000 Y131.465 E154.6029
G0 F2400 X121.565 Y131.465
G1 F2400 X108.639 Y118.539 E155.5149
G0 F2400 X109.205 Y118.539
G1 F2400 X122.131 Y131.465 E156.4269
G0 F2400 X122.697 Y131.465
G1 F2400 X109.771 Y118.540 E157.3389
G0 F2400 X110.338 Y118.540
G1 F2400 X123.262 Y131.465 E158.2508
G0 F2400 X123.828 Y131.465
G1 F2400 X110.904 Y118.540 E159.1627
G0 F2400 X111.470 Y118.541
G1 F2400 X124.394 Y131.465 E160.0745
G0 F2400 X124.959 Y131.465
G1 F2400 X112.036 Y118.541 E160.9863
G0 F2400 X112.602 Y118.542
G1 F2400 X125.525 Y131.465 E161.8981
G0 F2400 X126.091 Y131.465
G1 F2400 X113.168 Y118.542 E162.8099
G0 F2400 X113.734 Y118.542
G1 F2400 X126.656 Y131.465 E163.7217
G0 F2400 X127.222 Y131.465
G1 F2400 X114.300 Y118.542 E164.6334
G0 F2400 X114.866 Y118.543
G1 F2400 X127.788 Y131.465 E165.5451
G0 F2400 X128.354 Y131.465
G1 F2400 X115.432 Y118.543 E166.4569
G0 F2400 X115.998 Y118.544
G1 F2400 X128.919 Y131.465 E167.3685
G0 F2400 X129.485 Y131.465
G1 F2400 X116.564 Y118.544 E168.2801
G0 F2400 X117.130 Y118.545
G1 F2400 X130.051 Y131.465 E169.1918
G0 F2400 X130.616 Y131.465
G1 F2400 X117.696 Y118.545 E170.1033
G0 F2400 X118.262 Y118.545
G1 F2400 X131.182 Y131.465 E171.0149
G0 F2400 X131.748 Y131.465
G1 F2400 X118.829 Y118.546 E171.9264
G0 F2400 X119.394 Y118.546
G1 F2400 X132.313 Y131.465 E172.8379
G0 F2400 X132.879 Y131.465
G1 F2400 X119.961 Y118.547 E173.7494
G0 F2400 X120.527 Y118.547
G1 F2400 X133.445 Y131.465 E174.6608
G0 F2400 X134.010 Y131.465
G1 F2400 X121.093 Y118.547 E175.5722
G0 F2400 X121.659 Y118.547
G1 F2400 X134.576 Y131.465 E176.4836
G0 F2400 X135.142 Y131.465
G1 F2400 X122.225 Y118.548 E177.3950
G0 F2400 X122.791 Y118.548
G1 F2400 X135.707 Y131.465 E178.3063
G0 F2400 X136.273 Y131.465
G1 F2400 X123.357 Y118.549 E179.2176
G0 F2400 X123.923 Y118.549
G1 F2400 X136.839 Y131.465 E180.1289
G0 F2400 X137.404 Y131.465
G1 F2400 X124.489 Y118.549 E181.0401
G0 F2400 X125.055 Y118.549
G1 F2400 X137.970 Y131.465 E181.9514
G0 F2400 X138.536 Y131.465
G1 F2400 X125.621 Y118.550 E182.8626
G0 F2400 X126.187 Y118.550
G1 F2400 X139.102 Y131.465 E183.7738
G0 F2400 X139.667 Y131.465
G1 F2400 X126.753 Y118.551 E184.6850
G0 F2400 X127.320 Y118.552
G1 F2400 X140.233 Y131.465 E185.5961
G0 F2400 X140.799 Y131.465
