;Sliced by ideaMaker 5.2.3.8580, 2025-05-12 09:33:41 UTC+0200
;Slicer Version: 5.2.3.8580
;Dimension: 250.000 250.000 250.000 0.400
;Plate Shape: 0
;Origin Center: 0
;Extruder Offset #1: 25.000 0.000
;Filament Diameter #1: 1.750
;Filament Diameter #2: 1.750
;Filament Compensation #1: 94.000
;Filament Compensation #2: 90.000
;Filament Density #1: 1240.000
;Filament Density #2: 1240.000
;Filament Type #1: PLA
;Filament Type #2: PLA
;Filament Name #1: [Raise3D] Premium PLA 1.75mm
;Filament Name #2: [Raise3D] Premium PLA 1.75mm
;Filament #1: PLA 1.75mm
;Filament #2: PLA 1.75mm
;Printer Type: floppy
;Firmware: Klipper
;Bounding Box: 86.304 163.696 115.984 134.016 0.000 20.400
;Model Gap: 0.000
M221 T0 S94.00
M140 S50.00
M104 T0 S190.00
M109 T0 S190.00
T0
M190 S50.00
G21 ;metric values
G90 ;absolute positioning
M82 ;set extruder to absolute mode
M107 ;start with the fan off
G28 X0 Y0 ;move X/Y to min endstops
G28 Z0 ;move Z to min endstops
G1 Z15.0 F9000 ;move the platform down 15mm
G92 E0 ;zero the extruded length
G0 X43 Y27 F2000  ;go to the edge of the bed
G92 X0 Y0 E0 ;set zero to edge of the bed
G0 F9000 Z1 ;Z up with 1mm
G1 F200 Z0 ;Z home slowly
G1 Z15.0 F9000 ;move the platform down 15mm
G1 F9000 ;speed setting
G92 E-3 ;retraction
M117 Printing...
M1001
;TOTAL_NUM: 1
;PRINTING_TIME: 0
;REMAINING_TIME: 1444
;LAYER:0
;Z:0.300
;HEIGHT:0.300
;PRINTING: blind_rail_end_cap_middle.stl
;PRINTING_ID: 0
G1 F2400 E-3.0000
G0 F3900 X87.230 Y132.396
G0 F300 Z0.300
;TYPE:WALL-OUTER
;WIDTH:0.400
G1 F1500 E0.0000
G1 F2400 X86.550 Y126.894 E0.2766
G1 X86.690 Y121.219 E0.5598
G1 X87.228 Y117.597 E0.7425
G1 X88.684 Y117.184 E0.8180
G1 X93.381 Y116.347 E1.0560
G1 X96.617 Y116.184 E1.2177
G1 X154.922 Y116.222 E4.1265
G1 X158.219 Y116.552 E4.2918
G1 X162.772 Y117.603 E4.5249
G1 X163.309 Y121.219 E4.7073
G1 X163.496 Y124.999 E4.8961
G1 X163.309 Y128.780 E5.0850
G1 X162.772 Y132.396 E5.2674
G1 X158.219 Y133.447 E5.5005
G1 X153.390 Y133.816 E5.7421
G1 X96.609 Y133.816 E8.5750
G1 X91.780 Y133.447 E8.8166
G1 X87.230 Y132.396 E9.0496
G0 F3900 X87.593 Y132.069
;TYPE:WALL-INNER
;WIDTH:0.400
G1 F2400 X86.951 Y126.874 E9.3107
G1 X87.089 Y121.253 E9.5912
G1 X87.586 Y117.911 E9.7598
G1 X88.774 Y117.574 E9.8214
G1 X93.426 Y116.745 E10.0571
G1 X96.627 Y116.584 E10.2170
G1 X154.902 Y116.622 E13.1244
G1 X158.154 Y116.947 E13.2874
G1 X162.416 Y117.931 E13.5057
G1 X162.910 Y121.258 E13.6735
G1 X163.096 Y124.999 E13.8603
G1 X162.910 Y128.741 E14.0473
G1 X162.416 Y132.068 E14.2151
G1 X158.158 Y133.050 E14.4331
G1 X153.375 Y133.416 E14.6724
G1 X96.624 Y133.416 E17.5037
G1 X91.841 Y133.050 E17.7430
G1 X87.593 Y132.069 E17.9606
G0 F3900 X87.956 Y131.742
G1 F2400 X87.352 Y126.854 E18.2063
G1 X87.488 Y121.287 E18.4841
G1 X87.944 Y118.225 E18.6385
G1 X88.864 Y117.964 E18.6862
G1 X93.471 Y117.143 E18.9197
G1 X96.637 Y116.984 E19.0779
G1 X154.882 Y117.022 E21.9837
G1 X158.089 Y117.342 E22.1445
G1 X162.060 Y118.259 E22.3478
G1 X162.511 Y121.297 E22.5011
G1 X162.696 Y124.999 E22.6860
G1 X162.511 Y128.702 E22.8710
G1 X162.060 Y131.740 E23.0242
G1 X158.097 Y132.653 E23.2271
G1 X153.360 Y133.016 E23.4641
G1 X96.639 Y133.016 E26.2939
G1 X91.902 Y132.653 E26.5310
G1 X87.956 Y131.742 E26.7330
G0 F3900 X88.319 Y131.415
G1 F2400 X87.753 Y126.834 E26.9633
G1 X87.887 Y121.321 E27.2384
G1 X88.302 Y118.539 E27.3787
G1 X88.954 Y118.354 E27.4126
G1 X93.516 Y117.541 E27.6437
G1 X96.647 Y117.384 E27.8001
G1 X154.862 Y117.422 E30.7045
G1 X158.024 Y117.737 E30.8630
G1 X161.704 Y118.587 E31.0515
G1 X162.112 Y121.336 E31.1901
G1 X162.296 Y124.999 E31.3731
G1 X162.112 Y128.663 E31.5561
G1 X161.704 Y131.411 E31.6947
G1 X158.036 Y132.256 E31.8825
G1 X153.345 Y132.616 E32.1172
G1 X96.654 Y132.616 E34.9456
G1 X91.963 Y132.256 E35.1803
G1 X88.319 Y131.415 E35.3669
G0 F3900 X88.473 Y131.183
;TYPE:SOLID-FILL
;WIDTH:0.400
G1 F2400 X88.575 Y131.284 E35.3740
G0 F2400 X89.311 Y131.454
G1 F2400 X88.394 Y130.538 E35.4387
G0 F2400 X88.315 Y129.893
G1 F2400 X90.046 Y131.624 E35.5608
G0 F2400 X90.781 Y131.793
G1 F2400 X88.235 Y129.247 E35.7405
G0 F2400 X88.156 Y128.602
G1 F2400 X91.516 Y131.963 E35.9776
G0 F2400 X92.208 Y132.088
G1 F2400 X88.076 Y127.957 E36.2691
G0 F2400 X87.997 Y127.312
G1 F2400 X92.821 Y132.136 E36.6094
G0 F2400 X93.433 Y132.183
G1 F2400 X87.940 Y126.689 E36.9970
G0 F2400 X87.953 Y126.137
G1 F2400 X94.046 Y132.230 E37.4269
G0 F2400 X94.658 Y132.277
G1 F2400 X87.966 Y125.584 E37.8991
G0 F2400 X87.980 Y125.032
G1 F2400 X95.272 Y132.324 E38.4136
G0 F2400 X95.884 Y132.371
G1 F2400 X87.993 Y124.480 E38.9703
G0 F2400 X88.007 Y123.928
G1 F2400 X96.497 Y132.418 E39.5694
G0 F2400 X97.075 Y132.431
G1 F2400 X88.020 Y123.375 E40.2083
G0 F2400 X88.034 Y122.823
G1 F2400 X97.641 Y132.431 E40.8861
G0 F2400 X98.207 Y132.431
G1 F2400 X88.047 Y122.271 E41.6030
G0 F2400 X88.060 Y121.719
G1 F2400 X98.772 Y132.431 E42.3588
G0 F2400 X99.338 Y132.431
G1 F2400 X88.092 Y121.185 E43.1522
G0 F2400 X88.166 Y120.693
G1 F2400 X99.904 Y132.431 E43.9804
G0 F2400 X100.469 Y132.431
G1 F2400 X88.239 Y120.201 E44.8433
G0 F2400 X88.313 Y119.708
G1 F2400 X101.035 Y132.431 E45.7409
G0 F2400 X101.601 Y132.431
G1 F2400 X88.386 Y119.216 E46.6733
G0 F2400 X88.460 Y118.724
G1 F2400 X102.167 Y132.431 E47.6404
G0 F2400 X102.732 Y132.431
G1 F2400 X88.869 Y118.568 E48.6185
G0 F2400 X89.338 Y118.471
G1 F2400 X103.298 Y132.431 E49.6035
G0 F2400 X103.864 Y132.431
G1 F2400 X89.818 Y118.385 E50.5945
G0 F2400 X90.298 Y118.300
G1 F2400 X104.429 Y132.431 E51.5915
G0 F2400 X104.995 Y132.431
G1 F2400 X90.779 Y118.214 E52.5946
G0 F2400 X91.259 Y118.129
G1 F2400 X105.561 Y132.431 E53.6037
G0 F2400 X106.126 Y132.431
G1 F2400 X91.739 Y118.043 E54.6188
G0 F2400 X92.219 Y117.958
G1 F2400 X106.692 Y132.431 E55.6399
G0 F2400 X107.258 Y132.431
G1 F2400 X92.700 Y117.873 E56.6671
G0 F2400 X93.180 Y117.787
G1 F2400 X107.823 Y132.431 E57.7003
G0 F2400 X108.389 Y132.431
G1 F2400 X93.675 Y117.717 E58.7384
G0 F2400 X94.214 Y117.690
G1 F2400 X108.955 Y132.431 E59.7785
G0 F2400 X109.520 Y132.431
G1 F2400 X94.752 Y117.662 E60.8205
G0 F2400 X95.291 Y117.635
G1 F2400 X110.086 Y132.431 E61.8644
G0 F2400 X110.652 Y132.431
G1 F2400 X95.829 Y117.608 E62.9102
G0 F2400 X96.368 Y117.581
G1 F2400 X111.217 Y132.431 E63.9579
G0 F2400 X111.783 Y132.431
G1 F2400 X96.920 Y117.567 E65.0066
G0 F2400 X97.485 Y117.567
G1 F2400 X112.349 Y132.431 E66.0554
G0 F2400 X112.915 Y132.431
G1 F2400 X98.052 Y117.568 E67.1040
G0 F2400 X98.618 Y117.568
G1 F2400 X113.480 Y132.431 E68.1527
G0 F2400 X114.046 Y132.431
G1 F2400 X99.184 Y117.569 E69.2012
G0 F2400 X99.750 Y117.569
G1 F2400 X114.612 Y132.431 E70.2498
G0 F2400 X115.177 Y132.431
G1 F2400 X100.316 Y117.569 E71.2984
G0 F2400 X100.882 Y117.569
G1 F2400 X115.743 Y132.431 E72.3470
G0 F2400 X116.309 Y132.431
G1 F2400 X101.448 Y117.570 E73.3955
G0 F2400 X102.015 Y117.571
G1 F2400 X116.874 Y132.431 E74.4439
G0 F2400 X117.440 Y132.431
G1 F2400 X102.580 Y117.571 E75.4924
G0 F2400 X103.147 Y117.572
G1 F2400 X118.006 Y132.431 E76.5407
G0 F2400 X118.571 Y132.431
G1 F2400 X103.712 Y117.572 E77.5891
G0 F2400 X104.279 Y117.572
G1 F2400 X119.137 Y132.431 E78.6375
G0 F2400 X119.703 Y132.431
G1 F2400 X104.844 Y117.572 E79.6859
G0 F2400 X105.411 Y117.573
G1 F2400 X120.268 Y132.431 E80.7341
G0 F2400 X120.834 Y132.431
G1 F2400 X105.976 Y117.573 E81.7824
G0 F2400 X106.543 Y117.574
G1 F2400 X121.400 Y132.431 E82.8307
G0 F2400 X121.966 Y132.431
G1 F2400 X107.108 Y117.574 E83.8790
G0 F2400 X107.675 Y117.574
G1 F2400 X122.531 Y132.431 E84.9272
G0 F2400 X123.097 Y132.431
G1 F2400 X108.241 Y117.574 E85.9754
G0 F2400 X108.807 Y117.575
G1 F2400 X123.663 Y132.431 E87.0235
G0 F2400 X124.228 Y132.431
G1 F2400 X109.373 Y117.576 E88.0716
G0 F2400 X109.939 Y117.576
G1 F2400 X124.794 Y132.431 E89.1197
G0 F2400 X125.360 Y132.431
G1 F2400 X110.505 Y117.577 E90.1678
G0 F2400 X111.071 Y117.577
G1 F2400 X125.925 Y132.431 E91.2158
G0 F2400 X126.491 Y132.431
G1 F2400 X111.638 Y117.577 E92.2638
G0 F2400 X112.203 Y117.577
G1 F2400 X127.057 Y132.431 E93.3119
G0 F2400 X127.622 Y132.431
G1 F2400 X112.770 Y117.578 E94.3598
G0 F2400 X113.335 Y117.578
G1 F2400 X128.188 Y132.431 E95.4077
G0 F2400 X128.754 Y132.431
G1 F2400 X113.902 Y117.579 E96.4556
G0 F2400 X114.467 Y117.579
G1 F2400 X129.319 Y132.431 E97.5035
G0 F2400 X129.885 Y132.431
G1 F2400 X115.034 Y117.579 E98.5514
G0 F2400 X115.599 Y117.579
G1 F2400 X130.451 Y132.431 E99.5993
G0 F2400 X131.016 Y132.431
G1 F2400 X116.166 Y117.580 E100.6470
G0 F2400 X116.732 Y117.580
G1 F2400 X131.582 Y132.431 E101.6948
G0 F2400 X132.148 Y132.431
G1 F2400 X117.298 Y117.581 E102.7426
G0 F2400 X117.864 Y117.581
G1 F2400 X132.714 Y132.431 E103.7903
G0 F2400 X133.279 Y132.431
G1 F2400 X118.430 Y117.581 E104.8380
G0 F2400 X118.996 Y117.582
G1 F2400 X133.845 Y132.431 E105.8857
G0 F2400 X134.411 Y132.431
G1 F2400 X119.562 Y117.582 E106.9334
G0 F2400 X120.128 Y117.583
G1 F2400 X134.976 Y132.431 E107.9810
G0 F2400 X135.542 Y132.431
G1 F2400 X120.694 Y117.583 E109.0286
G0 F2400 X121.261 Y117.584
G1 F2400 X136.108 Y132.431 E110.0761
G0 F2400 X136.673 Y132.431
G1 F2400 X121.826 Y117.584 E111.1237
G0 F2400 X122.393 Y117.584
G1 F2400 X137.239 Y132.431 E112.1712
G0 F2400 X137.805 Y132.431
G1 F2400 X122.958 Y117.584 E113.2187
G0 F2400 X123.525 Y117.585
G1 F2400 X138.370 Y132.431 E114.2661
G0 F2400 X138.936 Y132.431
G1 F2400 X124.090 Y117.585 E115.3136
G0 F2400 X124.657 Y117.586
G1 F2400 X139.502 Y132.431 E116.3610
G0 F2400 X140.067 Y132.431
G1 F2400 X125.223 Y117.586 E117.4084
G0 F2400 X125.789 Y117.586
G1 F2400 X140.633 Y132.431 E118.4557
G0 F2400 X141.199 Y132.431
G1 F2400 X126.355 Y117.587 E119.5031
G0 F2400 X126.921 Y117.587
G1 F2400 X141.765 Y132.431 E120.5504
G0 F2400 X142.330 Y132.431
G1 F2400 X127.487 Y117.588 E121.5976
G0 F2400 X128.053 Y117.588
G1 F2400 X142.896 Y132.431 E122.6449
G0 F2400 X143.462 Y132.431
G1 F2400 X128.619 Y117.589 E123.6921
G0 F2400 X129.185 Y117.589
G1 F2400 X144.027 Y132.431 E124.7393
G0 F2400 X144.593 Y132.431
G1 F2400 X129.751 Y117.589 E125.7865
G0 F2400 X130.317 Y117.589
G1 F2400 X145.159 Y132.431 E126.8337
G0 F2400 X145.724 Y132.431
G1 F2400 X130.884 Y117.590 E127.8807
G0 F2400 X131.449 Y117.590
G1 F2400 X146.290 Y132.431 E128.9278
G0 F2400 X146.856 Y132.431
G1 F2400 X132.016 Y117.591 E129.9749
G0 F2400 X132.581 Y117.591
G1 F2400 X147.421 Y132.431 E131.0219
G0 F2400 X147.987 Y132.431
G1 F2400 X133.148 Y117.591 E132.0689
G0 F2400 X133.714 Y117.592
G1 F2400 X148.553 Y132.431 E133.1159
G0 F2400 X149.118 Y132.431
G1 F2400 X134.280 Y117.592 E134.1628
G0 F2400 X134.846 Y117.593
G1 F2400 X149.684 Y132.431 E135.2097
G0 F2400 X150.250 Y132.431
G1 F2400 X135.412 Y117.593 E136.2566
G0 F2400 X135.978 Y117.593
G1 F2400 X150.815 Y132.431 E137.3035
G0 F2400 X151.381 Y132.431
G1 F2400 X136.544 Y117.593 E138.3504
G0 F2400 X137.110 Y117.594
G1 F2400 X151.947 Y132.431 E139.3972
G0 F2400 X152.513 Y132.431
G1 F2400 X137.676 Y117.594 E140.4440
G0 F2400 X138.242 Y117.595
G1 F2400 X153.078 Y132.431 E141.4908
G0 F2400 X153.622 Y132.409
G1 F2400 X138.808 Y117.595 E142.5360
G0 F2400 X139.374 Y117.596
G1 F2400 X154.147 Y132.368 E143.5783
G0 F2400 X154.673 Y132.328
G1 F2400 X139.940 Y117.596 E144.6177
G0 F2400 X140.507 Y117.596
G1 F2400 X155.198 Y132.288 E145.6543
G0 F2400 X155.724 Y132.248
G1 F2400 X141.072 Y117.596 E146.6881
G0 F2400 X141.639 Y117.597
G1 F2400 X156.249 Y132.207 E147.7189
G0 F2400 X156.774 Y132.167
G1 F2400 X142.205 Y117.598 E148.7468
G0 F2400 X142.771 Y117.598
G1 F2400 X157.300 Y132.127 E149.7719
G0 F2400 X157.825 Y132.086
G1 F2400 X143.337 Y117.598 E150.7941
G0 F2400 X143.903 Y117.598
G1 F2400 X158.307 Y132.003 E151.8104
G0 F2400 X158.768 Y131.898
G1 F2400 X144.469 Y117.599 E152.8193
G0 F2400 X145.035 Y117.599
G1 F2400 X159.227 Y131.791 E153.8206
G0 F2400 X159.687 Y131.685
G1 F2400 X145.601 Y117.600 E154.8144
G0 F2400 X146.167 Y117.600
G1 F2400 X160.146 Y131.579 E155.8007
G0 F2400 X160.606 Y131.473
G1 F2400 X146.733 Y117.601 E156.7795
G0 F2400 X147.299 Y117.601
G1 F2400 X161.066 Y131.367 E157.7508
G0 F2400 X161.526 Y131.262
G1 F2400 X147.865 Y117.601 E158.7147
G0 F2400 X148.431 Y117.601
G1 F2400 X161.610 Y130.780 E159.6445
G0 F2400 X161.684 Y130.288
G1 F2400 X148.998 Y117.602 E160.5396
G0 F2400 X149.564 Y117.603
G1 F2400 X161.757 Y129.795 E161.3998
G0 F2400 X161.830 Y129.303
G1 F2400 X150.130 Y117.603 E162.2253
G0 F2400 X150.696 Y117.603
G1 F2400 X161.904 Y128.811 E163.0161
G0 F2400 X161.946 Y128.288
G1 F2400 X151.262 Y117.603 E163.7700
G0 F2400 X151.828 Y117.604
G1 F2400 X161.973 Y127.749 E164.4858
G0 F2400 X162.000 Y127.210
G1 F2400 X152.394 Y117.604 E165.1635
G0 F2400 X152.960 Y117.605
G1 F2400 X162.027 Y126.672 E165.8032
G0 F2400 X162.054 Y126.133
G1 F2400 X153.526 Y117.605 E166.4049
G0 F2400 X154.092 Y117.605
G1 F2400 X162.081 Y125.594 E166.9686
G0 F2400 X162.108 Y125.056
G1 F2400 X154.658 Y117.605 E167.4943
G0 F2400 X155.265 Y117.647
G1 F2400 X162.085 Y124.467 E167.9755
G0 F2400 X162.054 Y123.870
G1 F2400 X155.893 Y117.709 E168.4101
G0 F2400 X156.521 Y117.772
G1 F2400 X162.025 Y123.275 E168.7985
G0 F2400 X161.995 Y122.680
G1 F2400 X157.150 Y117.835 E169.1403
G0 F2400 X157.778 Y117.897
G1 F2400 X161.964 Y122.084 E169.4357
G0 F2400 X161.935 Y121.488
G1 F2400 X158.477 Y118.030 E169.6797
G0 F2400 X159.212 Y118.200
G1 F2400 X161.851 Y120.839 E169.8658
G0 F2400 X161.753 Y120.175
G1 F2400 X159.948 Y118.371 E169.9932
G0 F2400 X160.684 Y118.540
G1 F2400 X161.654 Y119.510 E170.0616
G0 F2400 X161.555 Y118.846
G1 F2400 X161.419 Y118.710 E170.0712
;PRINTING_TIME: 100
;REMAINING_TIME: 1344
;LAYER:1
;Z:0.600
;HEIGHT:0.300
M106 S26
;PRINTING: blind_rail_end_cap_middle.stl
;PRINTING_ID: 0
G1 F2400 E167.0712
G0 F300 Z0.600
G0 F3900 X161.419 Y118.710
G0 X87.691 Y132.048
G0 X87.230 Y132.396
;TYPE:WALL-OUTER
;WIDTH:0.400
G1 F1500 E170.0712
G1 F2100 X86.550 Y126.894 E170.3478
G1 X86.690 Y121.219 E170.6310
G1 X87.228 Y117.597 E170.8137
G1 X88.758 Y117.165 E170.8930
G1 X93.344 Y116.351 E171.1254
G1 X96.617 Y116.184 E171.2889
G1 X154.771 Y116.219 E174.1902
G1 X158.275 Y116.561 E174.3658
G1 X162.772 Y117.604 E174.5961
G1 X163.309 Y121.219 E174.7785
G1 X163.496 Y125.000 E174.9673
G1 X163.309 Y128.780 E175.1562
G1 X162.772 Y132.396 E175.3385
G1 X158.274 Y133.438 E175.5689
G1 X153.390 Y133.816 E175.8133
G1 X96.609 Y133.816 E178.6461
G1 X91.725 Y133.438 E178.8905
G1 X87.230 Y132.396 E179.1207
G0 F3900 X87.593 Y132.069
;TYPE:WALL-INNER
;WIDTH:0.400
;FLOW:90.0
G1 F2400 X86.951 Y126.874 E179.3557
G1 X87.089 Y121.253 E179.6082
G1 X87.586 Y117.912 E179.7599
G1 X88.848 Y117.555 E179.8188
G1 X93.389 Y116.749 E180.0258
G1 X96.627 Y116.584 E180.1714
G1 X154.751 Y116.619 E182.7812
G1 X158.210 Y116.957 E182.9373
G1 X162.416 Y117.932 E183.1312
G1 X162.910 Y121.258 E183.2821
G1 X163.096 Y125.000 E183.4504
G1 X162.910 Y128.741 E183.6186
G1 X162.416 Y132.068 E183.7696
G1 X158.213 Y133.042 E183.9633
G1 X153.375 Y133.416 E184.1812
G1 X96.624 Y133.416 E186.7294
G1 X91.786 Y133.042 E186.9472
G1 X87.593 Y132.069 E187.1405
G0 F3900 X87.956 Y131.743
G1 F2400 X87.352 Y126.854 E187.3617
G1 X87.488 Y121.287 E187.6117
G1 X87.944 Y118.227 E187.7507
G1 X88.938 Y117.945 E187.7971
G1 X93.434 Y117.147 E188.0021
G1 X96.637 Y116.984 E188.1461
G1 X154.731 Y117.019 E190.7546
G1 X158.145 Y117.353 E190.9086
G1 X162.060 Y118.260 E191.0891
G1 X162.511 Y121.297 E191.2269
G1 X162.696 Y125.000 E191.3934
G1 X162.511 Y128.702 E191.5598
G1 X162.060 Y131.740 E191.6977
G1 X158.152 Y132.646 E191.8779
G1 X153.360 Y133.016 E192.0937
G1 X96.639 Y133.016 E194.6405
G1 X91.847 Y132.646 E194.8563
G1 X87.956 Y131.743 E195.0357
G0 F3900 X88.319 Y131.417
G1 F2400 X87.753 Y126.834 E195.2430
G1 X87.887 Y121.321 E195.4906
G1 X88.302 Y118.541 E195.6168
G1 X89.028 Y118.335 E195.6507
G1 X93.479 Y117.545 E195.8537
G1 X96.647 Y117.384 E195.9961
G1 X154.711 Y117.419 E198.6033
G1 X158.080 Y117.749 E198.7553
G1 X161.704 Y118.588 E198.9223
G1 X162.112 Y121.336 E199.0470
G1 X162.296 Y125.000 E199.2118
G1 X162.112 Y128.663 E199.3764
G1 X161.704 Y131.412 E199.5012
G1 X158.091 Y132.250 E199.6678
G1 X153.345 Y132.616 E199.8815
G1 X96.654 Y132.616 E202.4270
G1 X91.908 Y132.250 E202.6407
