;Sliced by ideaMaker 5.2.4.8581, 2025-07-21 09:39:38 UTC+0200
;Slicer Version: 5.2.3.8580
;Dimension: 250.000 250.000 250.000 0.400
;Plate Shape: 0
;Origin Center: 0
;Extruder Offset #1: 25.000 0.000
;Filament Diameter #1: 1.750
;Filament Diameter #2: 1.750
;Filament Compensation #1: 94.000
;Filament Compensation #2: 90.000
;Filament Density #1: 1240.000
;Filament Density #2: 1240.000
;Filament Type #1: PLA
;Filament Type #2: PLA
;Filament Name #1: [Raise3D] Premium PLA 1.75mm
;Filament Name #2: [Raise3D] Premium PLA 1.75mm
;Filament #1: PLA 1.75mm
;Filament #2: PLA 1.75mm
;Printer Type: floppy
;Firmware: Klipper
;Bounding Box: 109.675 140.323 100.900 149.151 0.000 2.400
;Model Gap: 0.000
M221 T0 S94.00
M140 S50.00
M104 T0 S190.00
M109 T0 S190.00
T0
M190 S50.00
G21 ;metric values
G90 ;absolute positioning
M82 ;set extruder to absolute mode
M107 ;start with the fan off
G28 X0 Y0 ;move X/Y to min endstops
G28 Z0 ;move Z to min endstops
G1 Z15.0 F9000 ;move the platform down 15mm
G92 E0 ;zero the extruded length
G0 X43 Y27 F2000  ;go to the edge of the bed
G92 X0 Y0 E0 ;set zero to edge of the bed
G0 F9000 Z1 ;Z up with 1mm
G1 F200 Z0 ;Z home slowly
G1 Z15.0 F9000 ;move the platform down 15mm
G1 F9000 ;speed setting
G92 E-3 ;retraction
M117 Printing...
M1001
;TOTAL_NUM: 1
;PRINTING_TIME: 0
;REMAINING_TIME: 473
;LAYER:0
;Z:0.300
;HEIGHT:0.300
;PRINTING: NON-OBJECT
;PRINTING_ID: -1
G1 F2400 E-3.0000
G0 F3900 X116.907 Y104.506
G0 F300 Z0.300
;TYPE:SKIRT
;WIDTH:0.400
G1 F1500 E0.0000
G1 F900 X119.260 Y102.505 E0.1541
G1 X122.342 Y101.188 E0.3213
G1 X125.921 Y100.900 E0.5004
G1 X128.634 Y101.478 E0.6388
G1 X131.289 Y102.870 E0.7884
G1 X133.399 Y104.873 E0.9335
G1 X134.977 Y107.566 E1.0893
G1 X135.566 Y109.454 E1.1879
G1 X135.784 Y111.210 E1.2762
G1 X135.800 Y123.047 E1.8668
G1 X136.989 Y124.263 E1.9516
G1 X138.741 Y127.030 E2.1150
G1 X139.966 Y130.521 E2.2996
G1 X140.323 Y134.189 E2.4834
G1 X139.922 Y137.348 E2.6423
G1 X139.056 Y139.945 E2.7789
G1 X137.518 Y142.678 E2.9353
G1 X135.747 Y144.758 E3.0716
G1 X133.257 Y146.737 E3.2303
G1 X130.449 Y148.152 E3.3872
G1 X127.803 Y148.895 E3.5243
G1 X124.698 Y149.151 E3.6797
G1 X121.967 Y148.848 E3.8168
G1 X118.942 Y147.902 E3.9750
G1 X116.155 Y146.343 E4.1343
G1 X114.084 Y144.589 E4.2697
G1 X112.118 Y142.132 E4.4267
G1 X110.678 Y139.299 E4.5852
G1 X109.936 Y136.683 E4.7209
G1 X109.675 Y133.477 E4.8814
G1 X110.067 Y130.360 E5.0381
G1 X111.119 Y127.312 E5.1990
G1 X112.777 Y124.563 E5.3591
G1 X114.200 Y123.058 E5.4625
G1 X114.204 Y111.394 E6.0444
G1 X114.460 Y109.329 E6.1482
G1 X115.104 Y107.367 E6.2512
G1 X116.907 Y104.506 E6.4199
G0 F3900 X117.168 Y104.809
G1 F900 X119.419 Y102.872 E6.5681
G1 X122.376 Y101.587 E6.7289
G1 X125.840 Y101.292 E6.9024
G1 X128.450 Y101.833 E7.0354
G1 X131.015 Y103.162 E7.1795
G1 X133.054 Y105.075 E7.3190
G1 X134.632 Y107.768 E7.4747
G1 X135.183 Y109.571 E7.5688
G1 X135.387 Y111.258 E7.6535
G1 X135.400 Y123.211 E8.2499
G1 X136.703 Y124.543 E8.3428
G1 X138.403 Y127.243 E8.5020
G1 X139.588 Y130.652 E8.6821
G1 X139.925 Y134.227 E8.8612
G1 X139.525 Y137.296 E9.0156
G1 X138.677 Y139.818 E9.1484
G1 X137.170 Y142.481 E9.3010
G1 X135.443 Y144.498 E9.4335
G1 X133.009 Y146.423 E9.5883
G1 X130.270 Y147.794 E9.7411
G1 X127.696 Y148.510 E9.8744
G1 X124.666 Y148.752 E10.0261
G1 X122.012 Y148.451 E10.1593
G1 X119.062 Y147.521 E10.3137
G1 X116.351 Y145.994 E10.4689
G1 X114.343 Y144.284 E10.6005
G1 X112.431 Y141.883 E10.7536
G1 X111.035 Y139.119 E10.9081
G1 X110.321 Y136.575 E11.0399
G1 X110.074 Y133.446 E11.1965
G1 X110.464 Y130.411 E11.3492
G1 X111.497 Y127.443 E11.5059
G1 X113.119 Y124.771 E11.6619
G1 X114.600 Y123.218 E11.7690
G1 X114.604 Y111.394 E12.3589
G1 X114.857 Y109.379 E12.4602
G1 X115.484 Y107.493 E12.5593
G1 X117.168 Y104.809 E12.7174
G0 F3900 X117.431 Y105.111
G1 F900 X119.581 Y103.238 E12.8597
G1 X122.412 Y101.985 E13.0141
G1 X125.761 Y101.684 E13.1819
G1 X128.268 Y102.189 E13.3095
G1 X130.741 Y103.454 E13.4480
G1 X132.780 Y105.367 E13.5875
G1 X134.286 Y107.968 E13.7375
G1 X134.800 Y109.686 E13.8269
G1 X134.990 Y111.305 E13.9083
G1 X135.000 Y123.375 E14.5104
G1 X136.417 Y124.823 E14.6115
G1 X138.064 Y127.455 E14.7664
G1 X139.210 Y130.782 E14.9420
G1 X139.527 Y134.263 E15.1164
G1 X139.129 Y137.243 E15.2664
G1 X138.298 Y139.689 E15.3952
G1 X136.822 Y142.283 E15.5441
G1 X135.140 Y144.237 E15.6728
G1 X132.762 Y146.109 E15.8238
G1 X130.092 Y147.436 E15.9725
G1 X127.590 Y148.124 E16.1020
G1 X124.635 Y148.353 E16.2498
G1 X122.058 Y148.054 E16.3793
G1 X119.183 Y147.140 E16.5298
G1 X116.548 Y145.646 E16.6809
G1 X114.603 Y143.980 E16.8087
G1 X112.745 Y141.635 E16.9579
G1 X111.393 Y138.940 E17.1084
G1 X110.706 Y136.468 E17.2364
G1 X110.473 Y133.416 E17.3891
G1 X110.861 Y130.463 E17.5377
G1 X111.874 Y127.575 E17.6903
G1 X113.460 Y124.980 E17.8421
G1 X115.000 Y123.379 E17.9529
G1 X115.004 Y111.394 E18.5508
G1 X115.254 Y109.429 E18.6497
G1 X115.863 Y107.621 E18.7448
G1 X117.431 Y105.111 E18.8925
G0 F3900 X117.696 Y105.411
G1 F900 X119.746 Y103.603 E19.0289
G1 X122.450 Y102.383 E19.1769
G1 X125.684 Y102.077 E19.3389
G1 X128.088 Y102.546 E19.4611
G1 X130.469 Y103.747 E19.5942
G1 X132.434 Y105.567 E19.7278
G1 X133.940 Y108.168 E19.8777
G1 X134.416 Y109.798 E19.9625
G1 X134.593 Y111.350 E20.0404
G1 X134.600 Y123.539 E20.6485
G1 X136.131 Y125.103 E20.7577
G1 X137.724 Y127.666 E20.9082
G1 X138.831 Y130.911 E21.0793
G1 X139.129 Y134.298 E21.2489
G1 X138.733 Y137.189 E21.3945
G1 X137.920 Y139.559 E21.5195
G1 X136.475 Y142.084 E21.6647
G1 X134.838 Y143.975 E21.7894
G1 X132.515 Y145.794 E21.9366
G1 X129.915 Y147.077 E22.0813
G1 X127.485 Y147.738 E22.2069
G1 X124.605 Y147.954 E22.3510
G1 X122.105 Y147.657 E22.4766
G1 X119.305 Y146.759 E22.6233
G1 X116.746 Y145.299 E22.7703
G1 X114.864 Y143.677 E22.8943
G1 X113.059 Y141.387 E23.0397
G1 X111.751 Y138.762 E23.1860
G1 X111.092 Y136.362 E23.3102
G1 X110.872 Y133.387 E23.4590
G1 X111.257 Y130.516 E23.6036
G1 X112.251 Y127.709 E23.7521
G1 X113.801 Y125.190 E23.8997
G1 X115.400 Y123.542 E24.0142
G1 X115.404 Y111.394 E24.6203
G1 X115.651 Y109.480 E24.7166
G1 X116.242 Y107.750 E24.8078
G1 X117.696 Y105.411 E24.9452
G0 F3900 X117.962 Y105.709
G1 F900 X119.913 Y103.966 E25.0757
G1 X122.490 Y102.781 E25.2172
G1 X125.610 Y102.470 E25.3737
G1 X127.910 Y102.904 E25.4904
G1 X130.199 Y104.042 E25.6180
G1 X132.088 Y105.767 E25.7456
G1 X133.594 Y108.368 E25.8955
G1 X134.031 Y109.907 E25.9753
G1 X134.195 Y111.394 E26.0500
G1 X134.200 Y123.703 E26.6641
G1 X135.845 Y125.383 E26.7814
G1 X137.384 Y127.876 E26.9276
G1 X138.452 Y131.039 E27.0941
G1 X138.730 Y134.332 E27.2590
G1 X138.337 Y137.133 E27.4001
G1 X137.542 Y139.428 E27.5213
G1 X136.128 Y141.884 E27.6627
G1 X134.536 Y143.712 E27.7836
G1 X132.269 Y145.478 E27.9270
G1 X129.739 Y146.718 E28.0675
G1 X127.381 Y147.352 E28.1893
G1 X124.576 Y147.555 E28.3297
G1 X122.153 Y147.260 E28.4514
G1 X119.428 Y146.378 E28.5943
G1 X116.945 Y144.952 E28.7372
G1 X115.126 Y143.375 E28.8573
G1 X113.374 Y141.140 E28.9990
G1 X112.109 Y138.585 E29.1412
G1 X111.478 Y136.257 E29.2615
G1 X111.271 Y133.359 E29.4065
G1 X111.653 Y130.570 E29.5469
G1 X112.628 Y127.844 E29.6914
G1 X114.141 Y125.401 E29.8347
G1 X115.800 Y123.706 E29.9531
G1 X115.804 Y111.394 E30.5673
G1 X116.048 Y109.532 E30.6610
G1 X116.620 Y107.881 E30.7482
G1 X117.962 Y105.709 E30.8755
;PRINTING: Bev??s??rl??_Coin_Cart_v2.STL
;PRINTING_ID: 0
G1 F2400 E27.8755
G0 F3900 X122.334 Y109.060
;TYPE:WALL-OUTER
;WIDTH:0.400
G1 F1500 E30.8755
G1 F2400 X121.522 Y110.355 E30.9518
G1 X121.298 Y111.763 E31.0229
G1 X121.666 Y113.247 E31.0992
G1 X122.522 Y114.384 E31.1702
G1 X123.732 Y115.112 E31.2407
G1 X125.129 Y115.334 E31.3112
G1 X126.506 Y115.015 E31.3818
G1 X127.665 Y114.204 E31.4523
G1 X128.477 Y112.908 E31.5286
G1 X128.701 Y111.503 E31.5996
G1 X128.383 Y110.125 E31.6702
G1 X127.573 Y108.967 E31.7407
G1 X126.386 Y108.197 E31.8113
G1 X124.880 Y107.930 E31.8876
G1 X123.493 Y108.248 E31.9586
G1 X122.334 Y109.060 E32.0292
G1 F2400 E29.0292
G0 F3900 X121.912 Y108.793
G0 X121.136 Y109.885
G0 X118.700 Y124.717
G0 X118.200 Y124.716
G1 F1500 E32.0292
G1 F2400 X118.204 Y111.404 E32.6933
G1 X118.349 Y110.215 E32.7531
G1 X118.692 Y109.094 E32.8115
G1 X119.785 Y107.271 E32.9176
G1 X121.196 Y105.998 E33.0124
G1 X123.127 Y105.097 E33.1187
G1 X125.222 Y104.838 E33.2240
G1 X127.099 Y105.166 E33.3191
G1 X128.801 Y105.997 E33.4136
G1 X130.208 Y107.263 E33.5080
G1 X131.306 Y109.091 E33.6144
G1 X131.650 Y110.215 E33.6730
G1 X131.795 Y111.404 E33.7328
G1 X131.800 Y124.716 E34.3969
G1 X133.839 Y126.701 E34.5389
G1 X135.132 Y128.708 E34.6580
G1 X136.066 Y131.308 E34.7959
G1 X136.346 Y134.058 E34.9338
G1 X136.051 Y136.404 E35.0517
G1 X135.436 Y138.276 E35.1500
G1 X134.282 Y140.349 E35.2684
G1 X133.014 Y141.855 E35.3666
G1 X131.166 Y143.346 E35.4851
G1 X129.056 Y144.419 E35.6032
G1 X127.163 Y144.961 E35.7014
G1 X124.802 Y145.166 E35.8196
G1 X122.837 Y144.961 E35.9182
G1 X120.576 Y144.271 E36.0362
G1 X118.501 Y143.124 E36.1544
G1 X116.712 Y141.573 E36.2726
G1 X115.296 Y139.705 E36.3895
G1 X114.415 Y137.916 E36.4890
G1 X113.865 Y136.018 E36.5876
G1 X113.652 Y133.661 E36.7057
G1 X114.026 Y130.923 E36.8435
G1 X114.866 Y128.709 E36.9617
G1 X116.144 Y126.722 E37.0795
G1 X118.200 Y124.716 E37.2228
G1 F2400 E34.2228
G0 F3900 X118.700 Y124.717
G0 X120.953 Y110.142
G0 X121.949 Y108.734
G0 X122.038 Y108.779
;TYPE:WALL-INNER
;WIDTH:0.400
G1 F1500 E37.2228
G1 F2400 X121.140 Y110.212 E37.3072
G1 X120.890 Y111.780 E37.3864
G1 X121.297 Y113.422 E37.4708
G1 X122.249 Y114.687 E37.5498
G1 X123.592 Y115.495 E37.6280
G1 X125.143 Y115.741 E37.7063
G1 X126.672 Y115.387 E37.7846
G1 X127.961 Y114.485 E37.8631
G1 X128.859 Y113.051 E37.9476
G1 X129.108 Y111.489 E38.0265
G1 X128.755 Y109.959 E38.1048
G1 X127.856 Y108.674 E38.1830
G1 X126.536 Y107.817 E38.2616
G1 X124.870 Y107.522 E38.3460
G1 X123.327 Y107.876 E38.4249
G1 X122.038 Y108.779 E38.5035
G1 F2400 E35.5035
G0 F3900 X121.949 Y108.734
G0 X121.143 Y109.874
G0 X118.700 Y124.875
G0 X118.600 Y124.885
G1 F1500 E38.5035
G1 F2400 X118.604 Y111.428 E39.1748
G1 X119.060 Y109.258 E39.2855
G1 X120.097 Y107.528 E39.3861
G1 X121.419 Y106.335 E39.4749
G1 X123.239 Y105.486 E39.5751
G1 X125.212 Y105.242 E39.6743
G1 X126.974 Y105.550 E39.7636
G1 X128.575 Y106.332 E39.8524
G1 X129.896 Y107.520 E39.9411
G1 X130.938 Y109.255 E40.0421
G1 X131.395 Y111.428 E40.1528
G1 X131.400 Y124.885 E40.8242
G1 X133.527 Y126.956 E40.9723
G1 X134.771 Y128.886 E41.0869
G1 X135.673 Y131.397 E41.2200
G1 X135.943 Y134.053 E41.3532
G1 X135.659 Y136.316 E41.4670
G1 X135.068 Y138.115 E41.5614
G1 X133.951 Y140.121 E41.6760
G1 X132.733 Y141.568 E41.7703
G1 X130.947 Y143.008 E41.8848
G1 X128.909 Y144.045 E41.9989
G1 X127.090 Y144.566 E42.0933
G1 X124.805 Y144.764 E42.2077
G1 X122.917 Y144.567 E42.3024
G1 X120.733 Y143.901 E42.4163
G1 X118.731 Y142.794 E42.5305
G1 X117.006 Y141.298 E42.6444
G1 X115.638 Y139.494 E42.7573
G1 X114.789 Y137.771 E42.8532
G1 X114.260 Y135.944 E42.9481
G1 X114.054 Y133.670 E43.0620
G1 X114.416 Y131.022 E43.1953
G1 X115.225 Y128.890 E43.3091
G1 X116.456 Y126.977 E43.4226
G1 X118.600 Y124.885 E43.5720
G1 F2400 E40.5720
G0 F3900 X118.700 Y124.875
G0 X120.953 Y110.142
G0 X121.742 Y108.498
G1 F1500 E43.5720
G1 F2400 X120.758 Y110.069 E43.6645
G1 X120.482 Y111.797 E43.7518
G1 X120.928 Y113.597 E43.8443
G1 X121.976 Y114.990 E43.9313
G1 X123.452 Y115.878 E44.0172
G1 X125.157 Y116.148 E44.1033
G1 X126.838 Y115.759 E44.1894
G1 X128.257 Y114.766 E44.2758
G1 X129.241 Y113.194 E44.3684
G1 X129.515 Y111.475 E44.4552
G1 X129.127 Y109.793 E44.5413
G1 X128.139 Y108.381 E44.6273
G1 X126.686 Y107.437 E44.7137
G1 X124.860 Y107.114 E44.8063
G1 X123.161 Y107.504 E44.8932
G1 X121.742 Y108.498 E44.9797
G1 F2400 E41.9797
G0 F3900 X121.104 Y109.829
G0 X119.000 Y125.054
G1 F1500 E44.9797
G1 F2400 X119.004 Y111.470 E45.6574
G1 X119.438 Y109.406 E45.7626
G1 X120.409 Y107.785 E45.8569
G1 X121.642 Y106.672 E45.9397
G1 X123.351 Y105.875 E46.0338
G1 X125.202 Y105.646 E46.1269
G1 X126.849 Y105.934 E46.2103
G1 X128.349 Y106.667 E46.2936
G1 X129.584 Y107.777 E46.3764
G1 X130.560 Y109.403 E46.4710
G1 X130.995 Y111.470 E46.5764
G1 X131.000 Y125.054 E47.2541
G1 X133.215 Y127.211 E47.4084
G1 X134.410 Y129.064 E47.5184
G1 X135.280 Y131.486 E47.6468
G1 X135.540 Y134.048 E47.7752
G1 X135.267 Y136.228 E47.8849
G1 X134.700 Y137.954 E47.9755
G1 X133.620 Y139.893 E48.0862
G1 X132.452 Y141.281 E48.1767
G1 X130.728 Y142.670 E48.2872
G1 X128.762 Y143.671 E48.3972
G1 X127.017 Y144.171 E48.4878
G1 X124.809 Y144.362 E48.5984
G1 X122.997 Y144.173 E48.6893
G1 X120.890 Y143.531 E48.7992
G1 X118.961 Y142.464 E48.9091
G1 X117.300 Y141.023 E49.0188
G1 X115.980 Y139.283 E49.1278
G1 X115.163 Y137.626 E49.2200
G1 X114.655 Y135.870 E49.3112
G1 X114.456 Y133.679 E49.4209
G1 X114.806 Y131.121 E49.5497
G1 X115.584 Y129.071 E49.6591
G1 X116.768 Y127.232 E49.7683
G1 X119.000 Y125.054 E49.9238
G1 F2400 E46.9238
G0 F3900 X120.106 Y116.601
G0 X121.446 Y108.217
G1 F1500 E49.9238
G1 F2400 X120.376 Y109.926 E50.0244
G1 X120.074 Y111.814 E50.1198
G1 X120.559 Y113.772 E50.2205
G1 X121.703 Y115.293 E50.3154
G1 X123.313 Y116.261 E50.4091
G1 X125.171 Y116.555 E50.5030
G1 X127.004 Y116.131 E50.5968
G1 X128.553 Y115.047 E50.6912
G1 X129.623 Y113.337 E50.7918
G1 X129.922 Y111.461 E50.8866
G1 X129.499 Y109.627 E50.9805
G1 X128.422 Y108.088 E51.0742
G1 X126.836 Y107.057 E51.1686
G1 X124.850 Y106.706 E51.2692
G1 X122.995 Y107.132 E51.3641
G1 X121.446 Y108.217 E51.4585
G1 F2400 E48.4585
G0 F3900 X121.019 Y110.240
G0 X119.400 Y125.223
G1 F1500 E51.4585
G1 F2400 X119.404 Y111.512 E52.1425
G1 X119.816 Y109.554 E52.2424
G1 X120.721 Y108.042 E52.3303
G1 X121.865 Y107.009 E52.4072
G1 X123.463 Y106.264 E52.4951
G1 X125.192 Y106.050 E52.5821
G1 X126.724 Y106.318 E52.6597
G1 X128.123 Y107.002 E52.7373
G1 X129.272 Y108.034 E52.8144
G1 X130.182 Y109.551 E52.9027
G1 X130.595 Y111.512 E53.0026
G1 X130.600 Y125.223 E53.6867
G1 X132.903 Y127.466 E53.8471
G1 X134.049 Y129.242 E53.9525
G1 X134.887 Y131.575 E54.0762
G1 X135.137 Y134.043 E54.2000
G1 X134.875 Y136.140 E54.3054
G1 X134.332 Y137.793 E54.3922
G1 X133.289 Y139.665 E54.4991
G1 X132.171 Y140.994 E54.5857
G1 X130.509 Y142.332 E54.6922
G1 X128.615 Y143.297 E54.7982
G1 X126.944 Y143.776 E54.8850
G1 X124.813 Y143.960 E54.9917
G1 X123.077 Y143.779 E55.0788
G1 X121.047 Y143.161 E55.1846
G1 X119.191 Y142.134 E55.2905
G1 X117.594 Y140.748 E55.3959
G1 X116.322 Y139.072 E55.5009
G1 X115.537 Y137.481 E55.5894
G1 X115.050 Y135.796 E55.6769
G1 X114.858 Y133.688 E55.7825
G1 X115.196 Y131.220 E55.9068
G1 X115.943 Y129.252 E56.0118
G1 X117.080 Y127.487 E56.1166
G1 X119.400 Y125.223 E56.2783
G1 F2400 E53.2783
G0 F3900 X116.332 Y138.677
;TYPE:SOLID-FILL
;WIDTH:0.400
G1 F1500 E56.2783
G1 F2400 X120.057 Y142.402 E56.5411
G0 F2400 X121.250 Y143.029
G1 F2400 X115.781 Y137.560 E56.9270
G0 F2400 X115.508 Y136.721
G1 F2400 X122.064 Y143.277 E57.3896
G0 F2400 X122.877 Y143.524
G1 F2400 X115.278 Y135.925 E57.9257
G0 F2400 X115.185 Y135.267
G1 F2400 X123.561 Y143.643 E58.5167
G0 F2400 X124.192 Y143.708
G1 F2400 X115.129 Y134.645 E59.1561
G0 F2400 X115.072 Y134.022
G1 F2400 X124.822 Y143.773 E59.8441
G0 F2400 X125.343 Y143.727
G1 F2400 X115.074 Y133.459 E60.5686
G0 F2400 X115.142 Y132.961
G1 F2400 X125.863 Y143.682 E61.3250
G0 F2400 X126.384 Y143.638
G1 F2400 X115.210 Y132.463 E62.1134
G0 F2400 X115.278 Y131.966
G1 F2400 X126.905 Y143.592 E62.9337
G0 F2400 X127.345 Y143.467
G1 F2400 X115.346 Y131.468 E63.7803
G0 F2400 X115.467 Y131.023
G1 F2400 X127.785 Y143.341 E64.6494
G0 F2400 X128.225 Y143.215
G1 F2400 X115.622 Y130.613 E65.5386
G0 F2400 X115.778 Y130.203
G1 F2400 X128.648 Y143.073 E66.4466
G0 F2400 X129.022 Y142.882
G1 F2400 X115.934 Y129.793 E67.3701
G0 F2400 X116.089 Y129.383
G1 F2400 X129.397 Y142.691 E68.3091
G0 F2400 X129.772 Y142.500
G1 F2400 X116.303 Y129.031 E69.2594
G0 F2400 X116.525 Y128.687
G1 F2400 X130.147 Y142.309 E70.2205
G0 F2400 X130.502 Y142.099
G1 F2400 X116.746 Y128.343 E71.1910
G0 F2400 X116.968 Y127.999
G1 F2400 X130.816 Y141.847 E72.1681
G0 F2400 X131.129 Y141.594
G1 F2400 X117.190 Y127.655 E73.1516
