;Sliced by ideaMaker 5.3.2.8640, 2026-02-02 13:16:15 UTC+0100
;Slicer Version: 5.3.0.8620
;Dimension: 250.000 250.000 250.000 0.400
;Plate Shape: 0
;Origin Center: 0
;Extruder Offset #1: 25.000 0.000
;Filament Diameter #1: 1.750
;Filament Diameter #2: 1.750
;Filament Compensation #1: 94.000
;Filament Compensation #2: 90.000
;Filament Density #1: 1240.000
;Filament Density #2: 1240.000
;Filament Type #1: PLA
;Filament Type #2: PLA
;Filament Name #1: [Raise3D] Premium PLA 1.75mm
;Filament Name #2: [Raise3D] Premium PLA 1.75mm
;Filament #1: PLA 1.75mm
;Filament #2: PLA 1.75mm
;Printer Type: floppy
;Firmware: Klipper
;Bounding Box: 96.555 153.445 111.788 138.419 0.000 6.900
;Model Gap: 0.000
M221 T0 S94.00
M140 S48.00
M104 T0 S195.00
M109 T0 S195.00
T0
M190 S48.00
G21 ;metric values
G90 ;absolute positioning
M82 ;set extruder to absolute mode
M107 ;start with the fan off
G28 X0 Y0 ;move X/Y to min endstops
G28 Z0 ;move Z to min endstops
G1 Z15.0 F9000 ;move the platform down 15mm

G92 E0 ;zero the extruded length

G0 X43 Y27 F2000  ;go to the edge of the bed
G92 X0 Y0 E0 ;set zero to edge of the bed
G0 F9000 Z1 ;Z up with 1mm
G1 F200 Z0 ;Z home slowly

G1 Z15.0 F9000 ;move the platform down 15mm

G1 F9000 ;speed setting
G92 E-3 ;retraction
M117 Printing...
M1001
;TOTAL_NUM: 1
;PRINTING_TIME: 0
;REMAINING_TIME: 678
;LAYER:0
;Z:0.300
;HEIGHT:0.300
;PRINTING: NON-OBJECT
;PRINTING_ID: -1
G1 F2400 E-3.0000
G0 F3900 X97.343 Y113.286
G0 F300 Z0.300
;TYPE:SKIRT
;WIDTH:0.400
G1 F1500 E0.0000
G1 F900 X99.181 Y111.788 E0.1183
G1 X150.488 Y111.792 E2.6780
G1 X152.562 Y112.971 E2.7970
G1 X153.353 Y115.193 E2.9147
G1 X153.445 Y134.601 E3.8830
G1 X152.536 Y136.880 E4.0054
G1 X150.821 Y138.211 E4.1137
G1 X100.364 Y138.419 E6.6310
G1 X98.089 Y137.506 E6.7533
G1 X96.763 Y135.793 E6.8614
G1 X96.555 Y115.402 E7.8788
G1 X97.343 Y113.286 E7.9914
G0 F3900 X97.716 Y113.430
G1 F900 X99.289 Y112.173 E8.0919
G1 X150.488 Y112.192 E10.6462
G1 X152.242 Y113.211 E10.7474
G1 X152.953 Y115.195 E10.8526
G1 X153.045 Y134.603 E11.8208
G1 X152.286 Y136.568 E11.9259
G1 X150.713 Y137.826 E12.0264
G1 X100.362 Y138.019 E14.5385
G1 X98.402 Y137.256 E14.6434
G1 X97.148 Y135.685 E14.7437
G1 X96.955 Y115.398 E15.7558
G1 X97.716 Y113.430 E15.8611
G0 F3900 X97.971 Y113.738
G1 F900 X99.403 Y112.556 E15.9537
G1 X150.488 Y112.592 E18.5024
G1 X151.919 Y113.447 E18.5856
G1 X152.553 Y115.197 E18.6784
G1 X152.645 Y134.605 E19.6467
G1 X152.031 Y136.260 E19.7348
G1 X150.599 Y137.443 E19.8274
G1 X100.361 Y137.619 E22.3338
G1 X98.711 Y137.001 E22.4217
G1 X97.531 Y135.571 E22.5142
G1 X97.355 Y115.395 E23.5209
G1 X97.971 Y113.738 E23.6091
G0 F3900 X98.344 Y113.883
G1 F900 X99.513 Y112.941 E23.6840
G1 X150.289 Y112.939 E26.2172
G1 X151.601 Y113.689 E26.2926
G1 X152.153 Y115.199 E26.3728
G1 X152.245 Y134.607 E27.3411
G1 X151.658 Y136.115 E27.4218
G1 X150.489 Y137.058 E27.4967
G1 X100.360 Y137.219 E29.9977
G1 X98.857 Y136.629 E30.0782
G1 X97.916 Y135.461 E30.1531
G1 X97.755 Y115.392 E31.1544
G1 X98.344 Y113.883 E31.2352
G0 F3900 X98.601 Y114.189
G1 F900 X99.631 Y113.323 E31.3023
G1 X150.289 Y113.339 E33.8296
G1 X151.279 Y113.926 E33.8871
G1 X151.753 Y115.201 E33.9549
G1 X151.845 Y134.609 E34.9232
G1 X151.400 Y135.809 E34.9871
G1 X150.371 Y136.676 E35.0542
G1 X100.359 Y136.819 E37.5493
G1 X99.163 Y136.372 E37.6130
G1 X98.298 Y135.343 E37.6801
G1 X98.155 Y115.389 E38.6756
G1 X98.601 Y114.189 E38.7395
G0 F3900 X98.973 Y114.337
G1 F900 X99.743 Y113.707 E38.7891
G1 X150.289 Y113.739 E41.3109
G1 X150.951 Y114.155 E41.3499
G1 X151.353 Y115.203 E41.4059
G1 X151.445 Y134.611 E42.3741
G1 X151.028 Y135.661 E42.4305
G1 X150.258 Y136.292 E42.4802
G1 X100.358 Y136.419 E44.9697
G1 X99.311 Y136.001 E45.0260
G1 X98.682 Y135.231 E45.0756
G1 X98.555 Y115.386 E46.0656
G1 X98.973 Y114.337 E46.1220
G0 F3900 X99.340 Y114.496
G1 F900 X99.849 Y114.093 E46.1544
G1 X150.090 Y114.086 E48.6609
G1 X150.633 Y114.397 E48.6921
G1 X150.953 Y115.205 E48.7355
G1 X151.045 Y134.613 E49.7038
G1 X150.661 Y135.503 E49.7521
G1 X150.152 Y135.906 E49.7845
G1 X100.357 Y136.019 E52.2688
G1 X99.470 Y135.634 E52.3170
G1 X99.068 Y135.125 E52.3494
G1 X98.955 Y115.384 E53.3343
G1 X99.340 Y114.496 E53.3826
G0 F3900 X99.700 Y114.670
G1 F900 X99.948 Y114.481 E53.3981
G1 X149.909 Y114.443 E55.8907
G1 X150.328 Y114.655 E55.9141
G1 X150.553 Y115.207 E55.9439
G1 X150.645 Y134.615 E56.9122
G1 X150.301 Y135.329 E56.9517
G1 X150.053 Y135.518 E56.9673
G1 X100.356 Y135.619 E59.4467
G1 X99.645 Y135.274 E59.4861
G1 X99.456 Y135.026 E59.5016
G1 X99.355 Y115.382 E60.4817
G1 X99.700 Y114.670 E60.5212
G0 F3900 X99.755 Y115.380
G1 F900 X100.047 Y114.868 E60.5506
G1 X149.753 Y114.811 E63.0304
G1 X150.040 Y114.933 E63.0460
G1 X150.153 Y115.209 E63.0609
G1 X150.245 Y134.617 E64.0291
G1 X149.953 Y135.131 E64.0586
G1 X100.355 Y135.219 E66.5331
G1 X99.843 Y134.927 E66.5625
G1 X99.755 Y115.380 E67.5377
G0 F3900 X100.155 Y115.380
G1 F900 X100.272 Y115.199 E67.5485
G1 X149.753 Y115.211 E70.0171
G1 X149.845 Y134.619 E70.9854
G1 X149.728 Y134.800 E70.9961
G1 X100.355 Y134.819 E73.4593
G1 X100.174 Y134.702 E73.4701
G1 X100.155 Y115.380 E74.4341
;PRINTING: Breaker_Filler_Plate_-_Schneider_-_1-UP.stl
;PRINTING_ID: 0
G1 F2400 E71.4341
G1 F300 Z0.500
G0 F3900 X100.555 Y115.580
;TYPE:WALL-OUTER
;WIDTH:0.400
G1 F300 Z0.300
G1 F1500 E74.4341
G1 F2400 X149.445 Y115.580 E76.8732
G1 X149.445 Y134.419 E77.8131
G1 X100.555 Y134.419 E80.2522
G1 X100.555 Y115.580 E81.1921
G0 F3900 X100.955 Y115.980
;TYPE:WALL-INNER
;WIDTH:0.400
G1 F2400 X149.045 Y115.980 E83.5913
G1 X149.045 Y134.019 E84.4913
G1 X100.955 Y134.019 E86.8905
G1 X100.955 Y115.980 E87.7905
G0 F3900 X101.355 Y116.380
G1 F2400 X148.645 Y116.380 E90.1498
G1 X148.645 Y133.619 E91.0098
G1 X101.355 Y133.619 E93.3691
G1 X101.355 Y116.380 E94.2292
G0 F3900 X101.755 Y116.780
G1 F2400 X148.245 Y116.780 E96.5486
G1 X148.245 Y133.219 E97.3687
G1 X101.755 Y133.219 E99.6881
G1 X101.755 Y116.780 E100.5083
G1 F2400 E97.5083
G1 F300 Z0.500
G0 F3900 X101.938 Y132.768
;TYPE:SOLID-FILL
;WIDTH:0.400
G1 F300 Z0.300
G1 F1500 E100.5083
G1 F2400 X102.204 Y133.034 E100.5270
G0 F2400 X102.770 Y133.034
G1 F2400 X101.938 Y132.202 E100.5858
G0 F2400 X101.938 Y131.637
G1 F2400 X103.335 Y133.034 E100.6843
G0 F2400 X103.901 Y133.034
G1 F2400 X101.938 Y131.071 E100.8228
G0 F2400 X101.938 Y130.505
G1 F2400 X104.467 Y133.034 E101.0013
G0 F2400 X105.032 Y133.034
G1 F2400 X101.938 Y129.940 E101.2195
G0 F2400 X101.938 Y129.374
G1 F2400 X105.598 Y133.034 E101.4778
G0 F2400 X106.164 Y133.034
G1 F2400 X101.938 Y128.808 E101.7759
G0 F2400 X101.938 Y128.243
G1 F2400 X106.729 Y133.034 E102.1140
G0 F2400 X107.295 Y133.034
G1 F2400 X101.938 Y127.677 E102.4919
G0 F2400 X101.938 Y127.111
G1 F2400 X107.861 Y133.034 E102.9098
G0 F2400 X108.427 Y133.034
G1 F2400 X101.938 Y126.545 E103.3677
G0 F2400 X101.938 Y125.980
G1 F2400 X108.992 Y133.034 E103.8654
G0 F2400 X109.558 Y133.034
G1 F2400 X101.938 Y125.414 E104.4030
G0 F2400 X101.938 Y124.848
G1 F2400 X110.124 Y133.034 E104.9806
G0 F2400 X110.689 Y133.034
G1 F2400 X101.938 Y124.283 E105.5980
G0 F2400 X101.938 Y123.717
G1 F2400 X111.255 Y133.034 E106.2554
G0 F2400 X111.821 Y133.034
G1 F2400 X101.938 Y123.151 E106.9527
G0 F2400 X101.938 Y122.586
G1 F2400 X112.386 Y133.034 E107.6898
G0 F2400 X112.952 Y133.034
G1 F2400 X101.938 Y122.020 E108.4669
G0 F2400 X101.938 Y121.454
G1 F2400 X113.518 Y133.034 E109.2840
G0 F2400 X114.083 Y133.034
G1 F2400 X101.938 Y120.889 E110.1409
G0 F2400 X101.938 Y120.323
G1 F2400 X114.649 Y133.034 E111.0377
G0 F2400 X115.215 Y133.034
G1 F2400 X101.938 Y119.757 E111.9745
G0 F2400 X101.938 Y119.192
G1 F2400 X115.780 Y133.034 E112.9511
G0 F2400 X116.346 Y133.034
G1 F2400 X101.938 Y118.626 E113.9676
G0 F2400 X101.938 Y118.060
G1 F2400 X116.912 Y133.034 E115.0241
G0 F2400 X117.478 Y133.034
G1 F2400 X101.938 Y117.494 E116.1206
G0 F2400 X101.973 Y116.963
G1 F2400 X118.043 Y133.034 E117.2544
G0 F2400 X118.609 Y133.034
G1 F2400 X102.538 Y116.963 E118.3883
G0 F2400 X103.104 Y116.963
G1 F2400 X119.175 Y133.034 E119.5222
G0 F2400 X119.740 Y133.034
G1 F2400 X103.670 Y116.963 E120.6561
G0 F2400 X104.236 Y116.963
G1 F2400 X120.306 Y133.034 E121.7899
G0 F2400 X120.872 Y133.034
G1 F2400 X104.801 Y116.963 E122.9238
G0 F2400 X105.367 Y116.963
G1 F2400 X121.437 Y133.034 E124.0577
G0 F2400 X122.003 Y133.034
G1 F2400 X105.933 Y116.963 E125.1916
G0 F2400 X106.498 Y116.963
G1 F2400 X122.569 Y133.034 E126.3255
G0 F2400 X123.134 Y133.034
G1 F2400 X107.064 Y116.963 E127.4593
G0 F2400 X107.630 Y116.963
G1 F2400 X123.700 Y133.034 E128.5932
G0 F2400 X124.266 Y133.034
G1 F2400 X108.195 Y116.963 E129.7271
G0 F2400 X108.761 Y116.963
G1 F2400 X124.831 Y133.034 E130.8609
G0 F2400 X125.397 Y133.034
G1 F2400 X109.327 Y116.963 E131.9948
G0 F2400 X109.892 Y116.963
G1 F2400 X125.963 Y133.034 E133.1287
G0 F2400 X126.528 Y133.034
G1 F2400 X110.458 Y116.963 E134.2625
G0 F2400 X111.024 Y116.963
G1 F2400 X127.094 Y133.034 E135.3964
G0 F2400 X127.660 Y133.034
G1 F2400 X111.589 Y116.963 E136.5303
G0 F2400 X112.155 Y116.963
G1 F2400 X128.226 Y133.034 E137.6642
G0 F2400 X128.791 Y133.034
G1 F2400 X112.721 Y116.963 E138.7981
G0 F2400 X113.286 Y116.963
G1 F2400 X129.357 Y133.034 E139.9320
G0 F2400 X129.923 Y133.034
G1 F2400 X113.852 Y116.963 E141.0659
G0 F2400 X114.418 Y116.963
G1 F2400 X130.488 Y133.034 E142.1997
G0 F2400 X131.054 Y133.034
G1 F2400 X114.984 Y116.963 E143.3336
G0 F2400 X115.549 Y116.963
G1 F2400 X131.620 Y133.034 E144.4675
G0 F2400 X132.185 Y133.034
G1 F2400 X116.115 Y116.963 E145.6013
G0 F2400 X116.681 Y116.963
G1 F2400 X132.751 Y133.034 E146.7352
G0 F2400 X133.317 Y133.034
G1 F2400 X117.246 Y116.963 E147.8691
G0 F2400 X117.812 Y116.963
G1 F2400 X133.882 Y133.034 E149.0029
G0 F2400 X134.448 Y133.034
G1 F2400 X118.378 Y116.963 E150.1368
G0 F2400 X118.943 Y116.963
G1 F2400 X135.014 Y133.034 E151.2707
G0 F2400 X135.579 Y133.034
G1 F2400 X119.509 Y116.963 E152.4046
G0 F2400 X120.075 Y116.963
G1 F2400 X136.145 Y133.034 E153.5384
G0 F2400 X136.711 Y133.034
G1 F2400 X120.640 Y116.963 E154.6723
G0 F2400 X121.206 Y116.963
G1 F2400 X137.277 Y133.034 E155.8062
G0 F2400 X137.842 Y133.034
G1 F2400 X121.772 Y116.963 E156.9401
G0 F2400 X122.337 Y116.963
G1 F2400 X138.408 Y133.034 E158.0740
G0 F2400 X138.974 Y133.034
G1 F2400 X122.903 Y116.963 E159.2079
G0 F2400 X123.469 Y116.963
G1 F2400 X139.539 Y133.034 E160.3417
G0 F2400 X140.105 Y133.034
G1 F2400 X124.035 Y116.963 E161.4756
G0 F2400 X124.600 Y116.963
G1 F2400 X140.671 Y133.034 E162.6095
G0 F2400 X141.236 Y133.034
G1 F2400 X125.166 Y116.963 E163.7433
G0 F2400 X125.732 Y116.963
G1 F2400 X141.802 Y133.034 E164.8772
G0 F2400 X142.368 Y133.034
G1 F2400 X126.297 Y116.963 E166.0111
G0 F2400 X126.863 Y116.963
G1 F2400 X142.933 Y133.034 E167.1450
G0 F2400 X143.499 Y133.034
G1 F2400 X127.429 Y116.963 E168.2788
G0 F2400 X127.994 Y116.963
G1 F2400 X144.065 Y133.034 E169.4127
G0 F2400 X144.630 Y133.034
G1 F2400 X128.560 Y116.963 E170.5466
G0 F2400 X129.126 Y116.963
G1 F2400 X145.196 Y133.034 E171.6804
G0 F2400 X145.762 Y133.034
G1 F2400 X129.691 Y116.963 E172.8143
G0 F2400 X130.257 Y116.963
G1 F2400 X146.327 Y133.034 E173.9482
G0 F2400 X146.893 Y133.034
G1 F2400 X130.823 Y116.963 E175.0821
G0 F2400 X131.388 Y116.963
G1 F2400 X147.459 Y133.034 E176.2160
G0 F2400 X148.025 Y133.034
G1 F2400 X131.954 Y116.963 E177.3499
G0 F2400 X132.520 Y116.963
G1 F2400 X148.059 Y132.503 E178.4462
G0 F2400 X148.059 Y131.937
G1 F2400 X133.085 Y116.963 E179.5027
G0 F2400 X133.651 Y116.963
G1 F2400 X148.059 Y131.371 E180.5193
G0 F2400 X148.059 Y130.806
G1 F2400 X134.217 Y116.963 E181.4960
G0 F2400 X134.783 Y116.963
G1 F2400 X148.059 Y130.240 E182.4327
G0 F2400 X148.059 Y129.674
G1 F2400 X135.348 Y116.963 E183.3295
G0 F2400 X135.914 Y116.963
G1 F2400 X148.059 Y129.109 E184.1865
G0 F2400 X148.059 Y128.543
G1 F2400 X136.480 Y116.963 E185.0035
G0 F2400 X137.045 Y116.963
G1 F2400 X148.059 Y127.977 E185.7806
G0 F2400 X148.059 Y127.412
G1 F2400 X137.611 Y116.963 E186.5177
G0 F2400 X138.177 Y116.963
G1 F2400 X148.059 Y126.846 E187.2150
G0 F2400 X148.059 Y126.280
G1 F2400 X138.742 Y116.963 E187.8724
G0 F2400 X139.308 Y116.963
G1 F2400 X148.059 Y125.715 E188.4898
G0 F2400 X148.059 Y125.149
G1 F2400 X139.874 Y116.963 E189.0674
G0 F2400 X140.439 Y116.963
G1 F2400 X148.059 Y124.583 E189.6050
G0 F2400 X148.059 Y124.018
G1 F2400 X141.005 Y116.963 E190.1027
G0 F2400 X141.571 Y116.963
G1 F2400 X148.059 Y123.452 E190.5605
G0 F2400 X148.059 Y122.886
G1 F2400 X142.136 Y116.963 E190.9784
G0 F2400 X142.702 Y116.963
G1 F2400 X148.059 Y122.320 E191.3564
G0 F2400 X148.059 Y121.755
G1 F2400 X143.268 Y116.963 E191.6945
G0 F2400 X143.834 Y116.963
G1 F2400 X148.059 Y121.189 E191.9926
G0 F2400 X148.059 Y120.623
G1 F2400 X144.399 Y116.963 E192.2508
G0 F2400 X144.965 Y116.963
G1 F2400 X148.059 Y120.058 E192.4692
G0 F2400 X148.059 Y119.492
G1 F2400 X145.531 Y116.963 E192.6476
G0 F2400 X146.096 Y116.963
G1 F2400 X148.059 Y118.926 E192.7861
G0 F2400 X148.059 Y118.361
G1 F2400 X146.662 Y116.963 E192.8847
G0 F2400 X147.228 Y116.963
G1 F2400 X148.059 Y117.795 E192.9433
G0 F2400 X148.059 Y117.229
G1 F2400 X147.793 Y116.963 E192.9621
;PRINTING_TIME: 172
;REMAINING_TIME: 506
;LAYER:1
;Z:0.600
;HEIGHT:0.300
M106 S64
;PRINTING: Breaker_Filler_Plate_-_Schneider_-_1-UP.stl
;PRINTING_ID: 0
G1 F2400 E189.9621
G1 F300 Z0.800
G0 F3900 X101.055 Y115.990
G0 F300 Z0.600
G0 F3900 X100.555 Y115.580
;TYPE:WALL-OUTER
;WIDTH:0.400
G1 F300 Z0.600
G1 F1500 E192.9621
G1 F2100 X149.445 Y115.580 E195.4012
G1 X149.445 Y134.419 E196.3411
G1 X100.555 Y134.419 E198.7802
G1 X100.555 Y115.580 E199.7201
G0 F3900 X100.955 Y115.980
;TYPE:WALL-INNER
;WIDTH:0.400
;FLOW:90.0
G1 F2400 X149.045 Y115.980 E201.8794
G1 X149.045 Y134.019 E202.6894
G1 X100.955 Y134.019 E204.8487
G1 X100.955 Y115.980 E205.6587
G0 F3900 X101.355 Y116.380
G1 F2400 X148.645 Y116.380 E207.7820
G1 X148.645 Y133.619 E208.5561
G1 X101.355 Y133.619 E210.6795
G1 X101.355 Y116.380 E211.4535
G0 F3900 X101.755 Y116.780
G1 F2400 X148.245 Y116.780 E213.5410
G1 X148.245 Y133.219 E214.2791
G1 X101.755 Y133.219 E216.3666
G1 X101.755 Y116.780 E217.1047
G0 F3900 X101.938 Y117.264
;TYPE:SOLID-FILL
;WIDTH:0.400
;FLOW:95.0
G1 F2700 X102.239 Y116.963 E217.1249
G0 F2700 X102.805 Y116.963
G1 F2700 X101.938 Y117.830 E217.1830
G0 F2700 X101.938 Y118.395
G1 F2700 X103.371 Y116.963 E217.2790
G0 F2700 X103.936 Y116.963
G1 F2700 X101.938 Y118.961 E217.4129
G0 F2700 X101.938 Y119.527
G1 F2700 X104.502 Y116.963 E217.5848
G0 F2700 X105.068 Y116.963
G1 F2700 X101.938 Y120.092 E217.7945
G0 F2700 X101.938 Y120.658
G1 F2700 X105.633 Y116.963 E218.0422
G0 F2700 X106.199 Y116.963
G1 F2700 X101.938 Y121.224 E218.3278
G0 F2700 X101.938 Y121.789
G1 F2700 X106.765 Y116.963 E218.6513
G0 F2700 X107.331 Y116.963
G1 F2700 X101.938 Y122.355 E219.0128
G0 F2700 X101.938 Y122.921
G1 F2700 X107.896 Y116.963 E219.4121
G0 F2700 X108.462 Y116.963
G1 F2700 X101.938 Y123.487 E219.8494
G0 F2700 X101.938 Y124.052
G1 F2700 X109.028 Y116.963 E220.3246
G0 F2700 X109.593 Y116.963
G1 F2700 X101.938 Y124.618 E220.8377
G0 F2700 X101.938 Y125.184
G1 F2700 X110.159 Y116.963 E221.3887
G0 F2700 X110.725 Y116.963
G1 F2700 X101.938 Y125.749 E221.9777
G0 F2700 X101.938 Y126.315
G1 F2700 X111.290 Y116.963 E222.6045
G0 F2700 X111.856 Y116.963
G1 F2700 X101.938 Y126.881 E223.2693
G0 F2700 X101.938 Y127.446
G1 F2700 X112.422 Y116.963 E223.9720
G0 F2700 X112.987 Y116.963
G1 F2700 X101.938 Y128.012 E224.7126
G0 F2700 X101.938 Y128.578
G1 F2700 X113.553 Y116.963 E225.4911
G0 F2700 X114.119 Y116.963
G1 F2700 X101.938 Y129.143 E226.3075
G0 F2700 X101.938 Y129.709
G1 F2700 X114.684 Y116.963 E227.1619
G0 F2700 X115.250 Y116.963
G1 F2700 X101.938 Y130.275 E228.0541
G0 F2700 X101.938 Y130.840
G1 F2700 X115.816 Y116.963 E228.9843
G0 F2700 X116.381 Y116.963
G1 F2700 X101.938 Y131.406 E229.9524
G0 F2700 X101.938 Y131.972
G1 F2700 X116.947 Y116.963 E230.9584
G0 F2700 X117.513 Y116.963
G1 F2700 X101.938 Y132.537 E232.0023
G0 F2700 X102.007 Y133.035
G1 F2700 X118.079 Y116.963 E233.0796
G0 F2700 X118.644 Y116.963
G1 F2700 X102.572 Y133.035 E234.1569
G0 F2700 X103.138 Y133.035
