;Sliced by ideaMaker 5.2.3.8580, 2025-04-30 13:24:32 UTC+0200
;Slicer Version: 5.2.3.8580
;Dimension: 250.000 250.000 250.000 0.400
;Plate Shape: 0
;Origin Center: 0
;Extruder Offset #1: 25.000 0.000
;Filament Diameter #1: 1.750
;Filament Diameter #2: 1.750
;Filament Compensation #1: 94.000
;Filament Compensation #2: 90.000
;Filament Density #1: 1240.000
;Filament Density #2: 1240.000
;Filament Type #1: PLA
;Filament Type #2: PLA
;Filament Name #1: [Raise3D] Premium PLA 1.75mm
;Filament Name #2: [Raise3D] Premium PLA 1.75mm
;Filament #1: PLA 1.75mm
;Filament #2: PLA 1.75mm
;Printer Type: floppy
;Firmware: Klipper
;Bounding Box: 84.308 165.629 100.919 149.039 0.000 12.000
;Model Gap: 0.000
M221 T0 S94.00
M140 S50.00
M104 T0 S190.00
M109 T0 S190.00
T0
M190 S50.00
G21 ;metric values
G90 ;absolute positioning
M82 ;set extruder to absolute mode
M107 ;start with the fan off
G28 X0 Y0 ;move X/Y to min endstops
G28 Z0 ;move Z to min endstops
G1 Z15.0 F9000 ;move the platform down 15mm
G92 E0 ;zero the extruded length
G0 X43 Y27 F2000  ;go to the edge of the bed
G92 X0 Y0 E0 ;set zero to edge of the bed
G0 F9000 Z1 ;Z up with 1mm
G1 F200 Z0 ;Z home slowly
G1 Z15.0 F9000 ;move the platform down 15mm
G1 F9000 ;speed setting
G92 E-3 ;retraction
M117 Printing...
M1001
;TOTAL_NUM: 1
;PRINTING_TIME: 0
;REMAINING_TIME: 2634
;LAYER:0
;Z:0.300
;HEIGHT:0.300
;PRINTING: NON-OBJECT
;PRINTING_ID: -1
G1 F2400 E-3.0000
G0 F3900 X84.489 Y101.102
G0 F300 Z0.300
G0 F3900 X84.308 Y101.501
;TYPE:SKIRT
;WIDTH:0.400
G1 F1500 E0.0000
G1 F900 X84.489 Y101.102 E0.0219
G1 X84.826 Y100.919 E0.0410
G1 X92.102 Y100.931 E0.4040
G1 X92.389 Y101.053 E0.4196
G1 X92.501 Y101.327 E0.4343
G1 X92.589 Y110.900 E0.9119
G1 X165.355 Y110.963 E4.5422
G1 X165.599 Y111.329 E4.5642
G1 X165.629 Y125.409 E5.2667
G1 X165.079 Y125.745 E5.2988
G1 X164.644 Y125.515 E5.3234
G1 X163.894 Y123.462 E5.4324
G1 X162.972 Y121.762 E5.5289
G1 X161.775 Y120.252 E5.6250
G1 X160.333 Y118.975 E5.7211
G1 X158.706 Y117.974 E5.8164
G1 X156.893 Y117.251 E5.9138
G1 X155.001 Y116.861 E6.0102
G1 X153.074 Y116.806 E6.1063
G1 X151.163 Y117.084 E6.2027
G1 X149.328 Y117.693 E6.2992
G1 X147.632 Y118.605 E6.3952
G1 X146.113 Y119.803 E6.4917
G1 X144.856 Y121.212 E6.5859
G1 X143.814 Y122.884 E6.6842
G1 X143.102 Y124.663 E6.7798
G1 X142.706 Y126.557 E6.8764
G1 X142.640 Y138.501 E7.4723
G1 X142.347 Y139.013 E7.5017
G1 X92.581 Y139.100 E9.9845
G1 X92.551 Y148.609 E10.4589
G1 X92.428 Y148.896 E10.4745
G1 X92.154 Y149.008 E10.4893
G1 X84.647 Y149.039 E10.8638
G1 X84.400 Y148.670 E10.8860
G1 X84.308 Y101.501 E13.2392
G0 F3900 X84.708 Y101.500
G1 F900 X84.825 Y101.319 E13.2500
G1 X92.101 Y101.331 E13.6130
G1 X92.193 Y111.300 E14.1104
G1 X165.199 Y111.331 E17.7527
G1 X165.260 Y125.255 E18.4473
G1 X165.066 Y125.345 E18.4580
G1 X164.900 Y125.207 E18.4688
G1 X164.261 Y123.298 E18.5692
G1 X163.309 Y121.543 E18.6688
G1 X162.065 Y119.974 E18.7687
G1 X160.571 Y118.652 E18.8682
G1 X158.887 Y117.615 E18.9669
G1 X157.009 Y116.866 E19.0678
G1 X155.048 Y116.462 E19.1677
G1 X153.050 Y116.405 E19.2674
G1 X151.070 Y116.693 E19.3672
G1 X149.171 Y117.323 E19.4670
G1 X147.411 Y118.270 E19.5667
G1 X145.841 Y119.508 E19.6665
G1 X144.532 Y120.975 E19.7646
G1 X143.457 Y122.701 E19.8660
G1 X142.716 Y124.551 E19.9655
G1 X142.306 Y126.512 E20.0654
G1 X142.240 Y138.499 E20.6634
G1 X142.122 Y138.682 E20.6743
G1 X92.182 Y138.700 E23.1658
G1 X92.151 Y148.608 E23.6601
G1 X84.800 Y148.669 E24.0269
G1 X84.708 Y101.500 E26.3802
;PRINTING: Cs??tart??.stl
;PRINTING_ID: 0
G1 F2400 E23.3802
G0 F3900 X91.793 Y111.700
;TYPE:WALL-OUTER
;WIDTH:0.400
G1 F1500 E26.3802
G1 F2400 X164.891 Y111.700 E30.0270
G1 X164.891 Y123.919 E30.6367
G1 X164.630 Y123.139 E30.6777
G1 X163.643 Y121.320 E30.7809
G1 X162.357 Y119.699 E30.8842
G1 X160.809 Y118.327 E30.9874
G1 X159.067 Y117.256 E31.0894
G1 X157.122 Y116.481 E31.1938
G1 X155.095 Y116.063 E31.2971
G1 X153.026 Y116.004 E31.4004
G1 X150.979 Y116.303 E31.5036
G1 X149.015 Y116.953 E31.6068
G1 X147.192 Y117.933 E31.7100
G1 X145.567 Y119.215 E31.8133
G1 X144.206 Y120.739 E31.9152
G1 X143.099 Y122.517 E32.0197
G1 X142.331 Y124.438 E32.1230
G1 X141.906 Y126.467 E32.2264
G1 X141.841 Y138.300 E32.8167
G1 X91.782 Y138.300 E35.3142
G1 X91.782 Y148.300 E35.8131
G1 X85.108 Y148.300 E36.1461
G1 X85.108 Y101.700 E38.4709
G1 X91.793 Y101.700 E38.8045
G1 X91.793 Y111.700 E39.3034
G0 F3900 X91.393 Y112.100
;TYPE:WALL-INNER
;WIDTH:0.400
G1 F2400 X164.491 Y112.100 E42.9502
G1 X164.491 Y121.731 E43.4307
G1 X164.342 Y121.769 E43.4384
G1 X162.649 Y119.423 E43.5827
G1 X161.048 Y118.005 E43.6894
G1 X159.247 Y116.897 E43.7949
G1 X157.237 Y116.096 E43.9029
G1 X155.141 Y115.664 E44.0096
G1 X153.003 Y115.603 E44.1164
G1 X150.887 Y115.912 E44.2230
G1 X148.856 Y116.584 E44.3298
G1 X146.972 Y117.597 E44.4365
G1 X145.292 Y118.923 E44.5433
G1 X143.885 Y120.498 E44.6486
G1 X142.741 Y122.336 E44.7566
G1 X141.947 Y124.322 E44.8634
G1 X141.506 Y126.424 E44.9705
G1 X141.443 Y137.900 E45.5431
G1 X91.382 Y137.900 E48.0406
G1 X91.382 Y147.900 E48.5395
G1 X85.508 Y147.900 E48.8326
G1 X85.508 Y102.100 E51.1175
G1 X91.393 Y102.100 E51.4111
G1 X91.393 Y112.100 E51.9100
G0 F3900 X90.993 Y112.500
G1 F2400 X164.091 Y112.500 E55.5569
G1 X164.091 Y120.503 E55.9562
G1 X163.954 Y120.548 E55.9634
G1 X162.947 Y119.153 E56.0492
G1 X161.287 Y117.683 E56.1598
G1 X159.427 Y116.538 E56.2688
G1 X157.352 Y115.711 E56.3802
G1 X155.187 Y115.265 E56.4905
G1 X152.980 Y115.202 E56.6007
G1 X150.795 Y115.521 E56.7108
G1 X148.697 Y116.215 E56.8211
G1 X146.752 Y117.261 E56.9313
G1 X145.017 Y118.631 E57.0416
G1 X143.564 Y120.257 E57.1504
G1 X142.383 Y122.155 E57.2619
G1 X141.563 Y124.206 E57.3721
G1 X141.106 Y126.381 E57.4830
G1 X141.045 Y137.500 E58.0377
G1 X90.982 Y137.500 E60.5354
G1 X90.982 Y147.500 E61.0343
G1 X85.908 Y147.500 E61.2874
G1 X85.908 Y102.500 E63.5325
G1 X90.993 Y102.500 E63.7861
G1 X90.993 Y112.500 E64.2851
G0 F3900 X90.593 Y112.900
G1 F2400 X163.691 Y112.900 E67.9319
G1 X163.691 Y119.266 E68.2495
G1 X163.554 Y119.310 E68.2567
G1 X161.526 Y117.361 E68.3970
G1 X159.607 Y116.179 E68.5095
G1 X157.467 Y115.326 E68.6244
G1 X155.233 Y114.866 E68.7382
G1 X152.957 Y114.801 E68.8518
G1 X150.703 Y115.130 E68.9654
G1 X148.538 Y115.846 E69.0792
G1 X146.532 Y116.925 E69.1928
G1 X144.742 Y118.339 E69.3067
G1 X143.243 Y120.016 E69.4189
G1 X142.025 Y121.974 E69.5339
G1 X141.179 Y124.090 E69.6476
G1 X140.706 Y126.338 E69.7622
G1 X140.647 Y137.100 E70.2991
G1 X90.582 Y137.100 E72.7969
G1 X90.582 Y147.100 E73.2958
G1 X86.308 Y147.100 E73.5090
G1 X86.308 Y102.900 E75.7142
G1 X90.593 Y102.900 E75.9280
G1 X90.593 Y112.900 E76.4269
G1 F2400 E73.4269
G0 F3900 X86.491 Y146.737
;TYPE:SOLID-FILL
;WIDTH:0.400
G1 F1500 E76.4269
G1 F2400 X86.670 Y146.915 E76.4394
G0 F2400 X87.235 Y146.915
G1 F2400 X86.491 Y146.171 E76.4919
G0 F2400 X86.491 Y145.606
G1 F2400 X87.801 Y146.915 E76.5843
G0 F2400 X88.367 Y146.915
G1 F2400 X86.491 Y145.040 E76.7167
G0 F2400 X86.491 Y144.474
G1 F2400 X88.932 Y146.915 E76.8889
G0 F2400 X89.498 Y146.915
G1 F2400 X86.491 Y143.908 E77.1010
G0 F2400 X86.491 Y143.343
G1 F2400 X90.064 Y146.915 E77.3531
G0 F2400 X90.397 Y146.683
G1 F2400 X86.491 Y142.777 E77.6287
G0 F2400 X86.491 Y142.211
G1 F2400 X90.397 Y146.117 E77.9043
G0 F2400 X90.397 Y145.552
G1 F2400 X86.491 Y141.646 E78.1799
G0 F2400 X86.491 Y141.080
G1 F2400 X90.397 Y144.986 E78.4555
G0 F2400 X90.397 Y144.420
G1 F2400 X86.491 Y140.514 E78.7311
G0 F2400 X86.491 Y139.949
G1 F2400 X90.397 Y143.855 E79.0066
G0 F2400 X90.397 Y143.289
G1 F2400 X86.491 Y139.383 E79.2822
G0 F2400 X86.491 Y138.817
G1 F2400 X90.397 Y142.723 E79.5578
G0 F2400 X90.397 Y142.158
G1 F2400 X86.491 Y138.252 E79.8334
G0 F2400 X86.491 Y137.686
G1 F2400 X90.397 Y141.592 E80.1090
G0 F2400 X90.397 Y141.026
G1 F2400 X86.491 Y137.120 E80.3846
G0 F2400 X86.491 Y136.555
G1 F2400 X90.397 Y140.461 E80.6602
G0 F2400 X90.397 Y139.895
G1 F2400 X86.491 Y135.989 E80.9358
G0 F2400 X86.491 Y135.423
G1 F2400 X90.397 Y139.329 E81.2114
G0 F2400 X90.397 Y138.764
G1 F2400 X86.491 Y134.857 E81.4870
G0 F2400 X86.491 Y134.292
G1 F2400 X90.397 Y138.198 E81.7626
G0 F2400 X90.397 Y137.632
G1 F2400 X86.491 Y133.726 E82.0382
G0 F2400 X86.491 Y133.160
G1 F2400 X90.397 Y137.066 E82.3138
G0 F2400 X90.812 Y136.915
G1 F2400 X86.491 Y132.595 E82.6186
G0 F2400 X86.491 Y132.029
G1 F2400 X91.377 Y136.915 E82.9633
G0 F2400 X91.943 Y136.915
G1 F2400 X86.491 Y131.463 E83.3480
G0 F2400 X86.491 Y130.898
G1 F2400 X92.509 Y136.915 E83.7726
G0 F2400 X93.075 Y136.915
G1 F2400 X86.491 Y130.332 E84.2371
G0 F2400 X86.491 Y129.766
G1 F2400 X93.640 Y136.915 E84.7415
G0 F2400 X94.206 Y136.915
G1 F2400 X86.491 Y129.201 E85.2858
G0 F2400 X86.491 Y128.635
G1 F2400 X94.772 Y136.915 E85.8700
G0 F2400 X95.337 Y136.915
G1 F2400 X86.491 Y128.069 E86.4941
G0 F2400 X86.491 Y127.504
G1 F2400 X95.903 Y136.915 E87.1582
G0 F2400 X96.469 Y136.915
G1 F2400 X86.491 Y126.938 E87.8621
G0 F2400 X86.491 Y126.372
G1 F2400 X97.034 Y136.915 E88.6060
G0 F2400 X97.600 Y136.915
G1 F2400 X86.491 Y125.807 E89.3898
G0 F2400 X86.491 Y125.241
G1 F2400 X98.166 Y136.915 E90.2135
G0 F2400 X98.731 Y136.915
G1 F2400 X86.491 Y124.675 E91.0770
G0 F2400 X86.491 Y124.109
G1 F2400 X99.297 Y136.915 E91.9806
G0 F2400 X99.863 Y136.915
G1 F2400 X86.491 Y123.544 E92.9240
G0 F2400 X86.491 Y122.978
G1 F2400 X100.428 Y136.915 E93.9073
G0 F2400 X100.994 Y136.915
G1 F2400 X86.491 Y122.412 E94.9306
G0 F2400 X86.491 Y121.847
G1 F2400 X101.560 Y136.915 E95.9938
G0 F2400 X102.126 Y136.915
G1 F2400 X86.491 Y121.281 E97.0969
G0 F2400 X86.491 Y120.715
G1 F2400 X102.691 Y136.915 E98.2399
G0 F2400 X103.257 Y136.915
G1 F2400 X86.491 Y120.150 E99.4228
G0 F2400 X86.491 Y119.584
G1 F2400 X103.823 Y136.915 E100.6456
G0 F2400 X104.388 Y136.915
G1 F2400 X86.491 Y119.018 E101.9083
G0 F2400 X86.491 Y118.453
G1 F2400 X104.954 Y136.915 E103.2110
G0 F2400 X105.520 Y136.915
G1 F2400 X86.491 Y117.887 E104.5535
G0 F2400 X86.491 Y117.321
G1 F2400 X106.085 Y136.915 E105.9360
G0 F2400 X106.651 Y136.915
G1 F2400 X86.491 Y116.756 E107.3583
G0 F2400 X86.491 Y116.190
G1 F2400 X107.217 Y136.915 E108.8206
G0 F2400 X107.782 Y136.915
G1 F2400 X86.491 Y115.624 E110.3228
G0 F2400 X86.491 Y115.059
G1 F2400 X108.348 Y136.915 E111.8649
G0 F2400 X108.914 Y136.915
G1 F2400 X86.491 Y114.493 E113.4470
G0 F2400 X86.491 Y113.927
G1 F2400 X109.479 Y136.915 E115.0689
G0 F2400 X110.045 Y136.915
G1 F2400 X86.491 Y113.361 E116.7307
G0 F2400 X86.491 Y112.796
G1 F2400 X110.611 Y136.915 E118.4325
G0 F2400 X111.176 Y136.915
G1 F2400 X86.491 Y112.230 E120.1742
G0 F2400 X86.491 Y111.664
G1 F2400 X111.742 Y136.915 E121.9558
G0 F2400 X112.308 Y136.915
G1 F2400 X86.491 Y111.099 E123.7773
G0 F2400 X86.491 Y110.533
G1 F2400 X112.874 Y136.915 E125.6387
G0 F2400 X113.439 Y136.915
G1 F2400 X86.491 Y109.967 E127.5400
G0 F2400 X86.491 Y109.402
G1 F2400 X114.005 Y136.915 E129.4812
G0 F2400 X114.571 Y136.915
G1 F2400 X90.739 Y113.084 E131.1627
G0 F2400 X90.409 Y112.753
G1 F2400 X86.491 Y108.836 E131.4391
G0 F2400 X86.491 Y108.270
G1 F2400 X90.409 Y112.188 E131.7155
G0 F2400 X90.409 Y111.622
G1 F2400 X86.491 Y107.705 E131.9919
G0 F2400 X86.491 Y107.139
G1 F2400 X90.409 Y111.056 E132.2683
G0 F2400 X90.409 Y110.491
G1 F2400 X86.491 Y106.573 E132.5448
G0 F2400 X86.491 Y106.008
G1 F2400 X90.409 Y109.925 E132.8212
G0 F2400 X90.409 Y109.359
G1 F2400 X86.491 Y105.442 E133.0976
G0 F2400 X86.491 Y104.876
G1 F2400 X90.409 Y108.794 E133.3740
G0 F2400 X90.409 Y108.228
G1 F2400 X86.491 Y104.310 E133.6504
G0 F2400 X86.491 Y103.745
G1 F2400 X90.409 Y107.662 E133.9268
G0 F2400 X90.409 Y107.096
G1 F2400 X86.491 Y103.179 E134.2032
G0 F2400 X86.961 Y103.083
G1 F2400 X90.409 Y106.531 E134.4465
G0 F2400 X90.409 Y105.965
G1 F2400 X87.527 Y103.083 E134.6498
G0 F2400 X88.092 Y103.083
G1 F2400 X90.409 Y105.399 E134.8133
G0 F2400 X90.409 Y104.834
G1 F2400 X88.658 Y103.083 E134.9368
G0 F2400 X89.224 Y103.083
G1 F2400 X90.409 Y104.268 E135.0204
G0 F2400 X90.409 Y103.702
G1 F2400 X89.789 Y103.083 E135.0641
G1 F2400 E132.0641
G0 F3900 X91.305 Y113.084
G1 F1500 E135.0641
G1 F2400 X115.136 Y136.915 E136.7455
G0 F2400 X115.702 Y136.915
G1 F2400 X91.870 Y113.084 E138.4270
G0 F2400 X92.436 Y113.084
G1 F2400 X116.268 Y136.915 E140.1084
G0 F2400 X116.833 Y136.915
G1 F2400 X93.002 Y113.084 E141.7898
G0 F2400 X93.567 Y113.084
G1 F2400 X117.399 Y136.915 E143.4713
G0 F2400 X117.965 Y136.915
G1 F2400 X94.133 Y113.084 E145.1527
G0 F2400 X94.699 Y113.084
G1 F2400 X118.530 Y136.915 E146.8341
G0 F2400 X119.096 Y136.915
G1 F2400 X95.264 Y113.084 E148.5156
G0 F2400 X95.830 Y113.084
G1 F2400 X119.662 Y136.915 E150.1970
G0 F2400 X120.227 Y136.915
G1 F2400 X96.396 Y113.084 E151.8784
G0 F2400 X96.962 Y113.084
G1 F2400 X120.793 Y136.915 E153.5598
G0 F2400 X121.359 Y136.915
G1 F2400 X97.527 Y113.084 E155.2413
G0 F2400 X98.093 Y113.084
G1 F2400 X121.925 Y136.915 E156.9227
G0 F2400 X122.490 Y136.915
G1 F2400 X98.659 Y113.084 E158.6041
G0 F2400 X99.224 Y113.084
G1 F2400 X123.056 Y136.915 E160.2855
G0 F2400 X123.622 Y136.915
G1 F2400 X99.790 Y113.084 E161.9670
G0 F2400 X100.356 Y113.084
G1 F2400 X124.187 Y136.915 E163.6484
G0 F2400 X124.753 Y136.915
G1 F2400 X100.921 Y113.084 E165.3298
G0 F2400 X101.487 Y113.084
G1 F2400 X125.319 Y136.915 E167.0113
G0 F2400 X125.884 Y136.915
G1 F2400 X102.053 Y113.084 E168.6927
G0 F2400 X102.618 Y113.084
G1 F2400 X126.450 Y136.915 E170.3741
G0 F2400 X127.016 Y136.915
G1 F2400 X103.184 Y113.084 E172.0556
G0 F2400 X103.750 Y113.084
G1 F2400 X127.581 Y136.915 E173.7370
G0 F2400 X128.147 Y136.915
G1 F2400 X104.315 Y113.084 E175.4184
G0 F2400 X104.881 Y113.084
G1 F2400 X128.713 Y136.915 E177.0999
G0 F2400 X129.278 Y136.915
G1 F2400 X105.447 Y113.084 E178.7813
G0 F2400 X106.012 Y113.084
G1 F2400 X129.844 Y136.915 E180.4627
G0 F2400 X130.410 Y136.915
G1 F2400 X106.578 Y113.084 E182.1441
G0 F2400 X107.144 Y113.084
G1 F2400 X130.975 Y136.915 E183.8255
G0 F2400 X131.541 Y136.915
G1 F2400 X107.710 Y113.084 E185.5070
G0 F2400 X108.275 Y113.084
G1 F2400 X132.107 Y136.915 E187.1884
G0 F2400 X132.673 Y136.915
G1 F2400 X108.841 Y113.084 E188.8698
G0 F2400 X109.407 Y113.084
G1 F2400 X133.238 Y136.915 E190.5512
G0 F2400 X133.804 Y136.915
G1 F2400 X109.972 Y113.084 E192.2327
G0 F2400 X110.538 Y113.084
G1 F2400 X134.370 Y136.915 E193.9141
G0 F2400 X134.935 Y136.915
G1 F2400 X111.104 Y113.084 E195.5955
G0 F2400 X111.669 Y113.084
G1 F2400 X135.501 Y136.915 E197.2770
G0 F2400 X136.067 Y136.915
G1 F2400 X112.235 Y113.084 E198.9584
G0 F2400 X112.801 Y113.084
G1 F2400 X136.632 Y136.915 E200.6398
G0 F2400 X137.198 Y136.915
G1 F2400 X113.366 Y113.084 E202.3213
G0 F2400 X113.932 Y113.084
G1 F2400 X137.764 Y136.915 E204.0027
G0 F2400 X138.329 Y136.915
G1 F2400 X114.498 Y113.084 E205.6841
G0 F2400 X115.063 Y113.084
G1 F2400 X138.895 Y136.915 E207.3655
G0 F2400 X139.461 Y136.915
G1 F2400 X115.629 Y113.084 E209.0470
G0 F2400 X116.195 Y113.084
G1 F2400 X140.026 Y136.915 E210.7284
G0 F2400 X140.464 Y136.787
G1 F2400 X116.761 Y113.084 E212.4008
G0 F2400 X117.326 Y113.084
G1 F2400 X140.467 Y136.224 E214.0335
G0 F2400 X140.470 Y135.661
G1 F2400 X117.892 Y113.084 E215.6264
G0 F2400 X118.458 Y113.084
G1 F2400 X140.473 Y135.099 E217.1797
G0 F2400 X140.476 Y134.536
G1 F2400 X119.023 Y113.084 E218.6933
G0 F2400 X119.589 Y113.084
G1 F2400 X140.479 Y133.974 E220.1672
G0 F2400 X140.483 Y133.411
G1 F2400 X120.155 Y113.084 E221.6014
G0 F2400 X120.720 Y113.084
G1 F2400 X140.485 Y132.849 E222.9959
G0 F2400 X140.488 Y132.286
G1 F2400 X121.286 Y113.084 E224.3507
G0 F2400 X121.852 Y113.084
G1 F2400 X140.492 Y131.724 E225.6659
G0 F2400 X140.495 Y131.161
G1 F2400 X122.417 Y113.084 E226.9414
G0 F2400 X122.983 Y113.084
G1 F2400 X140.497 Y130.598 E228.1771
G0 F2400 X140.501 Y130.036
G1 F2400 X123.549 Y113.084 E229.3731
G0 F2400 X124.114 Y113.084
G1 F2400 X140.504 Y129.473 E230.5295
G0 F2400 X140.507 Y128.910
G1 F2400 X124.680 Y113.084 E231.6461
G0 F2400 X125.246 Y113.084
G1 F2400 X140.510 Y128.348 E232.7231
G0 F2400 X140.513 Y127.785
G1 F2400 X125.811 Y113.084 E233.7604
G0 F2400 X126.377 Y113.084
G1 F2400 X140.516 Y127.223 E234.7579
G0 F2400 X140.519 Y126.660
