;Sliced by ideaMaker 5.2.4.8581, 2025-07-31 14:37:32 UTC+0200
;Slicer Version: 5.2.3.8580
;Dimension: 250.000 250.000 250.000 0.400
;Plate Shape: 0
;Origin Center: 0
;Extruder Offset #1: 25.000 0.000
;Filament Diameter #1: 1.750
;Filament Diameter #2: 1.750
;Filament Compensation #1: 94.000
;Filament Compensation #2: 90.000
;Filament Density #1: 1240.000
;Filament Density #2: 1240.000
;Filament Type #1: PLA
;Filament Type #2: PLA
;Filament Name #1: [Raise3D] Premium PLA 1.75mm
;Filament Name #2: [Raise3D] Premium PLA 1.75mm
;Filament #1: PLA 1.75mm
;Filament #2: PLA 1.75mm
;Printer Type: floppy
;Firmware: Klipper
;Bounding Box: 87.699 162.285 106.147 143.924 0.000 15.000
;Model Gap: 0.000
M221 T0 S94.00
M140 S50.00
M104 T0 S190.00
M109 T0 S190.00
T0
M190 S50.00
G21 ;metric values
G90 ;absolute positioning
M82 ;set extruder to absolute mode
M107 ;start with the fan off
G28 X0 Y0 ;move X/Y to min endstops
G28 Z0 ;move Z to min endstops
G1 Z15.0 F9000 ;move the platform down 15mm
G92 E0 ;zero the extruded length
G0 X43 Y27 F2000  ;go to the edge of the bed
G92 X0 Y0 E0 ;set zero to edge of the bed
G0 F9000 Z1 ;Z up with 1mm
G1 F200 Z0 ;Z home slowly
G1 Z15.0 F9000 ;move the platform down 15mm
G1 F9000 ;speed setting
G92 E-3 ;retraction
M117 Printing...
M1001
;TOTAL_NUM: 1
;PRINTING_TIME: 0
;REMAINING_TIME: 2245
;LAYER:0
;Z:0.300
;HEIGHT:0.300
;PRINTING: NON-OBJECT
;PRINTING_ID: -1
G1 F2400 E-3.0000
G0 F3900 X92.601 Y127.339
G0 F300 Z0.300
;TYPE:SKIRT
;WIDTH:0.400
G1 F1500 E0.0000
G1 F900 X93.732 Y126.858 E0.0613
G1 X95.996 Y126.443 E0.1762
G1 X97.682 Y126.593 E0.2606
G1 X98.646 Y125.880 E0.3204
G1 X147.141 Y106.314 E2.9293
G1 X149.379 Y106.147 E3.0413
G1 X150.483 Y106.584 E3.1005
G1 X151.364 Y107.298 E3.1571
G1 X157.961 Y115.989 E3.7015
G1 X160.869 Y118.260 E3.8856
G1 X161.839 Y119.458 E3.9625
G1 X162.285 Y121.042 E4.0446
G1 X162.080 Y122.509 E4.1185
G1 X160.299 Y125.165 E4.2780
G1 X159.539 Y125.906 E4.3310
G1 X157.522 Y126.633 E4.4379
G1 X155.666 Y126.289 E4.5321
G1 X151.477 Y123.162 E4.7929
G1 X146.632 Y116.938 E5.1864
G1 X143.885 Y118.548 E5.3453
G1 X114.332 Y130.401 E6.9338
G1 X151.056 Y130.517 E8.7660
G1 X152.907 Y131.253 E8.8654
G1 X153.567 Y131.698 E8.9051
G1 X154.873 Y131.878 E8.9709
G1 X155.677 Y132.358 E9.0176
G1 X157.251 Y137.955 E9.3077
G1 X157.266 Y139.555 E9.3875
G1 X156.535 Y141.016 E9.4690
G1 X154.991 Y141.327 E9.5476
G1 X153.776 Y142.478 E9.6311
G1 X151.966 Y142.986 E9.7249
G1 X102.183 Y142.986 E12.2085
G1 X100.754 Y143.114 E12.2801
G1 X97.164 Y143.924 E12.4637
G1 X94.648 Y143.775 E12.5895
G1 X92.397 Y142.965 E12.7088
G1 X90.074 Y141.161 E12.8556
G1 X89.301 Y140.236 E12.9157
G1 X88.239 Y138.178 E13.0312
G1 X87.915 Y137.142 E13.0854
G1 X87.699 Y134.663 E13.2095
G1 X88.177 Y132.337 E13.3280
G1 X88.601 Y131.316 E13.3832
G1 X90.139 Y129.105 E13.5175
G1 X92.601 Y127.339 E13.6687
G0 F3900 X92.832 Y127.666
G1 F900 X93.886 Y127.227 E13.7257
G1 X96.066 Y126.837 E13.8361
G1 X97.800 Y127.006 E13.9231
G1 X98.796 Y126.251 E13.9854
G1 X147.291 Y106.685 E16.5943
G1 X149.232 Y106.519 E16.6915
G1 X150.336 Y106.956 E16.7508
G1 X151.106 Y107.604 E16.8010
G1 X157.672 Y116.270 E17.3434
G1 X160.623 Y118.575 E17.5302
G1 X161.457 Y119.575 E17.5952
G1 X161.889 Y120.987 E17.6689
G1 X161.684 Y122.454 E17.7428
G1 X159.970 Y124.938 E17.8933
G1 X159.262 Y125.618 E17.9423
G1 X157.585 Y126.238 E18.0315
G1 X155.904 Y125.968 E18.1164
G1 X151.793 Y122.916 E18.3719
G1 X146.733 Y116.416 E18.7828
G1 X143.683 Y118.203 E18.9592
G1 X112.272 Y130.796 E20.6476
G1 X150.908 Y130.889 E22.5751
G1 X152.759 Y131.625 E22.6745
G1 X153.417 Y132.081 E22.7144
G1 X154.818 Y132.274 E22.7850
G1 X155.354 Y132.594 E22.8161
G1 X156.851 Y137.959 E23.0940
G1 X156.866 Y139.559 E23.1739
G1 X156.278 Y140.709 E23.2383
G1 X154.798 Y140.953 E23.3131
G1 X153.665 Y142.094 E23.3933
G1 X151.966 Y142.586 E23.4816
G1 X102.169 Y142.586 E25.9660
G1 X100.686 Y142.719 E26.0403
G1 X97.185 Y143.525 E26.2195
G1 X94.783 Y143.399 E26.3395
G1 X92.532 Y142.589 E26.4588
G1 X90.322 Y140.847 E26.5992
G1 X89.610 Y139.982 E26.6551
G1 X88.595 Y137.996 E26.7664
G1 X88.297 Y137.025 E26.8171
G1 X88.098 Y134.630 E26.9370
G1 X88.568 Y132.420 E27.0497
G1 X88.969 Y131.472 E27.1011
G1 X90.467 Y129.335 E27.2313
G1 X92.832 Y127.666 E27.3757
G0 F3900 X93.060 Y127.995
G1 F900 X94.037 Y127.598 E27.4283
G1 X96.135 Y127.231 E27.5345
G1 X97.917 Y127.421 E27.6239
G1 X98.946 Y126.622 E27.6889
G1 X147.441 Y107.056 E30.2979
G1 X149.092 Y106.894 E30.3806
G1 X150.078 Y107.262 E30.4331
G1 X150.848 Y107.910 E30.4833
G1 X157.384 Y116.553 E31.0240
G1 X160.377 Y118.890 E31.2134
G1 X161.075 Y119.692 E31.2665
G1 X161.507 Y121.104 E31.3401
G1 X161.290 Y122.387 E31.4050
G1 X159.644 Y124.707 E31.5470
G1 X158.987 Y125.327 E31.5920
G1 X157.637 Y125.841 E31.6641
G1 X156.142 Y125.646 E31.7393
G1 X152.109 Y122.670 E31.9894
G1 X146.864 Y115.932 E32.4154
G1 X145.929 Y116.309 E32.4657
G1 X145.610 Y116.721 E32.4917
G1 X143.495 Y117.850 E32.6113
G1 X141.649 Y118.479 E32.7086
G1 X140.057 Y119.268 E32.7972
G1 X138.213 Y119.892 E32.8943
G1 X133.641 Y121.877 E33.1430
G1 X131.212 Y122.692 E33.2708
G1 X126.641 Y124.677 E33.5195
G1 X124.212 Y125.492 E33.6473
G1 X119.641 Y127.477 E33.8959
G1 X117.250 Y128.278 E34.0217
G1 X115.659 Y129.067 E34.1103
G1 X113.813 Y129.691 E34.2075
G1 X110.355 Y131.193 E34.3956
G1 X150.760 Y131.261 E36.4114
G1 X152.611 Y131.997 E36.5108
G1 X153.264 Y132.463 E36.5508
G1 X154.763 Y132.670 E36.6263
G1 X155.031 Y132.830 E36.6419
G1 X156.451 Y137.963 E36.9076
G1 X156.466 Y139.563 E36.9874
G1 X156.025 Y140.399 E37.0346
G1 X154.604 Y140.574 E37.1060
G1 X153.550 Y141.711 E37.1834
G1 X151.966 Y142.186 E37.2659
G1 X102.155 Y142.186 E39.7509
G1 X100.623 Y142.323 E39.8277
G1 X97.203 Y143.125 E40.0029
G1 X94.918 Y143.023 E40.1170
G1 X92.667 Y142.213 E40.2364
G1 X90.572 Y140.535 E40.3703
G1 X89.921 Y139.730 E40.4220
G1 X88.952 Y137.815 E40.5290
G1 X88.680 Y136.910 E40.5762
G1 X88.497 Y134.598 E40.6919
G1 X88.959 Y132.506 E40.7988
G1 X89.336 Y131.630 E40.8464
G1 X90.794 Y129.566 E40.9724
G1 X93.060 Y127.995 E41.1100
G0 F3900 X93.285 Y128.326
G1 F900 X94.184 Y127.970 E41.1582
G1 X96.202 Y127.625 E41.2604
G1 X98.036 Y127.837 E41.3525
G1 X99.096 Y126.993 E41.4201
G1 X147.591 Y107.427 E44.0290
G1 X148.962 Y107.272 E44.0978
G1 X149.820 Y107.568 E44.1431
G1 X150.590 Y108.216 E44.1933
G1 X157.096 Y116.835 E44.7321
G1 X160.131 Y119.205 E44.9242
G1 X160.771 Y119.952 E44.9733
G1 X161.122 Y121.211 E45.0385
G1 X160.898 Y122.307 E45.0943
G1 X159.321 Y124.471 E45.2279
G1 X158.715 Y125.034 E45.2691
G1 X157.503 Y125.464 E45.3333
G1 X156.207 Y125.251 E45.3988
G1 X152.349 Y122.350 E45.6397
G1 X146.995 Y115.448 E46.0755
G1 X145.658 Y115.987 E46.1474
G1 X145.422 Y116.368 E46.1697
G1 X143.307 Y117.497 E46.2893
G1 X141.497 Y118.108 E46.3846
G1 X139.879 Y118.910 E46.4747
G1 X138.067 Y119.519 E46.5701
G1 X133.482 Y121.510 E46.8195
G1 X131.066 Y122.319 E46.9466
G1 X126.482 Y124.310 E47.1959
G1 X124.066 Y125.119 E47.3231
G1 X119.482 Y127.110 E47.5724
G1 X117.096 Y127.908 E47.6979
G1 X115.481 Y128.709 E47.7879
G1 X113.667 Y129.319 E47.8833
G1 X109.897 Y130.956 E48.0884
G1 X110.029 Y131.594 E48.1209
G1 X150.759 Y131.661 E50.1529
G1 X152.458 Y132.366 E50.2447
G1 X153.109 Y132.845 E50.2850
G1 X154.708 Y133.066 E50.3655
G1 X156.051 Y137.967 E50.6191
G1 X156.066 Y139.567 E50.6989
G1 X155.779 Y140.084 E50.7284
G1 X154.408 Y140.187 E50.7970
G1 X153.431 Y141.329 E50.8720
G1 X151.966 Y141.786 E50.9485
G1 X102.141 Y141.786 E53.4343
G1 X100.556 Y141.928 E53.5137
G1 X97.217 Y142.725 E53.6850
G1 X95.053 Y142.647 E53.7930
G1 X92.802 Y141.837 E53.9124
G1 X90.825 Y140.225 E54.0396
G1 X90.234 Y139.481 E54.0870
G1 X89.310 Y137.636 E54.1900
G1 X89.064 Y136.797 E54.2336
G1 X88.888 Y134.684 E54.3394
G1 X89.350 Y132.592 E54.4463
G1 X89.702 Y131.791 E54.4899
G1 X91.120 Y129.798 E54.6119
G1 X93.285 Y128.326 E54.7426
G0 F3900 X93.507 Y128.659
G1 F900 X94.328 Y128.343 E54.7864
G1 X96.268 Y128.020 E54.8846
G1 X98.157 Y128.255 E54.9795
G1 X99.246 Y127.364 E55.0497
G1 X147.741 Y107.798 E57.6587
G1 X148.845 Y107.655 E57.7142
G1 X149.562 Y107.874 E57.7516
G1 X150.332 Y108.522 E57.8018
G1 X156.808 Y117.117 E58.3387
G1 X159.885 Y119.520 E58.5335
G1 X160.390 Y120.075 E58.5709
G1 X160.730 Y121.131 E58.6263
G1 X160.506 Y122.227 E58.6821
G1 X159.001 Y124.231 E58.8071
G1 X158.445 Y124.739 E58.8447
G1 X157.380 Y125.083 E58.9005
G1 X156.287 Y124.859 E58.9562
G1 X152.592 Y122.032 E59.1883
G1 X147.126 Y114.964 E59.6341
G1 X145.328 Y115.689 E59.7308
G1 X145.234 Y116.015 E59.7477
G1 X143.119 Y117.144 E59.8673
G1 X141.343 Y117.738 E59.9607
G1 X139.701 Y118.552 E60.0522
G1 X137.921 Y119.146 E60.1458
G1 X133.323 Y121.143 E60.3959
G1 X130.920 Y121.946 E60.5223
G1 X126.323 Y123.943 E60.7724
G1 X123.920 Y124.746 E60.8988
G1 X119.323 Y126.743 E61.1488
G1 X116.943 Y127.538 E61.2740
G1 X115.303 Y128.351 E61.3653
G1 X113.521 Y128.946 E61.4590
G1 X109.439 Y130.719 E61.6811
G1 X109.703 Y131.993 E61.7460
G1 X150.758 Y132.061 E63.7942
G1 X152.298 Y132.733 E63.8781
G1 X152.963 Y133.237 E63.9197
G1 X154.404 Y133.326 E63.9917
G1 X154.465 Y134.023 E64.0266
G1 X155.651 Y137.971 E64.2323
G1 X155.666 Y139.571 E64.3121
G1 X155.550 Y139.756 E64.3230
G1 X154.186 Y139.793 E64.3911
G1 X153.712 Y140.529 E64.4348
G1 X153.161 Y141.034 E64.4720
G1 X151.966 Y141.386 E64.5342
G1 X102.127 Y141.386 E67.0207
G1 X100.485 Y141.533 E67.1029
G1 X97.228 Y142.325 E67.2702
G1 X95.188 Y142.271 E67.3720
G1 X92.937 Y141.461 E67.4913
G1 X91.081 Y139.917 E67.6118
G1 X90.550 Y139.235 E67.6549
G1 X89.668 Y137.458 E67.7539
G1 X89.449 Y136.688 E67.7938
G1 X89.287 Y134.652 E67.8957
G1 X89.740 Y132.682 E67.9965
G1 X90.067 Y131.955 E68.0363
G1 X91.445 Y130.031 E68.1544
G1 X93.507 Y128.659 E68.2779
;PRINTING: clip_bag_03.stl
;PRINTING_ID: 0
G1 F2400 E65.2779
G0 F3900 X100.326 Y129.514
;TYPE:WALL-OUTER
;WIDTH:0.400
G1 F1500 E68.2779
G1 F2400 X148.500 Y110.080 E70.8696
G1 X155.080 Y118.811 E71.4150
G1 X158.252 Y121.290 E71.6158
G1 X157.224 Y122.605 E71.6991
G1 X154.091 Y120.157 E71.8975
G1 X148.661 Y113.018 E72.3450
G1 X147.691 Y112.522 E72.3993
G1 X146.803 Y112.505 E72.4436
G1 X100.925 Y130.998 E74.9114
G1 X100.326 Y129.514 E74.9913
G0 F3900 X100.847 Y129.735
;TYPE:WALL-INNER
;WIDTH:0.400
G1 F2400 X148.365 Y110.566 E77.5476
G1 X154.792 Y119.094 E78.0804
G1 X157.690 Y121.359 E78.2639
G1 X157.155 Y122.044 E78.3072
G1 X154.378 Y119.874 E78.4831
G1 X148.924 Y112.703 E78.9325
G1 X147.791 Y112.124 E78.9960
G1 X146.729 Y112.104 E79.0490
G1 X101.146 Y130.478 E81.5010
G1 X100.847 Y129.735 E81.5409
G1 F2400 E78.5409
G0 F3900 X100.893 Y129.824
G0 X146.994 Y111.550
G1 F1500 E81.5409
G1 F2400 X148.230 Y111.052 E81.6074
G1 X149.058 Y112.150 E81.6760
G1 X148.956 Y112.270 E81.6839
G1 X147.891 Y111.726 E81.7435
G1 X147.023 Y111.709 E81.7868
G1 X146.994 Y111.550 E81.7949
G0 F3900 X146.839 Y111.874
;TYPE:GAP-FILL
;WIDTH:0.374
G1 F2400 X146.621 Y111.728 E81.8071
G1 X101.182 Y130.031 E84.0922
G1 F2400 E81.0922
G0 F3900 X147.863 Y111.474
;WIDTH:0.159
G1 F1500 E84.0922
G1 F2400 X148.264 Y111.430 E84.1002
G0 F3900 X149.174 Y112.337
;WIDTH:0.408
G1 F2400 X154.522 Y119.396 E84.5509
;WIDTH:0.470
G1 X157.264 Y121.577 E84.7563
G1 F2400 E81.7563
G0 F3900 X94.981 Y132.235
;TYPE:WALL-OUTER
;WIDTH:0.400
G1 F1500 E84.7563
G1 F2400 X93.898 Y133.109 E84.8257
G1 X93.273 Y134.350 E84.8950
G1 X93.177 Y135.471 E84.9512
G1 X93.582 Y136.794 E85.0202
G1 X94.286 Y137.665 E85.0761
G1 X95.241 Y138.253 E85.1320
G1 X96.609 Y138.487 E85.2013
G1 X97.952 Y138.138 E85.2705
G1 X98.854 Y137.471 E85.3265
G1 X99.485 Y136.532 E85.3829
G1 X99.774 Y135.186 E85.4516
G1 X99.480 Y133.829 E85.5209
G1 X98.842 Y132.889 E85.5775
G1 X97.700 Y132.119 E85.6463
G1 X96.328 Y131.885 E85.7157
G1 X94.981 Y132.235 E85.7851
G1 F2400 E82.7851
G0 F3900 X94.856 Y131.752
G0 X96.303 Y131.277
G0 X97.926 Y131.554
G0 X98.687 Y132.066
G0 X100.765 Y134.566
G0 X101.231 Y134.386
G1 F1500 E85.7851
G1 F2400 X150.336 Y134.429 E88.2350
G1 X151.168 Y134.852 E88.2816
G1 X151.673 Y135.630 E88.3278
G1 X151.763 Y138.986 E88.4953
G1 X102.027 Y138.986 E90.9767
G1 X100.057 Y139.161 E91.0753
G1 X97.218 Y139.925 E91.2220
G1 X95.619 Y139.907 E91.3018
G1 X94.127 Y139.373 E91.3809
G1 X92.677 Y138.123 E91.4764
G1 X91.836 Y136.427 E91.5708
G1 X91.684 Y134.833 E91.6507
G1 X92.062 Y133.289 E91.7300
G1 X93.151 Y131.723 E91.8252
G1 X94.762 Y130.703 E91.9203
G1 X96.631 Y130.392 E92.0148
G1 X98.201 Y130.712 E92.0948
G1 X99.569 Y131.525 E92.1741
G1 X100.596 Y132.741 E92.2536
G1 X101.231 Y134.386 E92.3415
G1 F2400 E89.3415
G0 F3900 X100.765 Y134.566
G0 X99.271 Y132.459
G0 X97.926 Y131.554
G0 X96.613 Y131.330
G0 X94.728 Y131.799
G0 X94.797 Y131.870
;TYPE:WALL-INNER
;WIDTH:0.400
G1 F1500 E92.3415
G1 F2400 X93.580 Y132.852 E92.4195
G1 X92.881 Y134.239 E92.4970
G1 X92.772 Y135.514 E92.5609
G1 X93.222 Y136.985 E92.6376
G1 X94.018 Y137.970 E92.7008
G1 X95.097 Y138.634 E92.7640
G1 X96.626 Y138.896 E92.8414
G1 X98.128 Y138.506 E92.9188
G1 X99.147 Y137.752 E92.9821
G1 X99.860 Y136.691 E93.0458
G1 X100.183 Y135.186 E93.1226
G1 X99.855 Y133.669 E93.2001
G1 X99.130 Y132.600 E93.2645
G1 X97.852 Y131.739 E93.3414
G1 X96.311 Y131.476 E93.4194
G1 X94.797 Y131.870 E93.4974
G1 F2400 E90.4974
G0 F3900 X94.728 Y131.799
G0 X96.303 Y131.277
G0 X97.926 Y131.554
G0 X99.014 Y132.286
G0 X100.967 Y134.886
G0 X100.957 Y134.786
G1 F1500 E93.4974
G1 F2400 X150.240 Y134.829 E95.9562
G1 X150.891 Y135.160 E95.9926
G1 X151.276 Y135.753 E96.0279
G1 X151.352 Y138.586 E96.1693
G1 X102.009 Y138.586 E98.6310
G1 X99.987 Y138.766 E98.7323
G1 X97.167 Y139.524 E98.8780
G1 X95.691 Y139.508 E98.9516
G1 X94.332 Y139.021 E99.0236
G1 X92.999 Y137.873 E99.1114
G1 X92.227 Y136.315 E99.1981
G1 X92.089 Y134.862 E99.2710
G1 X92.433 Y133.456 E99.3432
G1 X93.433 Y132.018 E99.4306
G1 X94.908 Y131.084 E99.5177
G1 X96.624 Y130.799 E99.6044
G1 X98.055 Y131.090 E99.6773
G1 X99.307 Y131.834 E99.7500
G1 X100.247 Y132.948 E99.8227
G1 X100.957 Y134.786 E99.9210
G1 F2400 E96.9210
G0 F3900 X100.967 Y134.886
G0 X150.941 Y138.186
G1 F1500 E99.9210
G1 F2400 X101.991 Y138.186 E102.3631
G1 X99.917 Y138.371 E102.4670
G1 X98.876 Y138.650 E102.5208
G1 X98.805 Y138.503 E102.5289
G1 X99.440 Y138.032 E102.5683
G1 X100.235 Y136.850 E102.6394
G1 X100.592 Y135.186 E102.7243
G1 X150.144 Y135.229 E105.1965
G1 X150.614 Y135.468 E105.2228
G1 X150.879 Y135.876 E105.2471
G1 X150.941 Y138.186 E105.3623
G0 F3900 X150.530 Y137.786
G1 F2400 X101.973 Y137.786 E107.7849
G1 X100.112 Y137.952 E107.8781
G1 X100.048 Y137.844 E107.8843
G1 X100.610 Y137.009 E107.9346
G1 X100.915 Y135.586 E108.0072
G1 X150.048 Y135.629 E110.4584
G1 X150.482 Y135.999 E110.4869
G1 X150.530 Y137.786 E110.5761
G0 F3900 X150.308 Y136.449
;TYPE:SOLID-FILL
;WIDTH:0.400
G1 F2400 X149.672 Y135.813 E110.6209
G0 F2400 X149.106 Y135.812
G1 F2400 X150.325 Y137.031 E110.7069
G0 F2400 X150.329 Y137.601
G1 F2400 X148.540 Y135.812 E110.8332
G0 F2400 X147.974 Y135.811
G1 F2400 X149.763 Y137.601 E110.9594
G0 F2400 X149.198 Y137.601
G1 F2400 X147.407 Y135.811 E111.0857
G0 F2400 X146.841 Y135.810
G1 F2400 X148.632 Y137.601 E111.2121
G0 F2400 X148.066 Y137.601
G1 F2400 X146.275 Y135.810 E111.3385
G0 F2400 X145.709 Y135.809
G1 F2400 X147.501 Y137.601 E111.4649
G0 F2400 X146.935 Y137.601
G1 F2400 X145.142 Y135.809 E111.5914
G0 F2400 X144.577 Y135.809
G1 F2400 X146.369 Y137.601 E111.7178
G0 F2400 X145.804 Y137.601
G1 F2400 X144.010 Y135.808 E111.8444
G0 F2400 X143.444 Y135.807
G1 F2400 X145.238 Y137.601 E111.9709
G0 F2400 X144.672 Y137.601
G1 F2400 X142.877 Y135.806 E112.0976
G0 F2400 X142.312 Y135.806
G1 F2400 X144.106 Y137.601 E112.2242
G0 F2400 X143.541 Y137.601
G1 F2400 X141.745 Y135.806 E112.3509
G0 F2400 X141.179 Y135.805
G1 F2400 X142.975 Y137.601 E112.4776
G0 F2400 X142.409 Y137.601
G1 F2400 X140.613 Y135.804 E112.6043
G0 F2400 X140.047 Y135.804
G1 F2400 X141.844 Y137.601 E112.7311
G0 F2400 X141.278 Y137.601
G1 F2400 X139.481 Y135.804 E112.8579
G0 F2400 X138.914 Y135.803
G1 F2400 X140.712 Y137.601 E112.9848
G0 F2400 X140.147 Y137.601
G1 F2400 X138.348 Y135.803 E113.1117
G0 F2400 X137.782 Y135.802
G1 F2400 X139.581 Y137.601 E113.2386
G0 F2400 X139.015 Y137.601
