;Sliced by ideaMaker 5.3.2.8640, 2025-12-06 17:24:26 UTC+0100
;Slicer Version: 5.3.0.8620
;Dimension: 250.000 250.000 250.000 0.400
;Plate Shape: 0
;Origin Center: 0
;Extruder Offset #1: 25.000 0.000
;Filament Diameter #1: 1.750
;Filament Diameter #2: 1.750
;Filament Compensation #1: 94.000
;Filament Compensation #2: 90.000
;Filament Density #1: 1240.000
;Filament Density #2: 1240.000
;Filament Type #1: PLA
;Filament Type #2: PLA
;Filament Name #1: [Raise3D] Premium PLA 1.75mm
;Filament Name #2: [Raise3D] Premium PLA 1.75mm
;Filament #1: PLA 1.75mm
;Filament #2: PLA 1.75mm
;Printer Type: floppy
;Firmware: Klipper
;Bounding Box: 96.709 153.290 111.849 138.358 0.000 6.600
;Model Gap: 0.000
M221 T0 S94.00
M140 S45.00
M104 T0 S190.00
M109 T0 S190.00
T0
M190 S45.00
G21 ;metric values
G90 ;absolute positioning
M82 ;set extruder to absolute mode
M107 ;start with the fan off
G28 X0 Y0 ;move X/Y to min endstops
G28 Z0 ;move Z to min endstops
G1 Z15.0 F9000 ;move the platform down 15mm

G92 E0 ;zero the extruded length

G0 X43 Y27 F2000  ;go to the edge of the bed
G92 X0 Y0 E0 ;set zero to edge of the bed
G0 F9000 Z1 ;Z up with 1mm
G1 F200 Z0 ;Z home slowly

G1 Z15.0 F9000 ;move the platform down 15mm

G1 F9000 ;speed setting
G92 E-3 ;retraction
M117 Printing...
M1001
;TOTAL_NUM: 1
;PRINTING_TIME: 0
;REMAINING_TIME: 664
;LAYER:0
;Z:0.300
;HEIGHT:0.300
;PRINTING: NON-OBJECT
;PRINTING_ID: -1
G1 F2400 E-3.0000
G0 F3900 X97.620 Y113.179
G0 F300 Z0.300
;TYPE:SKIRT
;WIDTH:0.400
G1 F1500 E0.0000
G1 F900 X99.335 Y111.849 E0.1083
G1 X150.333 Y111.853 E2.6526
G1 X152.407 Y113.032 E2.7716
G1 X153.198 Y115.254 E2.8893
G1 X153.290 Y134.540 E3.8515
G1 X152.381 Y136.819 E3.9739
G1 X150.666 Y138.150 E4.0822
G1 X100.518 Y138.358 E6.5841
G1 X98.243 Y137.445 E6.7064
G1 X96.917 Y135.732 E6.8145
G1 X96.709 Y115.464 E7.8257
G1 X97.620 Y113.179 E7.9484
G0 F3900 X97.870 Y113.491
G1 F900 X99.443 Y112.234 E8.0489
G1 X150.333 Y112.253 E10.5878
G1 X152.087 Y113.272 E10.6890
G1 X152.798 Y115.256 E10.7941
G1 X152.890 Y134.542 E11.7563
G1 X152.131 Y136.507 E11.8614
G1 X150.558 Y137.765 E11.9619
G1 X100.516 Y137.958 E14.4585
G1 X98.556 Y137.195 E14.5635
G1 X97.302 Y135.624 E14.6638
G1 X97.109 Y115.460 E15.6698
G1 X97.870 Y113.491 E15.7751
G0 F3900 X98.125 Y113.799
G1 F900 X99.557 Y112.617 E15.8677
G1 X150.333 Y112.653 E18.4010
G1 X151.764 Y113.508 E18.4841
G1 X152.398 Y115.258 E18.5770
G1 X152.490 Y134.544 E19.5392
G1 X151.876 Y136.199 E19.6273
G1 X150.444 Y137.382 E19.7199
G1 X100.515 Y137.558 E22.2109
G1 X98.865 Y136.940 E22.2988
G1 X97.685 Y135.510 E22.3913
G1 X97.509 Y115.456 E23.3918
G1 X98.125 Y113.799 E23.4800
G0 F3900 X98.498 Y113.944
G1 F900 X99.667 Y113.002 E23.5549
G1 X150.134 Y113.000 E26.0727
G1 X151.446 Y113.750 E26.1481
G1 X151.998 Y115.260 E26.2284
G1 X152.090 Y134.546 E27.1905
G1 X151.503 Y136.054 E27.2713
G1 X150.334 Y136.997 E27.3462
G1 X100.514 Y137.158 E29.8318
G1 X99.011 Y136.568 E29.9123
G1 X98.070 Y135.400 E29.9871
G1 X97.909 Y115.453 E30.9823
G1 X98.498 Y113.944 E31.0631
G0 F3900 X98.755 Y114.250
G1 F900 X99.785 Y113.384 E31.1303
G1 X150.134 Y113.400 E33.6422
G1 X151.124 Y113.987 E33.6996
G1 X151.598 Y115.262 E33.7675
G1 X151.690 Y134.548 E34.7297
G1 X151.245 Y135.748 E34.7935
G1 X150.216 Y136.615 E34.8607
G1 X100.513 Y136.758 E37.3404
G1 X99.317 Y136.311 E37.4041
G1 X98.452 Y135.282 E37.4711
G1 X98.309 Y115.450 E38.4606
G1 X98.755 Y114.250 E38.5245
G0 F3900 X99.127 Y114.398
G1 F900 X99.897 Y113.768 E38.5741
G1 X150.134 Y113.800 E41.0804
G1 X150.796 Y114.216 E41.1194
G1 X151.198 Y115.264 E41.1754
G1 X151.290 Y134.550 E42.1376
G1 X150.873 Y135.600 E42.1940
G1 X150.103 Y136.231 E42.2437
G1 X100.512 Y136.358 E44.7178
G1 X99.465 Y135.940 E44.7740
G1 X98.836 Y135.170 E44.8236
G1 X98.709 Y115.447 E45.8076
G1 X99.127 Y114.398 E45.8640
G0 F3900 X99.494 Y114.557
G1 F900 X100.003 Y114.154 E45.8963
G1 X149.935 Y114.147 E48.3875
G1 X150.478 Y114.458 E48.4187
G1 X150.798 Y115.266 E48.4620
G1 X150.890 Y134.552 E49.4242
G1 X150.506 Y135.442 E49.4726
G1 X149.997 Y135.845 E49.5050
G1 X100.511 Y135.958 E51.9739
G1 X99.624 Y135.573 E52.0221
G1 X99.222 Y135.064 E52.0545
G1 X99.109 Y115.445 E53.0333
G1 X99.494 Y114.557 E53.0816
G0 F3900 X99.854 Y114.731
G1 F900 X100.102 Y114.542 E53.0971
G1 X149.754 Y114.504 E55.5743
G1 X150.173 Y114.716 E55.5977
G1 X150.398 Y115.268 E55.6274
G1 X150.490 Y134.554 E56.5896
G1 X150.146 Y135.268 E56.6292
G1 X149.898 Y135.457 E56.6447
G1 X100.510 Y135.558 E59.1087
G1 X99.799 Y135.213 E59.1481
G1 X99.610 Y134.965 E59.1637
G1 X99.509 Y115.443 E60.1377
G1 X99.854 Y114.731 E60.1771
G0 F3900 X99.909 Y115.441
G1 F900 X100.201 Y114.929 E60.2065
G1 X149.598 Y114.872 E62.6710
G1 X149.885 Y114.994 E62.6865
G1 X149.998 Y115.270 E62.7014
G1 X150.090 Y134.556 E63.6636
G1 X149.798 Y135.070 E63.6931
G1 X100.509 Y135.158 E66.1521
G1 X99.997 Y134.866 E66.1815
G1 X99.909 Y115.441 E67.1507
G0 F3900 X100.309 Y115.441
G1 F900 X100.426 Y115.260 E67.1614
G1 X149.598 Y115.272 E69.6146
G1 X149.690 Y134.558 E70.5768
G1 X149.573 Y134.739 E70.5876
G1 X100.509 Y134.758 E73.0354
G1 X100.328 Y134.641 E73.0461
G1 X100.309 Y115.441 E74.0040
;PRINTING: Breaker_Filler_Plate_-_Schneider_-_1-UP.stl
;PRINTING_ID: 0
G1 F2400 E71.0040
G1 F300 Z0.500
G0 F3900 X100.709 Y115.641
;TYPE:WALL-OUTER
;WIDTH:0.400
G1 F300 Z0.300
G1 F1500 E74.0040
G1 F2400 X149.290 Y115.641 E76.4277
G1 X149.290 Y134.358 E77.3615
G1 X100.709 Y134.358 E79.7852
G1 X100.709 Y115.641 E80.7190
G0 F3900 X101.109 Y116.041
;TYPE:WALL-INNER
;WIDTH:0.400
G1 F2400 X148.890 Y116.041 E83.1028
G1 X148.890 Y133.958 E83.9967
G1 X101.109 Y133.958 E86.3805
G1 X101.109 Y116.041 E87.2744
G0 F3900 X101.509 Y116.441
G1 F2400 X148.490 Y116.441 E89.6183
G1 X148.490 Y133.558 E90.4723
G1 X101.509 Y133.558 E92.8162
G1 X101.509 Y116.441 E93.6701
G0 F3900 X101.909 Y116.841
G1 F2400 X148.090 Y116.841 E95.9741
G1 X148.090 Y133.158 E96.7882
G1 X101.909 Y133.158 E99.0922
G1 X101.909 Y116.841 E99.9062
G1 F2400 E96.9062
G1 F300 Z0.500
G0 F3900 X102.092 Y132.356
;TYPE:SOLID-FILL
;WIDTH:0.400
G1 F300 Z0.300
G1 F1500 E99.9062
G1 F2400 X102.709 Y132.973 E99.9497
G0 F2400 X103.275 Y132.973
G1 F2400 X102.092 Y131.791 E100.0332
G0 F2400 X102.092 Y131.225
G1 F2400 X103.840 Y132.973 E100.1565
G0 F2400 X104.406 Y132.973
G1 F2400 X102.092 Y130.659 E100.3198
G0 F2400 X102.092 Y130.094
G1 F2400 X104.972 Y132.973 E100.5229
G0 F2400 X105.537 Y132.973
G1 F2400 X102.092 Y129.528 E100.7660
G0 F2400 X102.092 Y128.962
G1 F2400 X106.103 Y132.973 E101.0490
G0 F2400 X106.669 Y132.973
G1 F2400 X102.092 Y128.397 E101.3719
G0 F2400 X102.092 Y127.831
G1 F2400 X107.234 Y132.973 E101.7347
G0 F2400 X107.800 Y132.973
G1 F2400 X102.092 Y127.265 E102.1374
G0 F2400 X102.092 Y126.700
G1 F2400 X108.366 Y132.973 E102.5800
G0 F2400 X108.931 Y132.973
G1 F2400 X102.092 Y126.134 E103.0626
G0 F2400 X102.092 Y125.568
G1 F2400 X109.497 Y132.973 E103.5850
G0 F2400 X110.063 Y132.973
G1 F2400 X102.092 Y125.003 E104.1474
G0 F2400 X102.092 Y124.437
G1 F2400 X110.628 Y132.973 E104.7497
G0 F2400 X111.194 Y132.973
G1 F2400 X102.092 Y123.871 E105.3919
G0 F2400 X102.092 Y123.305
G1 F2400 X111.760 Y132.973 E106.0740
G0 F2400 X112.326 Y132.973
G1 F2400 X102.092 Y122.740 E106.7960
G0 F2400 X102.092 Y122.174
G1 F2400 X112.891 Y132.973 E107.5579
G0 F2400 X113.457 Y132.973
G1 F2400 X102.092 Y121.608 E108.3598
G0 F2400 X102.092 Y121.043
G1 F2400 X114.023 Y132.973 E109.2016
G0 F2400 X114.588 Y132.973
G1 F2400 X102.092 Y120.477 E110.0832
G0 F2400 X102.092 Y119.911
G1 F2400 X115.154 Y132.973 E111.0048
G0 F2400 X115.720 Y132.973
G1 F2400 X102.092 Y119.346 E111.9663
G0 F2400 X102.092 Y118.780
G1 F2400 X116.285 Y132.973 E112.9677
G0 F2400 X116.851 Y132.973
G1 F2400 X102.092 Y118.214 E114.0090
G0 F2400 X102.092 Y117.649
G1 F2400 X117.417 Y132.973 E115.0903
G0 F2400 X117.982 Y132.973
G1 F2400 X102.092 Y117.083 E116.2114
G0 F2400 X102.599 Y117.024
G1 F2400 X118.548 Y132.973 E117.3367
G0 F2400 X119.114 Y132.973
G1 F2400 X103.165 Y117.024 E118.4620
G0 F2400 X103.731 Y117.024
G1 F2400 X119.679 Y132.973 E119.5872
G0 F2400 X120.245 Y132.973
G1 F2400 X104.296 Y117.024 E120.7125
G0 F2400 X104.862 Y117.024
G1 F2400 X120.811 Y132.973 E121.8378
G0 F2400 X121.377 Y132.973
G1 F2400 X105.428 Y117.024 E122.9631
G0 F2400 X105.993 Y117.024
G1 F2400 X121.942 Y132.973 E124.0884
G0 F2400 X122.508 Y132.973
G1 F2400 X106.559 Y117.024 E125.2137
G0 F2400 X107.125 Y117.024
G1 F2400 X123.074 Y132.973 E126.3389
G0 F2400 X123.639 Y132.973
G1 F2400 X107.690 Y117.024 E127.4642
G0 F2400 X108.256 Y117.024
G1 F2400 X124.205 Y132.973 E128.5895
G0 F2400 X124.771 Y132.973
G1 F2400 X108.822 Y117.024 E129.7148
G0 F2400 X109.388 Y117.024
G1 F2400 X125.336 Y132.973 E130.8401
G0 F2400 X125.902 Y132.973
G1 F2400 X109.953 Y117.024 E131.9653
G0 F2400 X110.519 Y117.024
G1 F2400 X126.468 Y132.973 E133.0906
G0 F2400 X127.033 Y132.973
G1 F2400 X111.085 Y117.024 E134.2159
G0 F2400 X111.650 Y117.024
G1 F2400 X127.599 Y132.973 E135.3412
G0 F2400 X128.165 Y132.973
G1 F2400 X112.216 Y117.024 E136.4665
G0 F2400 X112.782 Y117.024
G1 F2400 X128.730 Y132.973 E137.5917
G0 F2400 X129.296 Y132.973
G1 F2400 X113.347 Y117.024 E138.7170
G0 F2400 X113.913 Y117.024
G1 F2400 X129.862 Y132.973 E139.8423
G0 F2400 X130.427 Y132.973
G1 F2400 X114.479 Y117.024 E140.9675
G0 F2400 X115.044 Y117.024
G1 F2400 X130.993 Y132.973 E142.0928
G0 F2400 X131.559 Y132.973
G1 F2400 X115.610 Y117.024 E143.2181
G0 F2400 X116.176 Y117.024
G1 F2400 X132.125 Y132.973 E144.3434
G0 F2400 X132.690 Y132.973
G1 F2400 X116.741 Y117.024 E145.4687
G0 F2400 X117.307 Y117.024
G1 F2400 X133.256 Y132.973 E146.5940
G0 F2400 X133.822 Y132.973
G1 F2400 X117.873 Y117.024 E147.7193
G0 F2400 X118.438 Y117.024
G1 F2400 X134.387 Y132.973 E148.8446
G0 F2400 X134.953 Y132.973
G1 F2400 X119.004 Y117.024 E149.9699
G0 F2400 X119.570 Y117.024
G1 F2400 X135.519 Y132.973 E151.0951
G0 F2400 X136.084 Y132.973
G1 F2400 X120.136 Y117.024 E152.2204
G0 F2400 X120.701 Y117.024
G1 F2400 X136.650 Y132.973 E153.3457
G0 F2400 X137.216 Y132.973
G1 F2400 X121.267 Y117.024 E154.4710
G0 F2400 X121.833 Y117.024
G1 F2400 X137.781 Y132.973 E155.5962
G0 F2400 X138.347 Y132.973
G1 F2400 X122.398 Y117.024 E156.7215
G0 F2400 X122.964 Y117.024
G1 F2400 X138.913 Y132.973 E157.8468
G0 F2400 X139.478 Y132.973
G1 F2400 X123.530 Y117.024 E158.9721
G0 F2400 X124.095 Y117.024
G1 F2400 X140.044 Y132.973 E160.0973
G0 F2400 X140.610 Y132.973
G1 F2400 X124.661 Y117.024 E161.2226
G0 F2400 X125.227 Y117.024
G1 F2400 X141.175 Y132.973 E162.3479
G0 F2400 X141.741 Y132.973
G1 F2400 X125.792 Y117.024 E163.4732
G0 F2400 X126.358 Y117.024
G1 F2400 X142.307 Y132.973 E164.5985
G0 F2400 X142.873 Y132.973
G1 F2400 X126.924 Y117.024 E165.7237
G0 F2400 X127.489 Y117.024
G1 F2400 X143.438 Y132.973 E166.8490
G0 F2400 X144.004 Y132.973
G1 F2400 X128.055 Y117.024 E167.9743
G0 F2400 X128.621 Y117.024
G1 F2400 X144.570 Y132.973 E169.0996
G0 F2400 X145.135 Y132.973
G1 F2400 X129.186 Y117.024 E170.2249
G0 F2400 X129.752 Y117.024
G1 F2400 X145.701 Y132.973 E171.3502
G0 F2400 X146.267 Y132.973
G1 F2400 X130.318 Y117.024 E172.4755
G0 F2400 X130.884 Y117.024
G1 F2400 X146.832 Y132.973 E173.6007
G0 F2400 X147.398 Y132.973
G1 F2400 X131.449 Y117.024 E174.7260
G0 F2400 X132.015 Y117.024
G1 F2400 X147.905 Y132.914 E175.8471
G0 F2400 X147.905 Y132.349
G1 F2400 X132.581 Y117.024 E176.9284
G0 F2400 X133.146 Y117.024
G1 F2400 X147.905 Y131.783 E177.9697
G0 F2400 X147.905 Y131.217
G1 F2400 X133.712 Y117.024 E178.9711
G0 F2400 X134.278 Y117.024
G1 F2400 X147.905 Y130.652 E179.9326
G0 F2400 X147.905 Y130.086
G1 F2400 X134.843 Y117.024 E180.8542
G0 F2400 X135.409 Y117.024
G1 F2400 X147.905 Y129.520 E181.7358
G0 F2400 X147.905 Y128.955
G1 F2400 X135.975 Y117.024 E182.5776
G0 F2400 X136.540 Y117.024
G1 F2400 X147.905 Y128.389 E183.3795
G0 F2400 X147.905 Y127.823
G1 F2400 X137.106 Y117.024 E184.1414
G0 F2400 X137.672 Y117.024
G1 F2400 X147.905 Y127.258 E184.8634
G0 F2400 X147.905 Y126.692
G1 F2400 X138.237 Y117.024 E185.5455
G0 F2400 X138.803 Y117.024
G1 F2400 X147.905 Y126.126 E186.1877
G0 F2400 X147.905 Y125.560
G1 F2400 X139.369 Y117.024 E186.7900
G0 F2400 X139.935 Y117.024
G1 F2400 X147.905 Y124.995 E187.3524
G0 F2400 X147.905 Y124.429
G1 F2400 X140.500 Y117.024 E187.8748
G0 F2400 X141.066 Y117.024
G1 F2400 X147.905 Y123.863 E188.3574
G0 F2400 X147.905 Y123.298
G1 F2400 X141.632 Y117.024 E188.8000
G0 F2400 X142.197 Y117.024
G1 F2400 X147.905 Y122.732 E189.2027
G0 F2400 X147.905 Y122.166
G1 F2400 X142.763 Y117.024 E189.5655
G0 F2400 X143.329 Y117.024
G1 F2400 X147.905 Y121.601 E189.8884
G0 F2400 X147.905 Y121.035
G1 F2400 X143.894 Y117.024 E190.1714
G0 F2400 X144.460 Y117.024
G1 F2400 X147.905 Y120.469 E190.4145
G0 F2400 X147.905 Y119.904
G1 F2400 X145.026 Y117.024 E190.6176
G0 F2400 X145.591 Y117.024
G1 F2400 X147.905 Y119.338 E190.7809
G0 F2400 X147.905 Y118.772
G1 F2400 X146.157 Y117.024 E190.9042
G0 F2400 X146.723 Y117.024
G1 F2400 X147.905 Y118.207 E190.9877
G0 F2400 X147.905 Y117.641
G1 F2400 X147.288 Y117.024 E191.0312
;PRINTING_TIME: 170
;REMAINING_TIME: 494
;LAYER:1
;Z:0.600
;HEIGHT:0.300
M106 S64
;PRINTING: Breaker_Filler_Plate_-_Schneider_-_1-UP.stl
;PRINTING_ID: 0
G1 F2400 E188.0312
G1 F300 Z0.800
G0 F3900 X101.209 Y116.051
G0 F300 Z0.600
G0 F3900 X100.709 Y115.641
;TYPE:WALL-OUTER
;WIDTH:0.400
G1 F300 Z0.600
G1 F1500 E191.0312
G1 F2100 X149.290 Y115.641 E193.4549
G1 X149.290 Y134.358 E194.3887
G1 X100.709 Y134.358 E196.8124
G1 X100.709 Y115.641 E197.7462
G0 F3900 X101.109 Y116.041
;TYPE:WALL-INNER
;WIDTH:0.400
;FLOW:90.0
G1 F2400 X148.890 Y116.041 E199.8916
G1 X148.890 Y133.958 E200.6961
G1 X101.109 Y133.958 E202.8416
G1 X101.109 Y116.041 E203.6460
G0 F3900 X101.509 Y116.441
G1 F2400 X148.490 Y116.441 E205.7556
G1 X148.490 Y133.558 E206.5241
G1 X101.509 Y133.558 E208.6336
G1 X101.509 Y116.441 E209.4022
G0 F3900 X101.909 Y116.841
G1 F2400 X148.090 Y116.841 E211.4758
G1 X148.090 Y133.158 E212.2084
G1 X101.909 Y133.158 E214.2820
G1 X101.909 Y116.841 E215.0147
G0 F3900 X102.092 Y117.110
;TYPE:SOLID-FILL
;WIDTH:0.400
;FLOW:95.0
G1 F2700 X102.179 Y117.024 E215.0205
G0 F2700 X102.744 Y117.024
G1 F2700 X102.092 Y117.676 E215.0642
G0 F2700 X102.092 Y118.241
G1 F2700 X103.310 Y117.024 E215.1458
G0 F2700 X103.876 Y117.024
G1 F2700 X102.092 Y118.807 E215.2653
G0 F2700 X102.092 Y119.373
G1 F2700 X104.441 Y117.024 E215.4228
G0 F2700 X105.007 Y117.024
G1 F2700 X102.092 Y119.938 E215.6181
G0 F2700 X102.092 Y120.504
G1 F2700 X105.573 Y117.024 E215.8514
G0 F2700 X106.138 Y117.024
G1 F2700 X102.092 Y121.070 E216.1226
G0 F2700 X102.092 Y121.635
G1 F2700 X106.704 Y117.024 E216.4317
G0 F2700 X107.270 Y117.024
G1 F2700 X102.092 Y122.201 E216.7787
G0 F2700 X102.092 Y122.767
G1 F2700 X107.835 Y117.024 E217.1637
G0 F2700 X108.401 Y117.024
G1 F2700 X102.092 Y123.332 E217.5865
G0 F2700 X102.092 Y123.898
G1 F2700 X108.967 Y117.024 E218.0473
G0 F2700 X109.532 Y117.024
G1 F2700 X102.092 Y124.464 E218.5460
G0 F2700 X102.092 Y125.029
G1 F2700 X110.098 Y117.024 E219.0826
G0 F2700 X110.664 Y117.024
G1 F2700 X102.092 Y125.595 E219.6571
G0 F2700 X102.092 Y126.161
G1 F2700 X111.230 Y117.024 E220.2696
G0 F2700 X111.795 Y117.024
G1 F2700 X102.092 Y126.726 E220.9199
G0 F2700 X102.092 Y127.292
G1 F2700 X112.361 Y117.024 E221.6082
G0 F2700 X112.927 Y117.024
G1 F2700 X102.092 Y127.858 E222.3344
G0 F2700 X102.092 Y128.424
G1 F2700 X113.492 Y117.024 E223.0985
G0 F2700 X114.058 Y117.024
G1 F2700 X102.092 Y128.989 E223.9005
G0 F2700 X102.092 Y129.555
G1 F2700 X114.624 Y117.024 E224.7405
G0 F2700 X115.189 Y117.024
G1 F2700 X102.092 Y130.121 E225.6183
G0 F2700 X102.092 Y130.686
G1 F2700 X115.755 Y117.024 E226.5341
G0 F2700 X116.321 Y117.024
G1 F2700 X102.092 Y131.252 E227.4878
G0 F2700 X102.092 Y131.818
G1 F2700 X116.886 Y117.024 E228.4794
G0 F2700 X117.452 Y117.024
G1 F2700 X102.092 Y132.383 E229.5089
G0 F2700 X102.092 Y132.949
G1 F2700 X118.018 Y117.024 E230.5764
G0 F2700 X118.583 Y117.024
G1 F2700 X102.633 Y132.974 E231.6455
G0 F2700 X103.199 Y132.974
G1 F2700 X119.149 Y117.024 E232.7146
G0 F2700 X119.715 Y117.024
G1 F2700 X103.765 Y132.974 E233.7836
G0 F2700 X104.330 Y132.974
