;Sliced by ideaMaker 5.3.2.8640, 2025-12-06 15:12:27 UTC+0100
;Slicer Version: 5.3.0.8620
;Dimension: 250.000 250.000 250.000 0.400
;Plate Shape: 0
;Origin Center: 0
;Extruder Offset #1: 25.000 0.000
;Filament Diameter #1: 1.750
;Filament Diameter #2: 1.750
;Filament Compensation #1: 94.000
;Filament Compensation #2: 90.000
;Filament Density #1: 1240.000
;Filament Density #2: 1240.000
;Filament Type #1: PLA
;Filament Type #2: PLA
;Filament Name #1: [Raise3D] Premium PLA 1.75mm
;Filament Name #2: [Raise3D] Premium PLA 1.75mm
;Filament #1: PLA 1.75mm
;Filament #2: PLA 1.75mm
;Printer Type: floppy
;Firmware: Klipper
;Bounding Box: 97.640 152.360 112.212 137.996 0.000 6.600
;Model Gap: 0.000
M221 T0 S94.00
M140 S45.00
M104 T0 S190.00
M109 T0 S190.00
T0
M190 S45.00
G21 ;metric values
G90 ;absolute positioning
M82 ;set extruder to absolute mode
M107 ;start with the fan off
G28 X0 Y0 ;move X/Y to min endstops
G28 Z0 ;move Z to min endstops
G1 Z15.0 F9000 ;move the platform down 15mm

G92 E0 ;zero the extruded length

G0 X43 Y27 F2000  ;go to the edge of the bed
G92 X0 Y0 E0 ;set zero to edge of the bed
G0 F9000 Z1 ;Z up with 1mm
G1 F200 Z0 ;Z home slowly

G1 Z15.0 F9000 ;move the platform down 15mm

G1 F9000 ;speed setting
G92 E-3 ;retraction
M117 Printing...
M1001
;TOTAL_NUM: 1
;PRINTING_TIME: 0
;REMAINING_TIME: 624
;LAYER:0
;Z:0.300
;HEIGHT:0.300
;PRINTING: NON-OBJECT
;PRINTING_ID: -1
G1 F2400 E-3.0000
G0 F3900 X98.551 Y113.542
G0 F300 Z0.300
;TYPE:SKIRT
;WIDTH:0.400
G1 F1500 E0.0000
G1 F900 X100.266 Y112.212 E0.1083
G1 X149.403 Y112.216 E2.5597
G1 X151.477 Y113.395 E2.6788
G1 X152.268 Y115.617 E2.7964
G1 X152.360 Y134.178 E3.7224
G1 X151.451 Y136.457 E3.8449
G1 X149.736 Y137.788 E3.9532
G1 X101.449 Y137.996 E6.3622
G1 X99.174 Y137.083 E6.4845
G1 X97.848 Y135.370 E6.5926
G1 X97.640 Y115.827 E7.5677
G1 X98.551 Y113.542 E7.6904
G0 F3900 X98.801 Y113.854
G1 F900 X100.374 Y112.597 E7.7908
G1 X149.403 Y112.616 E10.2369
G1 X151.157 Y113.635 E10.3381
G1 X151.868 Y115.619 E10.4433
G1 X151.960 Y134.180 E11.3693
G1 X151.201 Y136.145 E11.4744
G1 X149.628 Y137.403 E11.5749
G1 X101.447 Y137.596 E13.9786
G1 X99.487 Y136.833 E14.0836
G1 X98.233 Y135.262 E14.1839
G1 X98.040 Y115.823 E15.1537
G1 X98.801 Y113.854 E15.2590
G0 F3900 X99.056 Y114.162
G1 F900 X100.488 Y112.980 E15.3517
G1 X149.403 Y113.016 E17.7921
G1 X150.834 Y113.871 E17.8752
G1 X151.468 Y115.621 E17.9681
G1 X151.560 Y134.182 E18.8941
G1 X150.946 Y135.837 E18.9822
G1 X149.514 Y137.020 E19.0748
G1 X101.446 Y137.196 E21.4730
G1 X99.796 Y136.578 E21.5609
G1 X98.616 Y135.148 E21.6534
G1 X98.440 Y115.819 E22.6178
G1 X99.056 Y114.162 E22.7059
G0 F3900 X99.429 Y114.307
G1 F900 X100.598 Y113.365 E22.7809
G1 X149.204 Y113.363 E25.2058
G1 X150.516 Y114.113 E25.2812
G1 X151.068 Y115.623 E25.3614
G1 X151.160 Y134.184 E26.2874
G1 X150.573 Y135.692 E26.3682
G1 X149.404 Y136.635 E26.4431
G1 X101.445 Y136.796 E28.8358
G1 X99.942 Y136.206 E28.9164
G1 X99.001 Y135.038 E28.9912
G1 X98.840 Y115.816 E29.9502
G1 X99.429 Y114.307 E30.0310
G0 F3900 X99.686 Y114.613
G1 F900 X100.716 Y113.747 E30.0982
G1 X149.204 Y113.763 E32.5172
G1 X150.194 Y114.350 E32.5747
G1 X150.668 Y115.625 E32.6425
G1 X150.760 Y134.186 E33.5686
G1 X150.315 Y135.386 E33.6324
G1 X149.286 Y136.253 E33.6995
G1 X101.444 Y136.396 E36.0864
G1 X100.248 Y135.949 E36.1501
G1 X99.383 Y134.920 E36.2172
G1 X99.240 Y115.813 E37.1704
G1 X99.686 Y114.613 E37.2343
G0 F3900 X100.058 Y114.761
G1 F900 X100.828 Y114.131 E37.2839
G1 X149.204 Y114.163 E39.6974
G1 X149.866 Y114.579 E39.7364
G1 X150.268 Y115.627 E39.7924
G1 X150.360 Y134.188 E40.7185
G1 X149.943 Y135.238 E40.7748
G1 X149.173 Y135.869 E40.8245
G1 X101.443 Y135.996 E43.2058
G1 X100.396 Y135.578 E43.2620
G1 X99.767 Y134.808 E43.3116
G1 X99.640 Y115.810 E44.2594
G1 X100.058 Y114.761 E44.3158
G0 F3900 X100.425 Y114.920
G1 F900 X100.934 Y114.517 E44.3482
G1 X149.005 Y114.510 E46.7464
G1 X149.548 Y114.821 E46.7777
G1 X149.868 Y115.629 E46.8210
G1 X149.960 Y134.190 E47.7470
G1 X149.576 Y135.080 E47.7954
G1 X149.067 Y135.483 E47.8278
G1 X101.442 Y135.596 E50.2038
G1 X100.555 Y135.211 E50.2521
G1 X100.153 Y134.702 E50.2844
G1 X100.040 Y115.808 E51.2271
G1 X100.425 Y114.920 E51.2753
G0 F3900 X100.785 Y115.094
G1 F900 X101.033 Y114.905 E51.2909
G1 X148.824 Y114.867 E53.6752
G1 X149.243 Y115.079 E53.6986
G1 X149.468 Y115.631 E53.7284
G1 X149.560 Y134.192 E54.6544
G1 X149.216 Y134.906 E54.6939
G1 X148.968 Y135.095 E54.7095
G1 X101.441 Y135.196 E57.0806
G1 X100.730 Y134.851 E57.1201
G1 X100.541 Y134.603 E57.1356
G1 X100.440 Y115.806 E58.0734
G1 X100.785 Y115.094 E58.1129
G0 F3900 X100.840 Y115.804
G1 F900 X101.132 Y115.292 E58.1423
G1 X148.668 Y115.235 E60.5139
G1 X148.955 Y115.357 E60.5294
G1 X149.068 Y115.633 E60.5443
G1 X149.160 Y134.194 E61.4703
G1 X148.868 Y134.708 E61.4998
G1 X101.440 Y134.796 E63.8660
G1 X100.928 Y134.504 E63.8954
G1 X100.840 Y115.804 E64.8284
G0 F3900 X101.240 Y115.804
G1 F900 X101.357 Y115.623 E64.8391
G1 X148.668 Y115.635 E67.1995
G1 X148.760 Y134.196 E68.1255
G1 X148.643 Y134.377 E68.1363
G1 X101.440 Y134.396 E70.4912
G1 X101.259 Y134.279 E70.5020
G1 X101.240 Y115.804 E71.4237
;PRINTING: Breaker_Filler_Plate_-_Schneider_-_1-UP.stl
;PRINTING_ID: 0
G1 F2400 E68.4237
G1 F300 Z0.500
G0 F3900 X101.640 Y116.004
;TYPE:WALL-OUTER
;WIDTH:0.400
G1 F300 Z0.300
G1 F1500 E71.4237
G1 F2400 X148.360 Y116.004 E73.7546
G1 X148.360 Y133.996 E74.6522
G1 X101.640 Y133.996 E76.9831
G1 X101.640 Y116.004 E77.8807
G0 F3900 X102.040 Y116.404
;TYPE:WALL-INNER
;WIDTH:0.400
G1 F2400 X147.960 Y116.404 E80.1717
G1 X147.960 Y133.596 E81.0294
G1 X102.040 Y133.596 E83.3203
G1 X102.040 Y116.404 E84.1780
G0 F3900 X102.440 Y116.804
G1 F2400 X147.560 Y116.804 E86.4291
G1 X147.560 Y133.196 E87.2469
G1 X102.440 Y133.196 E89.4979
G1 X102.440 Y116.804 E90.3157
G0 F3900 X102.840 Y117.204
G1 F2400 X147.160 Y117.204 E92.5269
G1 X147.160 Y132.796 E93.3048
G1 X102.840 Y132.796 E95.5159
G1 X102.840 Y117.204 E96.2938
G1 F2400 E93.2938
G1 F300 Z0.500
G0 F3900 X103.024 Y132.156
;TYPE:SOLID-FILL
;WIDTH:0.400
G1 F300 Z0.300
G1 F1500 E96.2938
G1 F2400 X103.478 Y132.610 E96.3258
G0 F2400 X104.043 Y132.610
G1 F2400 X103.024 Y131.591 E96.3977
G0 F2400 X103.024 Y131.025
G1 F2400 X104.609 Y132.610 E96.5095
G0 F2400 X105.175 Y132.610
G1 F2400 X103.024 Y130.459 E96.6613
G0 F2400 X103.024 Y129.894
G1 F2400 X105.740 Y132.610 E96.8529
G0 F2400 X106.306 Y132.610
G1 F2400 X103.024 Y129.328 E97.0845
G0 F2400 X103.024 Y128.762
G1 F2400 X106.872 Y132.610 E97.3560
G0 F2400 X107.437 Y132.610
G1 F2400 X103.024 Y128.197 E97.6674
G0 F2400 X103.024 Y127.631
G1 F2400 X108.003 Y132.610 E98.0186
G0 F2400 X108.569 Y132.610
G1 F2400 X103.024 Y127.065 E98.4099
G0 F2400 X103.024 Y126.499
G1 F2400 X109.134 Y132.610 E98.8410
G0 F2400 X109.700 Y132.610
G1 F2400 X103.024 Y125.934 E99.3120
G0 F2400 X103.024 Y125.368
G1 F2400 X110.266 Y132.610 E99.8230
G0 F2400 X110.831 Y132.610
G1 F2400 X103.024 Y124.802 E100.3739
G0 F2400 X103.024 Y124.237
G1 F2400 X111.397 Y132.610 E100.9646
G0 F2400 X111.963 Y132.610
G1 F2400 X103.024 Y123.671 E101.5953
G0 F2400 X103.024 Y123.105
G1 F2400 X112.528 Y132.610 E102.2659
G0 F2400 X113.094 Y132.610
G1 F2400 X103.024 Y122.540 E102.9764
G0 F2400 X103.024 Y121.974
G1 F2400 X113.660 Y132.610 E103.7268
G0 F2400 X114.226 Y132.610
G1 F2400 X103.024 Y121.408 E104.5172
G0 F2400 X103.024 Y120.843
G1 F2400 X114.791 Y132.610 E105.3474
G0 F2400 X115.357 Y132.610
G1 F2400 X103.024 Y120.277 E106.2176
G0 F2400 X103.024 Y119.711
G1 F2400 X115.923 Y132.610 E107.1277
G0 F2400 X116.488 Y132.610
G1 F2400 X103.024 Y119.146 E108.0776
G0 F2400 X103.024 Y118.580
G1 F2400 X117.054 Y132.610 E109.0675
G0 F2400 X117.620 Y132.610
G1 F2400 X103.024 Y118.014 E110.0973
G0 F2400 X103.024 Y117.449
G1 F2400 X118.185 Y132.610 E111.1670
G0 F2400 X118.751 Y132.610
G1 F2400 X103.528 Y117.387 E112.2411
G0 F2400 X104.093 Y117.387
G1 F2400 X119.317 Y132.610 E113.3152
G0 F2400 X119.882 Y132.610
G1 F2400 X104.659 Y117.387 E114.3893
G0 F2400 X105.225 Y117.387
G1 F2400 X120.448 Y132.610 E115.4633
G0 F2400 X121.014 Y132.610
G1 F2400 X105.790 Y117.387 E116.5374
G0 F2400 X106.356 Y117.387
G1 F2400 X121.579 Y132.610 E117.6115
G0 F2400 X122.145 Y132.610
G1 F2400 X106.922 Y117.387 E118.6856
G0 F2400 X107.488 Y117.387
G1 F2400 X122.711 Y132.610 E119.7596
G0 F2400 X123.276 Y132.610
G1 F2400 X108.053 Y117.387 E120.8337
G0 F2400 X108.619 Y117.387
G1 F2400 X123.842 Y132.610 E121.9078
G0 F2400 X124.408 Y132.610
G1 F2400 X109.185 Y117.387 E122.9818
G0 F2400 X109.750 Y117.387
G1 F2400 X124.974 Y132.610 E124.0559
G0 F2400 X125.540 Y132.611
G1 F2400 X110.316 Y117.387 E125.1301
G0 F2400 X110.882 Y117.387
G1 F2400 X126.106 Y132.611 E126.2042
G0 F2400 X126.671 Y132.611
G1 F2400 X111.447 Y117.387 E127.2783
G0 F2400 X112.013 Y117.387
G1 F2400 X127.237 Y132.611 E128.3525
G0 F2400 X127.803 Y132.611
G1 F2400 X112.579 Y117.387 E129.4266
G0 F2400 X113.144 Y117.387
G1 F2400 X128.368 Y132.611 E130.5007
G0 F2400 X128.934 Y132.611
G1 F2400 X113.710 Y117.387 E131.5749
G0 F2400 X114.276 Y117.387
G1 F2400 X129.500 Y132.611 E132.6490
G0 F2400 X130.065 Y132.611
G1 F2400 X114.841 Y117.387 E133.7231
G0 F2400 X115.407 Y117.387
G1 F2400 X130.631 Y132.611 E134.7973
G0 F2400 X131.197 Y132.611
G1 F2400 X115.973 Y117.387 E135.8714
G0 F2400 X116.538 Y117.387
G1 F2400 X131.762 Y132.611 E136.9455
G0 F2400 X132.328 Y132.611
G1 F2400 X117.104 Y117.387 E138.0197
G0 F2400 X117.670 Y117.387
G1 F2400 X132.894 Y132.611 E139.0938
G0 F2400 X133.460 Y132.611
G1 F2400 X118.236 Y117.387 E140.1679
G0 F2400 X118.801 Y117.387
G1 F2400 X134.025 Y132.611 E141.2421
G0 F2400 X134.591 Y132.611
G1 F2400 X119.367 Y117.387 E142.3162
G0 F2400 X119.933 Y117.387
G1 F2400 X135.157 Y132.611 E143.3904
G0 F2400 X135.722 Y132.611
G1 F2400 X120.498 Y117.387 E144.4645
G0 F2400 X121.064 Y117.387
G1 F2400 X136.288 Y132.611 E145.5386
G0 F2400 X136.854 Y132.611
G1 F2400 X121.630 Y117.387 E146.6128
G0 F2400 X122.195 Y117.387
G1 F2400 X137.419 Y132.611 E147.6869
G0 F2400 X137.985 Y132.611
G1 F2400 X122.761 Y117.387 E148.7610
G0 F2400 X123.327 Y117.387
G1 F2400 X138.551 Y132.611 E149.8352
G0 F2400 X139.116 Y132.611
G1 F2400 X123.892 Y117.387 E150.9093
G0 F2400 X124.458 Y117.387
G1 F2400 X139.682 Y132.611 E151.9834
G0 F2400 X140.248 Y132.611
G1 F2400 X125.024 Y117.388 E153.0575
G0 F2400 X125.590 Y117.388
G1 F2400 X140.813 Y132.611 E154.1316
G0 F2400 X141.379 Y132.611
G1 F2400 X126.156 Y117.388 E155.2057
G0 F2400 X126.722 Y117.388
G1 F2400 X141.945 Y132.611 E156.2797
G0 F2400 X142.511 Y132.611
G1 F2400 X127.287 Y117.388 E157.3538
G0 F2400 X127.853 Y117.388
G1 F2400 X143.076 Y132.611 E158.4279
G0 F2400 X143.642 Y132.611
G1 F2400 X128.419 Y117.388 E159.5020
G0 F2400 X128.984 Y117.388
G1 F2400 X144.208 Y132.611 E160.5761
G0 F2400 X144.773 Y132.611
G1 F2400 X129.550 Y117.388 E161.6501
G0 F2400 X130.116 Y117.388
G1 F2400 X145.339 Y132.611 E162.7242
G0 F2400 X145.905 Y132.611
G1 F2400 X130.681 Y117.388 E163.7983
G0 F2400 X131.247 Y117.388
G1 F2400 X146.470 Y132.611 E164.8724
G0 F2400 X146.974 Y132.549
G1 F2400 X131.813 Y117.388 E165.9420
G0 F2400 X132.378 Y117.388
G1 F2400 X146.974 Y131.984 E166.9719
G0 F2400 X146.974 Y131.418
G1 F2400 X132.944 Y117.388 E167.9618
G0 F2400 X133.510 Y117.388
G1 F2400 X146.974 Y130.852 E168.9117
G0 F2400 X146.974 Y130.287
G1 F2400 X134.075 Y117.388 E169.8218
G0 F2400 X134.641 Y117.388
G1 F2400 X146.974 Y129.721 E170.6920
G0 F2400 X146.974 Y129.155
G1 F2400 X135.207 Y117.388 E171.5222
G0 F2400 X135.772 Y117.388
G1 F2400 X146.974 Y128.590 E172.3126
G0 F2400 X146.974 Y128.024
G1 F2400 X136.338 Y117.388 E173.0630
G0 F2400 X136.904 Y117.388
G1 F2400 X146.974 Y127.458 E173.7735
G0 F2400 X146.974 Y126.893
G1 F2400 X137.470 Y117.388 E174.4441
G0 F2400 X138.035 Y117.388
G1 F2400 X146.974 Y126.327 E175.0748
G0 F2400 X146.974 Y125.761
G1 F2400 X138.601 Y117.388 E175.6655
G0 F2400 X139.167 Y117.388
G1 F2400 X146.974 Y125.196 E176.2164
G0 F2400 X146.974 Y124.630
G1 F2400 X139.732 Y117.388 E176.7274
G0 F2400 X140.298 Y117.388
G1 F2400 X146.974 Y124.064 E177.1984
G0 F2400 X146.974 Y123.499
G1 F2400 X140.864 Y117.388 E177.6295
G0 F2400 X141.429 Y117.388
G1 F2400 X146.974 Y122.933 E178.0207
G0 F2400 X146.974 Y122.367
G1 F2400 X141.995 Y117.388 E178.3720
G0 F2400 X142.561 Y117.388
G1 F2400 X146.974 Y121.801 E178.6834
G0 F2400 X146.974 Y121.236
G1 F2400 X143.126 Y117.388 E178.9549
G0 F2400 X143.692 Y117.388
G1 F2400 X146.974 Y120.670 E179.1865
G0 F2400 X146.974 Y120.104
G1 F2400 X144.258 Y117.388 E179.3781
G0 F2400 X144.823 Y117.388
G1 F2400 X146.974 Y119.539 E179.5299
G0 F2400 X146.974 Y118.973
G1 F2400 X145.389 Y117.388 E179.6417
G0 F2400 X145.955 Y117.388
G1 F2400 X146.974 Y118.407 E179.7136
G0 F2400 X146.974 Y117.842
G1 F2400 X146.521 Y117.388 E179.7456
;PRINTING_TIME: 162
;REMAINING_TIME: 462
;LAYER:1
;Z:0.600
;HEIGHT:0.300
M106 S64
;PRINTING: Breaker_Filler_Plate_-_Schneider_-_1-UP.stl
;PRINTING_ID: 0
G1 F2400 E176.7456
G1 F300 Z0.800
G0 F3900 X102.140 Y116.414
G0 F300 Z0.600
G0 F3900 X101.640 Y116.004
;TYPE:WALL-OUTER
;WIDTH:0.400
G1 F300 Z0.600
G1 F1500 E179.7456
G1 F2100 X148.360 Y116.004 E182.0764
G1 X148.360 Y133.996 E182.9741
G1 X101.640 Y133.996 E185.3049
G1 X101.640 Y116.004 E186.2026
G0 F3900 X102.040 Y116.404
;TYPE:WALL-INNER
;WIDTH:0.400
;FLOW:90.0
G1 F2400 X147.960 Y116.404 E188.2644
G1 X147.960 Y133.596 E189.0364
G1 X102.040 Y133.596 E191.0982
G1 X102.040 Y116.404 E191.8702
G0 F3900 X102.440 Y116.804
G1 F2400 X147.560 Y116.804 E193.8961
G1 X147.560 Y133.196 E194.6321
G1 X102.440 Y133.196 E196.6581
G1 X102.440 Y116.804 E197.3941
G0 F3900 X102.840 Y117.204
G1 F2400 X147.160 Y117.204 E199.3841
G1 X147.160 Y132.796 E200.0842
G1 X102.840 Y132.796 E202.0742
G1 X102.840 Y117.204 E202.7743
G0 F3900 X103.024 Y117.876
;TYPE:SOLID-FILL
;WIDTH:0.400
;FLOW:95.0
G1 F2700 X103.513 Y117.386 E202.8071
G0 F2700 X104.079 Y117.386
G1 F2700 X103.024 Y118.441 E202.8779
G0 F2700 X103.024 Y119.007
G1 F2700 X104.644 Y117.386 E202.9865
G0 F2700 X105.210 Y117.386
G1 F2700 X103.024 Y119.573 E203.1330
G0 F2700 X103.024 Y120.138
G1 F2700 X105.776 Y117.386 E203.3175
G0 F2700 X106.341 Y117.386
G1 F2700 X103.024 Y120.704 E203.5399
G0 F2700 X103.024 Y121.270
G1 F2700 X106.907 Y117.386 E203.8002
G0 F2700 X107.473 Y117.386
G1 F2700 X103.024 Y121.835 E204.0984
G0 F2700 X103.024 Y122.401
G1 F2700 X108.038 Y117.386 E204.4345
G0 F2700 X108.604 Y117.386
G1 F2700 X103.024 Y122.967 E204.8085
G0 F2700 X103.024 Y123.532
G1 F2700 X109.170 Y117.386 E205.2205
G0 F2700 X109.735 Y117.386
G1 F2700 X103.024 Y124.098 E205.6703
G0 F2700 X103.024 Y124.664
G1 F2700 X110.301 Y117.386 E206.1581
G0 F2700 X110.867 Y117.386
G1 F2700 X103.024 Y125.230 E206.6839
G0 F2700 X103.024 Y125.795
G1 F2700 X111.432 Y117.386 E207.2475
G0 F2700 X111.998 Y117.386
G1 F2700 X103.024 Y126.361 E207.8490
G0 F2700 X103.024 Y126.927
G1 F2700 X112.564 Y117.386 E208.4885
G0 F2700 X113.130 Y117.386
G1 F2700 X103.024 Y127.492 E209.1659
G0 F2700 X103.024 Y128.058
G1 F2700 X113.695 Y117.386 E209.8811
G0 F2700 X114.261 Y117.386
G1 F2700 X103.024 Y128.624 E210.6344
G0 F2700 X103.024 Y129.189
G1 F2700 X114.827 Y117.386 E211.4255
G0 F2700 X115.392 Y117.386
G1 F2700 X103.024 Y129.755 E212.2545
G0 F2700 X103.024 Y130.321
G1 F2700 X115.958 Y117.386 E213.1215
G0 F2700 X116.524 Y117.386
G1 F2700 X103.024 Y130.886 E214.0264
G0 F2700 X103.024 Y131.452
G1 F2700 X117.089 Y117.386 E214.9691
G0 F2700 X117.655 Y117.386
G1 F2700 X103.024 Y132.018 E215.9499
G0 F2700 X103.024 Y132.583
G1 F2700 X118.221 Y117.386 E216.9685
G0 F2700 X118.786 Y117.386
G1 F2700 X103.562 Y132.611 E217.9889
G0 F2700 X104.127 Y132.611
G1 F2700 X119.352 Y117.386 E219.0094
G0 F2700 X119.918 Y117.386
G1 F2700 X104.693 Y132.611 E220.0299
G0 F2700 X105.259 Y132.611
G1 F2700 X120.483 Y117.386 E221.0504
G0 F2700 X121.049 Y117.386
G1 F2700 X105.824 Y132.611 E222.0709
G0 F2700 X106.390 Y132.611
G1 F2700 X121.615 Y117.386 E223.0914
G0 F2700 X122.180 Y117.386
G1 F2700 X106.956 Y132.611 E224.1118
G0 F2700 X107.521 Y132.611
G1 F2700 X122.746 Y117.386 E225.1323
G0 F2700 X123.312 Y117.386
G1 F2700 X108.087 Y132.611 E226.1528
