;Sliced by ideaMaker 5.3.2.8640, 2026-02-02 15:29:46 UTC+0100
;Slicer Version: 5.3.0.8620
;Dimension: 250.000 250.000 250.000 0.400
;Plate Shape: 0
;Origin Center: 0
;Extruder Offset #1: 25.000 0.000
;Filament Diameter #1: 1.750
;Filament Diameter #2: 1.750
;Filament Compensation #1: 94.000
;Filament Compensation #2: 90.000
;Filament Density #1: 1240.000
;Filament Density #2: 1240.000
;Filament Type #1: PLA
;Filament Type #2: PLA
;Filament Name #1: [Raise3D] Premium PLA 1.75mm
;Filament Name #2: [Raise3D] Premium PLA 1.75mm
;Filament #1: PLA 1.75mm
;Filament #2: PLA 1.75mm
;Printer Type: floppy
;Firmware: Klipper
;Bounding Box: 80.290 169.710 109.690 149.735 0.000 21.000
;Model Gap: 0.000
M221 T0 S94.00
M140 S48.00
M104 T0 S195.00
M109 T0 S195.00
T0
M190 S48.00
G21 ;metric values
G90 ;absolute positioning
M82 ;set extruder to absolute mode
M107 ;start with the fan off
G28 X0 Y0 ;move X/Y to min endstops
G28 Z0 ;move Z to min endstops
G1 Z15.0 F9000 ;move the platform down 15mm

G92 E0 ;zero the extruded length

G0 X43 Y27 F2000  ;go to the edge of the bed
G92 X0 Y0 E0 ;set zero to edge of the bed
G0 F9000 Z1 ;Z up with 1mm
G1 F200 Z0 ;Z home slowly

G1 Z15.0 F9000 ;move the platform down 15mm

G1 F9000 ;speed setting
G92 E-3 ;retraction
M117 Printing...
M1001
;TOTAL_NUM: 1
;PRINTING_TIME: 0
;REMAINING_TIME: 3819
;LAYER:0
;Z:0.300
;HEIGHT:0.300
;PRINTING: NON-OBJECT
;PRINTING_ID: -1
G1 F2400 E-3.0000
G0 F3900 X80.576 Y109.785
G0 F300 Z0.300
G0 F3900 X80.290 Y110.301
;TYPE:SKIRT
;WIDTH:0.400
G1 F1500 E0.0000
G1 F900 X80.576 Y109.785 E0.0294
G1 X85.210 Y109.721 E0.2606
G1 X85.582 Y109.978 E0.2832
G1 X85.708 Y129.444 E1.2544
G1 X87.345 Y129.163 E1.3373
G1 X88.200 Y129.623 E1.3857
G1 X88.690 Y129.409 E1.4124
G1 X88.753 Y110.034 E2.3790
G1 X89.112 Y109.791 E2.4006
G1 X93.490 Y109.690 E2.6191
G1 X94.015 Y109.976 E2.6489
G1 X94.110 Y132.294 E3.7624
G1 X97.090 Y132.294 E3.9111
G1 X97.090 Y110.301 E5.0083
G1 X97.267 Y109.901 E5.0301
G1 X97.522 Y109.721 E5.0457
G1 X101.897 Y109.690 E5.2640
G1 X102.479 Y110.122 E5.3001
G1 X102.510 Y132.294 E6.4063
G1 X105.490 Y132.294 E6.5550
G1 X105.490 Y110.301 E7.6522
G1 X105.922 Y109.721 E7.6883
G1 X110.297 Y109.690 E7.9066
G1 X110.699 Y109.867 E7.9285
G1 X110.879 Y110.122 E7.9440
G1 X110.910 Y132.294 E9.0502
G1 X113.891 Y132.294 E9.1989
G1 X113.953 Y110.034 E10.3095
G1 X114.312 Y109.791 E10.3311
G1 X118.910 Y109.750 E10.5605
G1 X119.279 Y110.122 E10.5867
G1 X119.310 Y132.294 E11.6928
G1 X122.290 Y132.294 E11.8415
G1 X122.290 Y110.301 E12.9387
G1 X122.722 Y109.721 E12.9748
G1 X127.366 Y109.753 E13.2065
G1 X127.609 Y110.119 E13.2284
G1 X127.708 Y132.294 E14.3348
G1 X130.690 Y132.294 E14.4835
G1 X130.690 Y110.301 E15.5808
G1 X131.122 Y109.721 E15.6168
G1 X135.766 Y109.753 E15.8485
G1 X136.009 Y110.119 E15.8705
G1 X136.108 Y132.294 E16.9768
G1 X139.091 Y132.294 E17.1256
G1 X139.153 Y110.034 E18.2362
G1 X139.515 Y109.791 E18.2579
G1 X144.159 Y109.750 E18.4896
G1 X144.409 Y110.119 E18.5119
G1 X144.508 Y132.294 E19.6182
G1 X147.490 Y132.294 E19.7670
G1 X147.490 Y110.301 E20.8642
G1 X147.922 Y109.721 E20.9003
G1 X152.510 Y109.750 E21.1292
G1 X152.879 Y110.122 E21.1553
G1 X152.910 Y132.294 E22.2615
G1 X155.891 Y132.294 E22.4102
G1 X155.953 Y110.034 E23.5208
G1 X156.312 Y109.791 E23.5424
G1 X160.910 Y109.750 E23.7718
G1 X161.279 Y110.122 E23.7979
G1 X161.310 Y129.385 E24.7590
G1 X161.733 Y129.611 E24.7829
G1 X162.197 Y129.335 E24.8098
G1 X163.029 Y129.150 E24.8524
G1 X164.291 Y129.472 E24.9173
G1 X164.353 Y110.034 E25.8871
G1 X164.715 Y109.791 E25.9089
G1 X169.203 Y109.721 E26.1328
G1 X169.492 Y109.838 E26.1483
G1 X169.609 Y110.120 E26.1636
G1 X169.710 Y139.698 E27.6392
G1 X169.278 Y140.279 E27.6754
G1 X165.833 Y140.308 E27.8472
G1 X165.729 Y140.989 E27.8816
G1 X166.243 Y141.173 E27.9088
G1 X167.135 Y141.837 E27.9643
G1 X167.884 Y142.750 E28.0232
G1 X168.537 Y144.744 E28.1279
G1 X168.402 Y146.336 E28.2076
G1 X167.598 Y147.953 E28.2977
G1 X165.927 Y149.304 E28.4049
G1 X164.390 Y149.735 E28.4846
G1 X161.907 Y149.592 E28.6087
G1 X160.155 Y148.691 E28.7069
G1 X159.098 Y147.433 E28.7889
G1 X158.527 Y145.735 E28.8783
G1 X158.642 Y143.985 E28.9658
G1 X159.545 Y142.239 E29.0639
G1 X160.635 Y141.273 E29.1365
G1 X161.358 Y140.991 E29.1752
G1 X161.250 Y140.310 E29.2096
G1 X88.363 Y140.310 E32.8460
G1 X88.259 Y140.988 E32.8802
G1 X88.772 Y141.172 E32.9074
G1 X89.666 Y141.837 E32.9630
G1 X90.415 Y142.750 E33.0219
G1 X91.049 Y144.593 E33.1191
G1 X90.933 Y146.339 E33.2064
G1 X90.030 Y148.085 E33.3045
G1 X88.802 Y149.131 E33.3850
G1 X87.071 Y149.709 E33.4760
G1 X85.065 Y149.634 E33.5762
G1 X83.278 Y148.786 E33.6749
G1 X82.098 Y147.433 E33.7644
G1 X81.527 Y145.735 E33.8538
G1 X81.642 Y143.985 E33.9413
G1 X82.545 Y142.239 E34.0394
G1 X83.639 Y141.269 E34.1123
G1 X84.311 Y140.955 E34.1493
G1 X84.180 Y140.310 E34.1822
G1 X80.901 Y140.310 E34.3457
G1 X80.321 Y139.878 E34.3818
G1 X80.290 Y110.301 E35.8574
G0 F3900 X80.690 Y110.301
G1 F900 X80.807 Y110.112 E35.8685
G1 X85.209 Y110.121 E36.0881
G1 X85.310 Y129.932 E37.0765
G1 X87.225 Y129.545 E37.1740
G1 X87.658 Y129.681 E37.1966
G1 X88.128 Y130.091 E37.2278
G1 X89.090 Y129.672 E37.2801
G1 X89.121 Y110.191 E38.2520
G1 X93.499 Y110.090 E38.4705
G1 X93.688 Y110.207 E38.4816
G1 X93.710 Y132.694 E39.6035
G1 X97.490 Y132.694 E39.7920
G1 X97.490 Y110.301 E40.9092
G1 X97.607 Y110.112 E40.9203
G1 X101.899 Y110.090 E41.1345
G1 X102.088 Y110.207 E41.1455
G1 X102.110 Y132.694 E42.2674
G1 X105.890 Y132.694 E42.4560
G1 X105.890 Y110.301 E43.5732
G1 X106.007 Y110.112 E43.5843
G1 X110.299 Y110.090 E43.7984
G1 X110.488 Y110.207 E43.8095
G1 X110.510 Y132.694 E44.9314
G1 X114.290 Y132.694 E45.1200
G1 X114.321 Y110.191 E46.2427
G1 X118.699 Y110.090 E46.4611
G1 X118.888 Y110.207 E46.4722
G1 X118.910 Y132.694 E47.5941
G1 X122.690 Y132.694 E47.7827
G1 X122.690 Y110.301 E48.8999
G1 X122.807 Y110.112 E48.9110
G1 X127.209 Y110.121 E49.1306
G1 X127.310 Y132.694 E50.2568
G1 X131.090 Y132.694 E50.4454
G1 X131.090 Y110.301 E51.5626
G1 X131.207 Y110.112 E51.5736
G1 X135.609 Y110.121 E51.7933
G1 X135.710 Y132.694 E52.9194
G1 X139.490 Y132.694 E53.1080
G1 X139.521 Y110.191 E54.2307
G1 X144.009 Y110.121 E54.4546
G1 X144.110 Y132.694 E55.5808
G1 X147.890 Y132.694 E55.7694
G1 X147.890 Y110.301 E56.8866
G1 X148.007 Y110.112 E56.8977
G1 X152.299 Y110.090 E57.1118
G1 X152.488 Y110.207 E57.1229
G1 X152.510 Y132.694 E58.2448
G1 X156.290 Y132.694 E58.4334
G1 X156.321 Y110.191 E59.5561
G1 X160.699 Y110.090 E59.7745
G1 X160.888 Y110.207 E59.7856
G1 X160.910 Y129.625 E60.7544
G1 X161.754 Y130.077 E60.8022
G1 X162.284 Y129.725 E60.8339
G1 X163.116 Y129.540 E60.8764
G1 X164.690 Y130.007 E60.9583
G1 X164.721 Y110.191 E61.9470
G1 X169.209 Y110.121 E62.1709
G1 X169.310 Y139.699 E63.6466
G1 X169.193 Y139.888 E63.6576
G1 X165.490 Y139.910 E63.8424
G1 X165.282 Y141.268 E63.9109
G1 X166.004 Y141.494 E63.9487
G1 X166.896 Y142.158 E64.0042
G1 X167.572 Y143.000 E64.0580
G1 X168.138 Y144.718 E64.1483
G1 X168.044 Y146.158 E64.2203
G1 X167.240 Y147.775 E64.3104
G1 X165.814 Y148.920 E64.4016
G1 X164.407 Y149.335 E64.4748
G1 X162.084 Y149.234 E64.5908
G1 X160.456 Y148.428 E64.6814
G1 X159.477 Y147.306 E64.7557
G1 X158.906 Y145.608 E64.8451
G1 X159.000 Y144.163 E64.9173
G1 X159.810 Y142.538 E65.0079
G1 X160.900 Y141.572 E65.0806
G1 X161.806 Y141.260 E65.1284
G1 X161.592 Y139.910 E65.1966
G1 X88.020 Y139.910 E68.8671
G1 X87.812 Y141.268 E68.9356
G1 X88.533 Y141.493 E68.9733
G1 X89.427 Y142.158 E69.0289
G1 X90.103 Y143.000 E69.0828
G1 X90.669 Y144.718 E69.1730
G1 X90.575 Y146.161 E69.2452
G1 X89.765 Y147.786 E69.3358
G1 X88.675 Y148.752 E69.4084
G1 X86.944 Y149.330 E69.4995
G1 X85.085 Y149.235 E69.5923
G1 X83.456 Y148.428 E69.6830
G1 X82.477 Y147.306 E69.7573
G1 X81.906 Y145.608 E69.8467
G1 X82.000 Y144.163 E69.9189
G1 X82.810 Y142.538 E70.0095
G1 X83.904 Y141.568 E70.0825
G1 X84.767 Y141.193 E70.1294
G1 X84.507 Y139.910 E70.1947
G1 X80.901 Y139.910 E70.3746
G1 X80.712 Y139.793 E70.3857
G1 X80.690 Y110.301 E71.8571
;PRINTING: cable_management_thingy_v5.stl
;PRINTING_ID: 0
G1 F2400 E68.8571
G1 F300 Z0.500
G0 F3900 X84.900 Y133.104
;TYPE:WALL-OUTER
;WIDTH:0.400
G1 F300 Z0.300
G1 F1500 E71.8571
G1 F2400 X89.500 Y133.104 E72.0866
G1 X89.500 Y110.500 E73.2143
G1 X93.300 Y110.500 E73.4039
G1 X93.300 Y133.104 E74.5316
G1 X97.900 Y133.104 E74.7611
G1 X97.900 Y110.500 E75.8888
G1 X101.700 Y110.500 E76.0784
G1 X101.700 Y133.104 E77.2061
G1 X106.300 Y133.104 E77.4356
G1 X106.300 Y110.500 E78.5633
G1 X110.100 Y110.500 E78.7529
G1 X110.100 Y133.104 E79.8806
G1 X114.700 Y133.104 E80.1101
G1 X114.700 Y110.500 E81.2378
G1 X118.500 Y110.500 E81.4274
G1 X118.500 Y133.104 E82.5551
G1 X123.100 Y133.104 E82.7846
G1 X123.100 Y110.500 E83.9123
G1 X126.900 Y110.500 E84.1019
G1 X126.900 Y133.104 E85.2296
G1 X131.500 Y133.104 E85.4591
G1 X131.500 Y110.500 E86.5869
G1 X135.300 Y110.500 E86.7764
G1 X135.300 Y133.104 E87.9042
G1 X139.900 Y133.104 E88.1337
G1 X139.900 Y110.500 E89.2614
G1 X143.700 Y110.500 E89.4510
G1 X143.700 Y133.104 E90.5787
G1 X148.300 Y133.104 E90.8082
G1 X148.300 Y110.500 E91.9359
G1 X152.100 Y110.500 E92.1255
G1 X152.100 Y133.104 E93.2532
G1 X156.700 Y133.104 E93.4827
G1 X156.700 Y110.500 E94.6104
G1 X160.500 Y110.500 E94.8000
G1 X160.500 Y133.104 E95.9277
G1 X165.100 Y133.104 E96.1572
G1 X165.100 Y110.500 E97.2849
G1 X168.900 Y110.500 E97.4745
G1 X168.900 Y139.500 E98.9213
G1 X81.100 Y139.500 E103.3017
G1 X81.100 Y110.500 E104.7485
G1 X84.900 Y110.500 E104.9381
G1 X84.900 Y133.104 E106.0658
G0 F3900 X84.500 Y133.504
;TYPE:WALL-INNER
;WIDTH:0.400
G1 F2400 X89.900 Y133.504 E106.3352
G1 X89.900 Y110.900 E107.4629
G1 X92.900 Y110.900 E107.6126
G1 X92.900 Y133.504 E108.7403
G1 X98.300 Y133.504 E109.0097
G1 X98.300 Y110.900 E110.1374
G1 X101.300 Y110.900 E110.2871
G1 X101.300 Y133.504 E111.4148
G1 X106.700 Y133.504 E111.6842
G1 X106.700 Y110.900 E112.8119
G1 X109.700 Y110.900 E112.9616
G1 X109.700 Y133.504 E114.0893
G1 X115.100 Y133.504 E114.3587
G1 X115.100 Y110.900 E115.4865
G1 X118.100 Y110.900 E115.6361
G1 X118.100 Y133.504 E116.7638
G1 X123.500 Y133.504 E117.0333
G1 X123.500 Y110.900 E118.1610
G1 X126.500 Y110.900 E118.3106
G1 X126.500 Y133.504 E119.4384
G1 X131.900 Y133.504 E119.7078
G1 X131.900 Y110.900 E120.8355
G1 X134.900 Y110.900 E120.9852
G1 X134.900 Y133.504 E122.1129
G1 X140.300 Y133.504 E122.3823
G1 X140.300 Y110.900 E123.5100
G1 X143.300 Y110.900 E123.6597
G1 X143.300 Y133.504 E124.7874
G1 X148.700 Y133.504 E125.0568
G1 X148.700 Y110.900 E126.1845
G1 X151.700 Y110.900 E126.3342
G1 X151.700 Y133.504 E127.4619
G1 X157.100 Y133.504 E127.7313
G1 X157.100 Y110.900 E128.8590
G1 X160.100 Y110.900 E129.0087
G1 X160.100 Y133.504 E130.1364
G1 X165.500 Y133.504 E130.4058
G1 X165.500 Y110.900 E131.5335
G1 X168.500 Y110.900 E131.6832
G1 X168.500 Y139.100 E133.0901
G1 X81.500 Y139.100 E137.4306
G1 X81.500 Y110.900 E138.8375
G1 X84.500 Y110.900 E138.9871
G1 X84.500 Y133.504 E140.1149
G0 F3900 X84.100 Y133.904
G1 F2400 X90.300 Y133.904 E140.4242
G1 X90.300 Y111.300 E141.5519
G1 X92.500 Y111.300 E141.6617
G1 X92.500 Y133.904 E142.7894
G1 X98.700 Y133.904 E143.0987
G1 X98.700 Y111.300 E144.2264
G1 X100.900 Y111.300 E144.3362
G1 X100.900 Y133.904 E145.4639
G1 X107.100 Y133.904 E145.7732
G1 X107.100 Y111.300 E146.9009
G1 X109.300 Y111.300 E147.0107
G1 X109.300 Y133.904 E148.1384
G1 X115.500 Y133.904 E148.4477
G1 X115.500 Y111.300 E149.5754
G1 X117.700 Y111.300 E149.6852
G1 X117.700 Y133.904 E150.8129
G1 X123.900 Y133.904 E151.1222
G1 X123.900 Y111.300 E152.2499
G1 X126.100 Y111.300 E152.3597
G1 X126.100 Y133.904 E153.4874
G1 X132.300 Y133.904 E153.7967
G1 X132.300 Y111.300 E154.9245
G1 X134.500 Y111.300 E155.0342
G1 X134.500 Y133.904 E156.1619
G1 X140.700 Y133.904 E156.4713
G1 X140.700 Y111.300 E157.5990
G1 X142.900 Y111.300 E157.7087
G1 X142.900 Y133.904 E158.8365
G1 X149.100 Y133.904 E159.1458
G1 X149.100 Y111.300 E160.2735
G1 X151.300 Y111.300 E160.3832
G1 X151.300 Y133.904 E161.5110
G1 X157.500 Y133.904 E161.8203
G1 X157.500 Y111.300 E162.9480
G1 X159.700 Y111.300 E163.0578
G1 X159.700 Y133.904 E164.1855
G1 X165.900 Y133.904 E164.4948
G1 X165.900 Y111.300 E165.6225
G1 X168.100 Y111.300 E165.7323
G1 X168.100 Y138.700 E167.0993
G1 X81.900 Y138.700 E171.3998
G1 X81.900 Y111.300 E172.7668
G1 X84.100 Y111.300 E172.8766
G1 X84.100 Y133.904 E174.0043
G0 F3900 X83.700 Y134.304
G1 F2400 X90.700 Y134.304 E174.3535
G1 X90.700 Y111.700 E175.4812
G1 X92.100 Y111.700 E175.5511
G1 X92.100 Y134.304 E176.6788
G1 X99.100 Y134.304 E177.0280
G1 X99.100 Y111.700 E178.1557
G1 X100.500 Y111.700 E178.2256
G1 X100.500 Y134.304 E179.3533
G1 X107.500 Y134.304 E179.7025
G1 X107.500 Y111.700 E180.8302
G1 X108.900 Y111.700 E180.9001
G1 X108.900 Y134.304 E182.0278
G1 X115.900 Y134.304 E182.3770
G1 X115.900 Y111.700 E183.5048
G1 X117.300 Y111.700 E183.5746
G1 X117.300 Y134.304 E184.7023
G1 X124.300 Y134.304 E185.0516
G1 X124.300 Y111.700 E186.1793
G1 X125.700 Y111.700 E186.2491
G1 X125.700 Y134.304 E187.3768
G1 X132.700 Y134.304 E187.7261
G1 X132.700 Y111.700 E188.8538
G1 X134.100 Y111.700 E188.9236
G1 X134.100 Y134.304 E190.0514
G1 X141.100 Y134.304 E190.4006
G1 X141.100 Y111.700 E191.5283
G1 X142.500 Y111.700 E191.5982
G1 X142.500 Y134.304 E192.7259
G1 X149.500 Y134.304 E193.0751
G1 X149.500 Y111.700 E194.2028
G1 X150.900 Y111.700 E194.2727
G1 X150.900 Y134.304 E195.4004
G1 X157.900 Y134.304 E195.7496
G1 X157.900 Y111.700 E196.8773
G1 X159.300 Y111.700 E196.9472
G1 X159.300 Y134.304 E198.0749
G1 X166.300 Y134.304 E198.4241
G1 X166.300 Y111.700 E199.5518
G1 X167.700 Y111.700 E199.6217
G1 X167.700 Y138.300 E200.9488
G1 X82.300 Y138.300 E205.2094
G1 X82.300 Y111.700 E206.5365
G1 X83.700 Y111.700 E206.6063
G1 X83.700 Y134.304 E207.7340
G0 F3900 X82.484 Y137.638
;TYPE:SOLID-FILL
;WIDTH:0.400
G1 F2400 X82.960 Y138.114 E207.7676
G0 F2400 X83.526 Y138.114
G1 F2400 X82.484 Y137.072 E207.8411
G0 F2400 X82.484 Y136.506
G1 F2400 X84.091 Y138.114 E207.9546
G0 F2400 X84.657 Y138.114
G1 F2400 X82.484 Y135.941 E208.1079
G0 F2400 X82.484 Y135.375
G1 F2400 X85.223 Y138.114 E208.3011
G0 F2400 X85.789 Y138.114
G1 F2400 X82.484 Y134.809 E208.5343
G0 F2400 X82.484 Y134.244
G1 F2400 X86.354 Y138.114 E208.8074
G0 F2400 X86.920 Y138.114
G1 F2400 X82.484 Y133.678 E209.1203
G0 F2400 X82.484 Y133.112
G1 F2400 X83.516 Y134.145 E209.1932
G0 F2400 X83.858 Y134.487
G1 F2400 X87.486 Y138.114 E209.4491
G0 F2400 X88.051 Y138.114
G1 F2400 X84.424 Y134.487 E209.7050
G0 F2400 X84.989 Y134.487
G1 F2400 X88.617 Y138.114 E209.9610
G0 F2400 X89.183 Y138.114
G1 F2400 X85.555 Y134.487 E210.2169
G0 F2400 X86.121 Y134.487
G1 F2400 X89.748 Y138.114 E210.4728
G0 F2400 X90.314 Y138.114
G1 F2400 X86.687 Y134.487 E210.7287
G0 F2400 X87.252 Y134.487
G1 F2400 X90.880 Y138.114 E210.9847
G0 F2400 X91.445 Y138.114
G1 F2400 X87.818 Y134.487 E211.2406
G0 F2400 X88.384 Y134.487
G1 F2400 X92.011 Y138.114 E211.4965
G0 F2400 X92.577 Y138.114
G1 F2400 X88.949 Y134.487 E211.7524
G0 F2400 X89.515 Y134.487
G1 F2400 X93.142 Y138.114 E212.0083
G0 F2400 X93.708 Y138.114
G1 F2400 X90.081 Y134.487 E212.2642
G0 F2400 X90.646 Y134.487
G1 F2400 X94.274 Y138.114 E212.5202
G0 F2400 X94.839 Y138.114
G1 F2400 X90.883 Y134.158 E212.7993
G0 F2400 X90.883 Y133.592
G1 F2400 X95.405 Y138.114 E213.1183
G0 F2400 X95.971 Y138.114
G1 F2400 X92.343 Y134.486 E213.3743
G0 F2400 X92.908 Y134.486
G1 F2400 X96.537 Y138.114 E213.6303
G0 F2400 X97.102 Y138.114
G1 F2400 X93.474 Y134.486 E213.8863
G0 F2400 X94.040 Y134.486
G1 F2400 X97.668 Y138.114 E214.1423
G0 F2400 X98.234 Y138.114
G1 F2400 X94.605 Y134.486 E214.3983
G0 F2400 X95.171 Y134.486
G1 F2400 X98.799 Y138.114 E214.6543
G0 F2400 X99.365 Y138.114
G1 F2400 X95.737 Y134.486 E214.9102
G0 F2400 X96.302 Y134.486
G1 F2400 X99.931 Y138.114 E215.1662
G0 F2400 X100.496 Y138.114
G1 F2400 X96.868 Y134.486 E215.4222
G0 F2400 X97.434 Y134.486
G1 F2400 X101.062 Y138.114 E215.6782
G0 F2400 X101.628 Y138.114
G1 F2400 X98.000 Y134.486 E215.9342
G0 F2400 X98.565 Y134.486
G1 F2400 X102.193 Y138.114 E216.1901
G0 F2400 X102.759 Y138.114
G1 F2400 X99.131 Y134.486 E216.4461
G0 F2400 X99.284 Y134.073
