;Sliced by ideaMaker 5.2.4.8581, 2025-08-06 13:08:13 UTC+0200
;Slicer Version: 5.2.3.8580
;Dimension: 250.000 250.000 250.000 0.400
;Plate Shape: 0
;Origin Center: 0
;Extruder Offset #1: 25.000 0.000
;Filament Diameter #1: 1.750
;Filament Diameter #2: 1.750
;Filament Compensation #1: 94.000
;Filament Compensation #2: 90.000
;Filament Density #1: 1240.000
;Filament Density #2: 1240.000
;Filament Type #1: PLA
;Filament Type #2: PLA
;Filament Name #1: [Raise3D] Premium PLA 1.75mm
;Filament Name #2: [Raise3D] Premium PLA 1.75mm
;Filament #1: PLA 1.75mm
;Filament #2: PLA 1.75mm
;Printer Type: floppy
;Firmware: Klipper
;Bounding Box: 69.650 179.765 53.590 184.446 0.000 15.000
;Model Gap: 0.000
M221 T0 S94.00
M140 S50.00
M104 T0 S190.00
M109 T0 S190.00
T0
M190 S50.00
G21 ;metric values
G90 ;absolute positioning
M82 ;set extruder to absolute mode
M107 ;start with the fan off
G28 X0 Y0 ;move X/Y to min endstops
G28 Z0 ;move Z to min endstops
G1 Z15.0 F9000 ;move the platform down 15mm
G92 E0 ;zero the extruded length
G0 X43 Y27 F2000  ;go to the edge of the bed
G92 X0 Y0 E0 ;set zero to edge of the bed
G0 F9000 Z1 ;Z up with 1mm
G1 F200 Z0 ;Z home slowly
G1 Z15.0 F9000 ;move the platform down 15mm
G1 F9000 ;speed setting
G92 E-3 ;retraction
M117 Printing...
M1001
;TOTAL_NUM: 3
;PRINTING_TIME: 0
;REMAINING_TIME: 10023
;LAYER:0
;Z:0.300
;HEIGHT:0.300
;PRINTING: NON-OBJECT
;PRINTING_ID: -1
G1 F2400 E-3.0000
G0 F3900 X74.902 Y76.457
G0 F300 Z0.300
;TYPE:SKIRT
;WIDTH:0.400
G1 F1500 E0.0000
G1 F900 X77.503 Y74.945 E0.1501
G1 X80.096 Y74.164 E0.2852
G1 X82.841 Y73.893 E0.4228
G1 X85.726 Y74.203 E0.5676
G1 X86.320 Y73.687 E0.6068
G1 X87.069 Y73.322 E0.6484
G1 X160.462 Y53.590 E4.4400
G1 X161.697 Y53.595 E4.5016
G1 X163.523 Y54.423 E4.6017
G1 X173.243 Y63.009 E5.2487
G1 X178.337 Y65.754 E5.5374
G1 X179.246 Y66.777 E5.6057
G1 X179.765 Y68.256 E5.6839
G1 X179.611 Y69.932 E5.7678
G1 X178.883 Y71.213 E5.8413
G1 X176.418 Y73.367 E6.0047
G1 X174.787 Y74.068 E6.0932
G1 X172.991 Y73.971 E6.1830
G1 X167.406 Y71.162 E6.4948
G1 X159.279 Y64.140 E7.0307
G1 X158.815 Y64.045 E7.0543
G1 X156.843 Y64.575 E7.1562
G1 X156.261 Y65.128 E7.1962
G1 X153.276 Y66.174 E7.3540
G1 X134.990 Y71.004 E8.2976
G1 X133.272 Y71.577 E8.3880
G1 X129.551 Y72.417 E8.5783
G1 X109.512 Y77.888 E9.6146
G1 X164.300 Y77.968 E12.3480
G1 X166.738 Y78.732 E12.4755
G1 X167.366 Y79.131 E12.5126
G1 X170.053 Y79.133 E12.6467
G1 X171.203 Y79.621 E12.7090
G1 X173.518 Y85.471 E13.0229
G1 X173.444 Y87.570 E13.1277
G1 X173.005 Y88.290 E13.1697
G1 X172.549 Y88.616 E13.1977
G1 X169.151 Y88.854 E13.3676
G1 X168.417 Y89.722 E13.4243
G1 X167.524 Y90.208 E13.4751
G1 X166.488 Y90.444 E13.5281
G1 X91.377 Y90.474 E17.2754
G1 X88.834 Y90.627 E17.4025
G1 X85.283 Y91.285 E17.5827
G1 X82.934 Y91.453 E17.7001
G1 X79.229 Y90.984 E17.8865
G1 X77.259 Y90.309 E17.9904
G1 X75.883 Y89.589 E18.0678
G1 X73.627 Y87.701 E18.2146
G1 X72.114 Y85.173 E18.3616
G1 X71.708 Y81.954 E18.5235
G1 X72.622 Y79.086 E18.6736
G1 X74.902 Y76.457 E18.8472
G0 F3900 X75.202 Y76.722
G1 F900 X77.702 Y75.292 E18.9909
G1 X80.210 Y74.547 E19.1215
G1 X82.879 Y74.291 E19.2552
G1 X85.861 Y74.621 E19.4049
G1 X86.495 Y74.047 E19.4476
G1 X87.244 Y73.682 E19.4891
G1 X160.566 Y53.976 E23.2770
G1 X161.690 Y53.995 E23.3331
G1 X163.258 Y54.723 E23.4193
G1 X173.012 Y63.339 E24.0686
G1 X178.147 Y66.106 E24.3596
G1 X178.942 Y67.037 E24.4207
G1 X179.385 Y68.381 E24.4913
G1 X179.260 Y69.740 E24.5594
G1 X178.620 Y70.912 E24.6260
G1 X176.155 Y73.066 E24.7894
G1 X174.633 Y73.699 E24.8716
G1 X173.022 Y73.572 E24.9522
G1 X167.587 Y70.806 E25.2565
G1 X159.461 Y63.769 E25.7928
G1 X158.803 Y63.634 E25.8263
G1 X156.628 Y64.219 E25.9386
G1 X156.129 Y64.751 E25.9750
G1 X153.144 Y65.797 E26.1328
G1 X134.883 Y70.618 E27.0751
G1 X133.145 Y71.198 E27.1665
G1 X129.450 Y72.030 E27.3555
G1 X106.540 Y78.285 E28.5403
G1 X164.180 Y78.350 E31.4159
G1 X166.618 Y79.114 E31.5434
G1 X167.246 Y79.531 E31.5810
G1 X170.053 Y79.533 E31.7211
G1 X170.915 Y79.899 E31.7678
G1 X173.118 Y85.468 E32.0666
G1 X173.102 Y87.362 E32.1611
G1 X172.663 Y88.082 E32.2031
G1 X172.344 Y88.273 E32.2217
G1 X168.950 Y88.465 E32.3913
G1 X168.226 Y89.371 E32.4491
G1 X167.333 Y89.857 E32.4999
G1 X166.405 Y90.053 E32.5472
G1 X91.370 Y90.074 E36.2907
G1 X88.785 Y90.229 E36.4199
G1 X85.210 Y90.892 E36.6013
G1 X82.906 Y91.054 E36.7165
G1 X79.280 Y90.587 E36.8989
G1 X77.390 Y89.931 E36.9987
G1 X76.069 Y89.235 E37.0732
G1 X73.885 Y87.395 E37.2157
G1 X72.459 Y84.970 E37.3561
G1 X72.105 Y81.908 E37.5098
G1 X73.002 Y79.212 E37.6516
G1 X75.202 Y76.722 E37.8174
G0 F3900 X75.499 Y76.990
G1 F900 X77.898 Y75.641 E37.9547
G1 X80.322 Y74.931 E38.0807
G1 X82.916 Y74.689 E38.2107
G1 X86.002 Y75.039 E38.3656
G1 X86.670 Y74.407 E38.4115
G1 X87.419 Y74.042 E38.4531
G1 X160.670 Y54.362 E42.2372
G1 X161.677 Y54.395 E42.2874
G1 X162.993 Y55.023 E42.3602
G1 X172.781 Y63.669 E43.0117
G1 X177.957 Y66.458 E43.3051
G1 X178.632 Y67.289 E43.3585
G1 X179.003 Y68.498 E43.4216
G1 X178.905 Y69.556 E43.4746
G1 X178.357 Y70.611 E43.5339
G1 X175.892 Y72.765 E43.6972
G1 X174.484 Y73.328 E43.7729
G1 X173.065 Y73.174 E43.8441
G1 X167.770 Y70.450 E44.1411
G1 X159.644 Y63.398 E44.6779
G1 X158.791 Y63.223 E44.7214
G1 X156.396 Y63.867 E44.8451
G1 X155.997 Y64.374 E44.8773
G1 X153.012 Y65.420 E45.0351
G1 X134.776 Y70.232 E45.9760
G1 X133.018 Y70.819 E46.0685
G1 X129.349 Y71.643 E46.2561
G1 X103.569 Y78.682 E47.5894
G1 X164.180 Y78.750 E50.6133
G1 X166.495 Y79.495 E50.7346
G1 X167.120 Y79.931 E50.7726
G1 X170.053 Y79.933 E50.9189
G1 X170.628 Y80.177 E50.9501
G1 X172.718 Y85.478 E51.2344
G1 X172.760 Y87.154 E51.3180
G1 X172.321 Y87.874 E51.3601
G1 X168.741 Y88.076 E51.5390
G1 X168.035 Y89.020 E51.5978
G1 X167.142 Y89.506 E51.6485
G1 X166.330 Y89.660 E51.6897
G1 X91.363 Y89.674 E55.4299
G1 X88.736 Y89.831 E55.5612
G1 X85.137 Y90.499 E55.7438
G1 X82.878 Y90.655 E55.8567
G1 X79.332 Y90.190 E56.0352
G1 X77.523 Y89.554 E56.1308
G1 X76.256 Y88.882 E56.2024
G1 X74.144 Y87.090 E56.3406
G1 X72.805 Y84.770 E56.4742
G1 X72.485 Y82.034 E56.6116
G1 X73.382 Y79.338 E56.7534
G1 X75.499 Y76.990 E56.9111
G0 F3900 X75.793 Y77.261
G1 F900 X78.091 Y75.991 E57.0421
G1 X80.433 Y75.315 E57.1637
G1 X82.952 Y75.087 E57.2899
G1 X86.147 Y75.458 E57.4504
G1 X86.845 Y74.767 E57.4994
G1 X87.594 Y74.402 E57.5410
G1 X160.774 Y54.748 E61.3213
G1 X161.656 Y54.794 E61.3654
G1 X162.728 Y55.323 E61.4250
G1 X172.550 Y63.999 E62.0788
G1 X177.654 Y66.719 E62.3674
G1 X178.252 Y67.415 E62.4131
G1 X178.604 Y68.472 E62.4687
G1 X178.545 Y69.381 E62.5142
G1 X178.092 Y70.311 E62.5658
G1 X175.731 Y72.399 E62.7230
G1 X174.519 Y72.930 E62.7890
G1 X173.248 Y72.818 E62.8527
G1 X167.953 Y70.094 E63.1498
G1 X159.826 Y63.027 E63.6871
G1 X158.780 Y62.812 E63.7404
G1 X156.153 Y63.518 E63.8761
G1 X155.787 Y64.033 E63.9076
G1 X152.881 Y65.042 E64.0611
G1 X134.669 Y69.846 E65.0007
G1 X132.891 Y70.440 E65.0943
G1 X129.244 Y71.257 E65.2807
G1 X103.110 Y78.393 E66.6323
G1 X103.205 Y79.082 E66.6670
G1 X164.180 Y79.150 E69.7090
G1 X166.369 Y79.875 E69.8241
G1 X166.989 Y80.331 E69.8625
G1 X170.053 Y80.333 E70.0154
G1 X170.340 Y80.455 E70.0309
G1 X171.619 Y83.994 E70.2186
G1 X172.318 Y85.488 E70.3009
G1 X172.360 Y87.164 E70.3846
G1 X172.105 Y87.538 E70.4072
G1 X168.527 Y87.684 E70.5858
G1 X167.836 Y88.673 E70.6460
G1 X167.067 Y89.113 E70.6902
G1 X166.255 Y89.267 E70.7314
G1 X91.356 Y89.274 E74.4682
G1 X88.687 Y89.433 E74.6016
G1 X85.064 Y90.106 E74.7854
G1 X82.851 Y90.256 E74.8961
G1 X79.385 Y89.794 E75.0705
G1 X77.658 Y89.177 E75.1620
G1 X76.444 Y88.529 E75.2307
G1 X74.490 Y86.890 E75.3579
G1 X73.151 Y84.570 E75.4915
G1 X72.883 Y81.993 E75.6208
G1 X73.760 Y79.469 E75.7541
G1 X75.793 Y77.261 E75.9039
G0 F3900 X76.084 Y77.535
G1 F900 X78.282 Y76.343 E76.0286
G1 X80.542 Y75.700 E76.1458
G1 X82.987 Y75.485 E76.2683
G1 X86.291 Y75.878 E76.4343
G1 X87.126 Y75.051 E76.4929
G1 X87.758 Y74.767 E76.5275
G1 X160.878 Y55.134 E80.3047
G1 X161.624 Y55.193 E80.3420
G1 X162.541 Y55.677 E80.3937
G1 X172.321 Y64.331 E81.0452
G1 X177.361 Y66.992 E81.3296
G1 X177.872 Y67.541 E81.3670
G1 X178.224 Y68.598 E81.4226
G1 X178.147 Y69.340 E81.4598
G1 X177.826 Y70.013 E81.4970
G1 X175.556 Y72.039 E81.6488
G1 X174.544 Y72.531 E81.7049
G1 X173.431 Y72.462 E81.7606
G1 X168.136 Y69.738 E82.0577
G1 X160.042 Y62.684 E82.5933
G1 X159.479 Y62.444 E82.6238
G1 X158.739 Y62.409 E82.6608
G1 X155.864 Y63.182 E82.8093
G1 X155.656 Y63.655 E82.8351
G1 X152.750 Y64.664 E82.9886
G1 X134.562 Y69.460 E83.9270
G1 X132.764 Y70.061 E84.0216
G1 X129.139 Y70.871 E84.2069
G1 X102.667 Y78.099 E85.5759
G1 X102.856 Y79.482 E85.6456
G1 X164.180 Y79.550 E88.7050
G1 X166.240 Y80.254 E88.8136
G1 X166.852 Y80.731 E88.8524
G1 X170.053 Y80.733 E89.0121
G1 X171.245 Y84.137 E89.1920
G1 X171.956 Y85.657 E89.2757
G1 X171.960 Y87.165 E89.3509
G1 X168.306 Y87.291 E89.5334
G1 X167.628 Y88.332 E89.5953
G1 X166.992 Y88.720 E89.6325
G1 X166.180 Y88.874 E89.6737
G1 X91.349 Y88.874 E93.4071
G1 X88.638 Y89.035 E93.5426
G1 X84.991 Y89.713 E93.7276
G1 X82.824 Y89.857 E93.8360
G1 X79.439 Y89.398 E94.0064
G1 X77.795 Y88.801 E94.0937
G1 X76.633 Y88.177 E94.1595
G1 X74.748 Y86.584 E94.2826
G1 X73.499 Y84.373 E94.4093
G1 X73.261 Y82.124 E94.5221
G1 X74.138 Y79.600 E94.6554
G1 X76.084 Y77.535 E94.7970
G1 F2400 E91.7970
G0 F3900 X80.801 Y117.394
G1 F1500 E94.7970
G1 F900 X83.686 Y117.704 E94.9417
G1 X84.280 Y117.188 E94.9810
G1 X85.029 Y116.823 E95.0226
G1 X158.064 Y97.155 E98.7961
G1 X159.950 Y97.177 E98.8902
G1 X161.405 Y97.870 E98.9706
G1 X171.193 Y106.502 E99.6217
G1 X175.753 Y108.878 E99.8782
G1 X176.658 Y109.573 E99.9352
G1 X177.563 Y111.066 E100.0223
G1 X177.760 Y112.439 E100.0915
G1 X177.394 Y113.868 E100.1651
G1 X176.452 Y115.122 E100.2433
G1 X173.101 Y117.510 E100.4486
G1 X171.891 Y117.638 E100.5093
G1 X170.593 Y117.343 E100.5757
G1 X164.906 Y114.350 E100.8963
G1 X157.230 Y107.638 E101.4050
G1 X156.776 Y107.544 E101.4282
G1 X154.908 Y108.046 E101.5247
G1 X154.137 Y108.816 E101.5790
G1 X107.459 Y121.390 E103.9908
G1 X162.386 Y121.488 E106.7311
G1 X164.701 Y122.233 E106.8525
G1 X165.451 Y122.731 E106.8974
G1 X168.053 Y122.733 E107.0272
G1 X169.203 Y123.221 E107.0895
G1 X171.556 Y129.244 E107.4121
G1 X171.495 Y131.115 E107.5055
G1 X170.566 Y132.270 E107.5795
G1 X167.021 Y132.474 E107.7566
G1 X165.936 Y133.468 E107.8300
G1 X164.140 Y133.975 E107.9231
G1 X89.337 Y133.975 E111.6551
G1 X86.794 Y134.128 E111.7822
G1 X83.242 Y134.786 E111.9624
G1 X81.066 Y134.966 E112.0713
G1 X79.068 Y134.855 E112.1712
G1 X77.091 Y134.470 E112.2717
G1 X75.559 Y133.957 E112.3523
G1 X73.865 Y133.103 E112.4469
G1 X71.499 Y131.096 E112.6017
G1 X70.073 Y128.672 E112.7420
G1 X69.650 Y125.639 E112.8948
G1 X70.580 Y122.589 E113.0539
G1 X72.661 Y120.112 E113.2153
G1 X75.435 Y118.461 E113.3763
G1 X78.052 Y117.665 E113.5128
G1 X80.801 Y117.394 E113.6506
G0 F3900 X80.839 Y117.792
G1 F900 X83.821 Y118.122 E113.8003
G1 X84.455 Y117.548 E113.8430
G1 X85.204 Y117.183 E113.8845
G1 X158.168 Y97.541 E117.6543
G1 X159.782 Y97.540 E117.7348
G1 X161.140 Y98.170 E117.8095
G1 X170.965 Y106.835 E118.4631
G1 X175.568 Y109.233 E118.7220
G1 X176.320 Y109.786 E118.7686
G1 X177.168 Y111.131 E118.8479
G1 X177.370 Y112.348 E118.9095
G1 X177.071 Y113.632 E118.9752
G1 X176.216 Y114.799 E119.0474
G1 X173.059 Y117.112 E119.2427
G1 X171.849 Y117.240 E119.3034
G1 X170.688 Y116.955 E119.3630
G1 X165.093 Y113.996 E119.6788
G1 X157.415 Y107.267 E120.1881
G1 X156.765 Y107.133 E120.2212
G1 X154.687 Y107.691 E120.3286
G1 X154.033 Y108.430 E120.3778
G1 X104.453 Y121.786 E122.9396
G1 X162.263 Y121.869 E125.8237
G1 X164.578 Y122.614 E125.9450
G1 X165.327 Y123.131 E125.9904
G1 X168.053 Y123.133 E126.1264
G1 X168.915 Y123.499 E126.1732
G1 X171.156 Y129.238 E126.4805
G1 X171.129 Y130.953 E126.5661
G1 X170.372 Y131.920 E126.6274
G1 X166.852 Y132.081 E126.8032
G1 X165.824 Y133.084 E126.8748
G1 X164.140 Y133.575 E126.9623
G1 X89.330 Y133.575 E130.6946
G1 X86.745 Y133.730 E130.8238
G1 X83.169 Y134.393 E131.0053
G1 X81.034 Y134.567 E131.1121
G1 X79.091 Y134.456 E131.2092
G1 X77.168 Y134.078 E131.3070
G1 X75.687 Y133.578 E131.3850
G1 X74.046 Y132.746 E131.4768
G1 X71.844 Y130.893 E131.6204
G1 X70.418 Y128.469 E131.7607
G1 X70.047 Y125.588 E131.9056
G1 X70.961 Y122.710 E132.0562
G1 X72.965 Y120.372 E132.2099
G1 X75.637 Y118.806 E132.3644
G1 X78.167 Y118.048 E132.4962
G1 X80.839 Y117.792 E132.6301
G0 F3900 X80.876 Y118.190
G1 F900 X83.962 Y118.540 E132.7850
G1 X84.630 Y117.908 E132.8309
G1 X85.379 Y117.543 E132.8725
G1 X158.272 Y97.927 E136.6385
G1 X159.779 Y97.940 E136.7137
G1 X160.875 Y98.470 E136.7744
G1 X170.737 Y107.168 E137.4305
G1 X175.383 Y109.588 E137.6918
G1 X176.082 Y110.107 E137.7352
G1 X176.826 Y111.338 E137.8070
G1 X176.974 Y112.403 E137.8606
G1 X176.684 Y113.532 E137.9188
G1 X175.975 Y114.480 E137.9779
G1 X173.008 Y116.715 E138.1632
G1 X171.944 Y116.852 E138.2167
G1 X170.783 Y116.567 E138.2763
G1 X165.281 Y113.643 E138.5872
G1 X157.600 Y106.896 E139.0973
G1 X156.754 Y106.722 E139.1403
G1 X154.460 Y107.338 E139.2588
G1 X153.849 Y108.075 E139.3066
G1 X101.442 Y122.183 E142.0143
G1 X162.140 Y122.250 E145.0425
G1 X164.455 Y122.995 E145.1639
G1 X165.198 Y123.531 E145.2096
G1 X168.053 Y123.533 E145.3520
G1 X168.628 Y123.777 E145.3832
G1 X170.756 Y129.239 E145.6756
G1 X170.760 Y130.798 E145.7534
G1 X170.173 Y131.573 E145.8019
G1 X166.675 Y131.686 E145.9765
G1 X165.708 Y132.701 E146.0464
G1 X164.140 Y133.175 E146.1282
G1 X89.323 Y133.175 E149.8608
G1 X86.696 Y133.332 E149.9921
G1 X83.096 Y134.000 E150.1748
G1 X81.002 Y134.168 E150.2796
G1 X79.114 Y134.057 E150.3739
G1 X77.246 Y133.686 E150.4689
G1 X75.816 Y133.199 E150.5443
G1 X74.228 Y132.390 E150.6332
G1 X72.103 Y130.588 E150.7722
G1 X70.764 Y128.269 E150.9058
G1 X70.444 Y125.541 E151.0429
G1 X71.341 Y122.836 E151.1850
G1 X73.266 Y120.635 E151.3309
G1 X75.837 Y119.153 E151.4790
G1 X78.280 Y118.432 E151.6060
G1 X80.876 Y118.190 E151.7361
G0 F3900 X80.912 Y118.588
G1 F900 X84.107 Y118.959 E151.8966
G1 X84.805 Y118.268 E151.9456
G1 X85.554 Y117.903 E151.9872
G1 X158.376 Y98.313 E155.7494
G1 X159.771 Y98.340 E155.8190
G1 X160.688 Y98.824 E155.8708
G1 X170.509 Y107.500 E156.5246
G1 X175.198 Y109.943 E156.7883
G1 X175.842 Y110.427 E156.8285
G1 X176.479 Y111.537 E156.8924
G1 X176.576 Y112.445 E156.9379
G1 X176.361 Y113.297 E156.9818
G1 X175.730 Y114.164 E157.0353
G1 X172.945 Y116.320 E157.2110
G1 X172.039 Y116.464 E157.2568
G1 X170.878 Y116.179 E157.3164
G1 X165.469 Y113.290 E157.6223
G1 X157.784 Y106.525 E158.1331
G1 X156.742 Y106.311 E158.1862
G1 X154.212 Y106.991 E158.3169
G1 X153.745 Y107.689 E158.3588
G1 X100.999 Y121.888 E161.0840
G1 X101.091 Y122.583 E161.1190
G1 X162.140 Y122.650 E164.1647
G1 X164.329 Y123.375 E164.2798
G1 X165.064 Y123.931 E164.3257
G1 X168.053 Y123.933 E164.4749
G1 X168.340 Y124.055 E164.4904
G1 X170.356 Y129.248 E164.7683
G1 X170.388 Y130.650 E164.8383
G1 X169.967 Y131.230 E164.8741
G1 X166.490 Y131.289 E165.0475
G1 X165.588 Y132.319 E165.1158
G1 X164.140 Y132.775 E165.1916
G1 X89.316 Y132.775 E168.9246
G1 X86.647 Y132.934 E169.0580
G1 X83.023 Y133.607 E169.2419
G1 X80.971 Y133.769 E169.3446
G1 X79.138 Y133.658 E169.4362
G1 X77.325 Y133.294 E169.5284
G1 X75.946 Y132.821 E169.6012
G1 X74.410 Y132.034 E169.6873
G1 X72.363 Y130.284 E169.8216
G1 X71.112 Y128.072 E169.9484
G1 X70.842 Y125.499 E170.0775
G1 X71.719 Y122.967 E170.2112
G1 X73.466 Y120.982 E170.3431
G1 X76.037 Y119.500 E170.4911
G1 X78.392 Y118.816 E170.6135
G1 X80.912 Y118.588 E170.7397
G0 F3900 X80.947 Y118.986
G1 F900 X84.251 Y119.379 E170.9057
G1 X85.086 Y118.552 E170.9644
G1 X85.718 Y118.268 E170.9989
G1 X158.480 Y98.699 E174.7580
G1 X159.584 Y98.694 E174.8131
G1 X160.501 Y99.178 E174.8648
G1 X170.281 Y107.832 E175.5164
G1 X175.013 Y110.298 E175.7826
G1 X175.600 Y110.745 E175.8194
G1 X176.126 Y111.726 E175.8749
G1 X176.177 Y112.472 E175.9122
G1 X175.976 Y113.189 E175.9494
G1 X175.413 Y113.920 E175.9954
G1 X172.867 Y115.928 E176.1572
G1 X172.130 Y116.074 E176.1947
G1 X171.066 Y115.826 E176.2492
G1 X165.657 Y112.937 E176.5551
G1 X158.001 Y106.183 E177.0644
G1 X157.440 Y105.943 E177.0949
