;Sliced by ideaMaker 5.2.4.8581, 2025-10-21 16:31:06 UTC+0200
;Slicer Version: 5.2.3.8580
;Dimension: 250.000 250.000 250.000 0.400
;Plate Shape: 0
;Origin Center: 0
;Extruder Offset #1: 25.000 0.000
;Filament Diameter #1: 1.750
;Filament Diameter #2: 1.750
;Filament Compensation #1: 94.000
;Filament Compensation #2: 90.000
;Filament Density #1: 1240.000
;Filament Density #2: 1240.000
;Filament Type #1: PLA
;Filament Type #2: PLA
;Filament Name #1: [Raise3D] Premium PLA 1.75mm
;Filament Name #2: [Raise3D] Premium PLA 1.75mm
;Filament #1: PLA 1.75mm
;Filament #2: PLA 1.75mm
;Printer Type: floppy
;Firmware: Klipper
;Bounding Box: 91.770 158.189 91.965 148.593 0.000 39.900
;Model Gap: 0.000
M221 T0 S94.00
M140 S45.00
M104 T0 S200.00
M109 T0 S200.00
T0
M190 S45.00
G21 ;metric values
G90 ;absolute positioning
M82 ;set extruder to absolute mode
M107 ;start with the fan off
G28 X0 Y0 ;move X/Y to min endstops
G28 Z0 ;move Z to min endstops
G1 Z15.0 F9000 ;move the platform down 15mm
G92 E0 ;zero the extruded length
G0 X43 Y27 F2000  ;go to the edge of the bed
G92 X0 Y0 E0 ;set zero to edge of the bed
G0 F9000 Z1 ;Z up with 1mm
G1 F200 Z0 ;Z home slowly
G1 Z15.0 F9000 ;move the platform down 15mm
G1 F9000 ;speed setting
G92 E-3 ;retraction
M117 Printing...
M1001
;TOTAL_NUM: 1
;PRINTING_TIME: 0
;REMAINING_TIME: 7161
;LAYER:0
;Z:0.300
;HEIGHT:0.300
;PRINTING: NON-OBJECT
;PRINTING_ID: -1
G1 F2400 E-3.0000
G0 F3900 X102.010 Y102.858
G0 F300 Z0.300
;TYPE:SKIRT
;WIDTH:0.400
G1 F1500 E0.0000
G1 F900 X103.401 Y101.632 E0.0925
G1 X117.340 Y101.248 E0.7882
G1 X117.089 Y98.850 E0.9085
G1 X117.975 Y95.916 E1.0614
G1 X120.216 Y93.328 E1.2322
G1 X123.167 Y91.993 E1.3938
G1 X126.348 Y91.965 E1.5525
G1 X128.496 Y92.755 E1.6667
G1 X130.325 Y94.171 E1.7821
G1 X132.175 Y97.399 E1.9677
G1 X132.491 Y100.013 E2.0990
G1 X132.259 Y101.201 E2.1594
G1 X145.117 Y101.231 E2.8009
G1 X147.700 Y102.329 E2.9409
G1 X148.708 Y104.813 E3.0747
G1 X148.771 Y117.894 E3.7273
G1 X151.583 Y117.678 E3.8680
G1 X154.215 Y118.568 E4.0066
G1 X156.283 Y120.246 E4.1395
G1 X157.808 Y122.925 E4.2933
G1 X158.189 Y125.471 E4.4217
G1 X157.688 Y128.027 E4.5517
G1 X155.764 Y130.879 E4.7233
G1 X153.128 Y132.543 E4.8788
G1 X150.020 Y133.019 E5.0357
G1 X148.809 Y132.735 E5.0977
G1 X148.800 Y145.000 E5.7097
G1 X148.009 Y147.101 E5.8217
G1 X146.172 Y148.593 E5.9397
G1 X103.485 Y148.481 E8.0694
G1 X101.292 Y145.205 E8.2661
G1 X101.246 Y140.586 E8.4965
G1 X98.471 Y140.031 E8.6377
G1 X96.434 Y138.428 E8.7670
G1 X95.621 Y137.139 E8.8431
G1 X95.422 Y136.542 E8.8745
G1 X93.349 Y134.725 E9.0120
G1 X92.145 Y132.454 E9.1402
G1 X91.770 Y130.173 E9.2556
G1 X92.483 Y126.803 E9.4274
G1 X94.220 Y124.332 E9.5781
G1 X95.495 Y123.411 E9.6566
G1 X93.930 Y122.198 E9.7554
G1 X92.208 Y119.287 E9.9241
G1 X91.824 Y116.631 E10.0580
G1 X92.394 Y113.992 E10.1927
G1 X94.324 Y111.246 E10.3601
G1 X97.102 Y109.601 E10.5212
G1 X100.002 Y109.216 E10.6671
G1 X101.196 Y109.492 E10.7283
G1 X101.327 Y104.371 E10.9839
G1 X102.010 Y102.858 E11.0667
G0 F3900 X102.375 Y103.023
G1 F900 X103.659 Y101.937 E11.1506
G1 X117.789 Y101.639 E11.8557
G1 X117.472 Y98.966 E11.9900
G1 X118.358 Y96.032 E12.1429
G1 X120.516 Y93.593 E12.3054
G1 X123.174 Y92.393 E12.4508
G1 X126.213 Y92.341 E12.6025
G1 X128.255 Y93.075 E12.7107
G1 X129.980 Y94.373 E12.8184
G1 X131.778 Y97.447 E12.9961
G1 X132.094 Y100.061 E13.1275
G1 X131.765 Y101.600 E13.2060
G1 X145.116 Y101.631 E13.8721
G1 X147.412 Y102.607 E13.9965
G1 X148.308 Y104.815 E14.1154
G1 X148.373 Y118.330 E14.7897
G1 X151.458 Y118.058 E14.9442
G1 X153.966 Y118.881 E15.0759
G1 X155.937 Y120.447 E15.2015
G1 X157.413 Y122.988 E15.3481
G1 X157.796 Y125.394 E15.4696
G1 X157.295 Y127.950 E15.5996
G1 X155.435 Y130.652 E15.7633
G1 X152.918 Y132.202 E15.9107
G1 X149.964 Y132.623 E16.0596
G1 X148.409 Y132.218 E16.1398
G1 X148.400 Y145.000 E16.7775
G1 X147.636 Y146.955 E16.8822
G1 X146.064 Y148.208 E16.9825
G1 X103.642 Y148.113 E19.0989
G1 X101.692 Y145.201 E19.2738
G1 X101.643 Y140.258 E19.5204
G1 X98.549 Y139.639 E19.6778
G1 X96.687 Y138.118 E19.7977
G1 X95.962 Y136.931 E19.8671
G1 X95.770 Y136.314 E19.8994
G1 X93.701 Y134.535 E20.0355
G1 X92.539 Y132.384 E20.1575
G1 X92.161 Y130.256 E20.2653
G1 X92.874 Y126.886 E20.4372
G1 X94.545 Y124.566 E20.5798
G1 X96.175 Y123.422 E20.6792
G1 X94.272 Y121.991 E20.7979
G1 X92.604 Y119.230 E20.9589
G1 X92.220 Y116.574 E21.0928
G1 X92.784 Y114.080 E21.2203
G1 X94.649 Y111.479 E21.3800
G1 X97.302 Y109.947 E21.5328
G1 X100.050 Y109.613 E21.6710
G1 X101.586 Y110.005 E21.7500
G1 X101.692 Y104.536 E22.0229
G1 X102.375 Y103.023 E22.1058
G0 F3900 X102.740 Y103.188
G1 F900 X103.909 Y102.249 E22.1806
G1 X118.405 Y102.030 E22.9039
G1 X118.071 Y101.291 E22.9443
G1 X117.855 Y99.082 E23.0551
G1 X118.741 Y96.148 E23.2080
G1 X120.812 Y93.861 E23.3619
G1 X123.334 Y92.760 E23.4992
G1 X126.081 Y92.719 E23.6362
G1 X128.019 Y93.398 E23.7387
G1 X129.637 Y94.578 E23.8386
G1 X131.381 Y97.495 E24.0082
G1 X131.697 Y100.109 E24.1395
G1 X131.262 Y101.999 E24.2363
G1 X145.115 Y102.031 E24.9274
G1 X147.124 Y102.885 E25.0363
G1 X147.908 Y104.817 E25.1403
G1 X147.976 Y118.946 E25.8452
G1 X148.746 Y118.601 E25.8873
G1 X151.337 Y118.439 E26.0169
G1 X153.717 Y119.194 E26.1414
G1 X155.688 Y120.760 E26.2670
G1 X157.019 Y123.055 E26.3994
G1 X157.403 Y125.322 E26.5141
G1 X156.963 Y127.727 E26.6361
G1 X155.225 Y130.311 E26.7914
G1 X152.708 Y131.861 E26.9389
G1 X149.912 Y132.226 E27.0796
G1 X148.009 Y131.689 E27.1782
G1 X148.000 Y145.000 E27.8423
G1 X147.382 Y146.646 E27.9300
G1 X145.950 Y147.824 E28.0225
G1 X103.799 Y147.745 E30.1255
G1 X102.092 Y145.197 E30.2785
G1 X102.038 Y139.790 E30.5483
G1 X101.382 Y139.895 E30.5814
G1 X98.641 Y139.250 E30.7219
G1 X96.946 Y137.813 E30.8327
G1 X96.307 Y136.728 E30.8956
G1 X96.120 Y136.086 E30.9289
G1 X94.051 Y134.342 E31.0639
G1 X92.932 Y132.308 E31.1798
G1 X92.552 Y130.339 E31.2798
G1 X93.265 Y126.969 E31.4516
G1 X94.867 Y124.804 E31.5860
G1 X96.429 Y123.732 E31.6805
G1 X97.398 Y123.397 E31.7317
G1 X96.324 Y123.055 E31.7879
G1 X94.612 Y121.781 E31.8944
G1 X92.999 Y119.169 E32.0475
G1 X92.610 Y116.662 E32.1741
G1 X93.174 Y114.168 E32.3017
G1 X94.972 Y111.715 E32.4534
G1 X97.498 Y110.296 E32.5980
G1 X100.094 Y110.011 E32.7283
G1 X101.979 Y110.528 E32.8258
G1 X102.057 Y104.701 E33.1165
G1 X102.740 Y103.188 E33.1993
G0 F3900 X102.990 Y103.500
G1 F900 X104.159 Y102.561 E33.2741
G1 X119.043 Y102.424 E34.0167
G1 X118.469 Y101.252 E34.0818
G1 X118.253 Y99.043 E34.1926
G1 X119.041 Y96.413 E34.3295
G1 X120.976 Y94.226 E34.4752
G1 X123.344 Y93.160 E34.6048
G1 X125.952 Y93.098 E34.7349
G1 X127.783 Y93.721 E34.8314
G1 X129.401 Y94.901 E34.9313
G1 X131.036 Y97.697 E35.0929
G1 X131.299 Y100.152 E35.2161
G1 X130.861 Y101.952 E35.3085
G1 X130.582 Y102.397 E35.3347
G1 X145.114 Y102.431 E36.0597
G1 X146.836 Y103.163 E36.1531
G1 X147.508 Y104.819 E36.2423
G1 X147.579 Y119.586 E36.9790
G1 X148.775 Y119.000 E37.0454
G1 X151.216 Y118.820 E37.1676
G1 X153.596 Y119.575 E37.2921
G1 X155.436 Y121.070 E37.4104
G1 X156.625 Y123.126 E37.5289
G1 X157.009 Y125.256 E37.6369
G1 X156.631 Y127.504 E37.7506
G1 X154.893 Y130.088 E37.9060
G1 X152.503 Y131.518 E38.0449
G1 X149.865 Y131.829 E38.1774
G1 X147.609 Y131.152 E38.2950
G1 X147.600 Y145.000 E38.9858
G1 X147.010 Y146.500 E39.0662
G1 X145.841 Y147.439 E39.1411
G1 X103.956 Y147.377 E41.2307
G1 X102.492 Y145.193 E41.3619
G1 X102.433 Y139.295 E41.6561
G1 X101.467 Y139.504 E41.7055
G1 X98.896 Y138.942 E41.8368
G1 X97.291 Y137.610 E41.9408
G1 X96.652 Y136.525 E42.0036
G1 X96.461 Y135.816 E42.0403
G1 X95.932 Y135.530 E42.0703
G1 X94.322 Y134.048 E42.1794
G1 X93.323 Y132.226 E42.2831
G1 X92.944 Y130.418 E42.3753
G1 X93.589 Y127.204 E42.5388
G1 X95.093 Y125.134 E42.6665
G1 X96.655 Y124.062 E42.7610
G1 X98.745 Y123.377 E42.8707
G1 X96.563 Y122.734 E42.9842
G1 X94.851 Y121.460 E43.0907
G1 X93.341 Y118.962 E43.2363
G1 X93.006 Y116.606 E43.3550
G1 X93.563 Y114.260 E43.4753
G1 X95.292 Y111.955 E43.6191
G1 X97.690 Y110.647 E43.7553
G1 X100.133 Y110.409 E43.8778
G1 X102.375 Y111.059 E43.9943
G1 X102.426 Y104.855 E44.3038
G1 X102.990 Y103.500 E44.3770
G0 F3900 X103.247 Y103.806
G1 F900 X104.276 Y102.943 E44.4440
G1 X119.696 Y102.819 E45.2133
G1 X118.867 Y101.213 E45.3035
G1 X118.651 Y99.004 E45.4142
G1 X119.344 Y96.674 E45.5355
G1 X121.145 Y94.589 E45.6730
G1 X123.357 Y93.560 E45.7947
G1 X125.823 Y93.477 E45.9178
G1 X127.654 Y94.100 E46.0143
G1 X129.162 Y95.222 E46.1081
G1 X130.689 Y97.895 E46.2616
G1 X130.910 Y100.057 E46.3701
G1 X130.472 Y101.857 E46.4625
G1 X129.815 Y102.795 E46.5196
G1 X145.113 Y102.831 E47.2828
G1 X146.548 Y103.441 E47.3606
G1 X147.108 Y104.821 E47.4349
G1 X147.182 Y120.242 E48.2043
G1 X148.810 Y119.399 E48.2958
G1 X151.095 Y119.201 E48.4102
G1 X153.475 Y119.956 E48.5348
G1 X155.180 Y121.377 E48.6455
G1 X156.231 Y123.197 E48.7504
G1 X156.615 Y125.327 E48.8583
G1 X156.237 Y127.433 E48.9651
G1 X154.564 Y129.861 E49.1122
G1 X152.302 Y131.172 E49.2426
G1 X149.964 Y131.442 E49.3600
G1 X147.999 Y130.938 E49.4612
G1 X147.209 Y130.383 E49.5094
G1 X147.200 Y145.000 E50.2387
G1 X146.753 Y146.194 E50.3023
G1 X145.724 Y147.057 E50.3693
G1 X104.112 Y147.009 E52.4453
G1 X102.892 Y145.189 E52.5546
G1 X102.828 Y138.780 E52.8744
G1 X101.546 Y139.112 E52.9404
G1 X99.148 Y138.631 E53.0625
G1 X97.636 Y137.407 E53.1595
G1 X96.997 Y136.322 E53.2223
G1 X96.805 Y135.543 E53.2624
G1 X96.203 Y135.236 E53.2961
G1 X94.593 Y133.754 E53.4052
G1 X93.713 Y132.137 E53.4971
G1 X93.337 Y130.492 E53.5813
G1 X93.915 Y127.436 E53.7364
G1 X95.323 Y125.461 E53.8575
G1 X96.771 Y124.445 E53.9457
G1 X98.538 Y123.908 E54.0378
G1 X99.880 Y123.307 E54.1112
G1 X101.425 Y123.129 E54.1888
G1 X102.738 Y123.423 E54.2559
G1 X102.777 Y122.021 E54.3259
G1 X101.235 Y122.818 E54.4125
G1 X99.042 Y123.045 E54.5225
G1 X96.802 Y122.413 E54.6386
G1 X95.090 Y121.139 E54.7451
G1 X93.685 Y118.759 E54.8830
G1 X93.403 Y116.555 E54.9938
G1 X93.951 Y114.357 E55.1068
G1 X95.609 Y112.199 E55.2426
G1 X97.877 Y111.001 E55.3706
G1 X100.167 Y110.808 E55.4852
G1 X102.422 Y111.492 E55.6028
G1 X102.772 Y111.730 E55.6239
G1 X102.800 Y104.996 E55.9599
G1 X103.247 Y103.806 E56.0233
G0 F3900 X103.618 Y103.955
G1 F900 X104.388 Y103.327 E56.0729
G1 X120.363 Y103.214 E56.8699
G1 X119.265 Y101.174 E56.9854
G1 X119.049 Y98.965 E57.0962
G1 X119.650 Y96.931 E57.2020
G1 X121.314 Y94.952 E57.3310
G1 X123.526 Y93.923 E57.4527
G1 X125.698 Y93.857 E57.5611
G1 X127.415 Y94.421 E57.6513
G1 X128.923 Y95.543 E57.7451
G1 X130.339 Y98.089 E57.8904
G1 X130.521 Y99.962 E57.9843
G1 X130.083 Y101.762 E58.0767
G1 X129.022 Y103.193 E58.1656
G1 X145.112 Y103.231 E58.9683
G1 X146.260 Y103.719 E59.0306
G1 X146.708 Y104.823 E59.0900
G1 X146.785 Y120.911 E59.8926
G1 X148.845 Y119.798 E60.0095
G1 X151.130 Y119.600 E60.1239
G1 X153.219 Y120.263 E60.2332
G1 X154.924 Y121.684 E60.3440
G1 X155.882 Y123.393 E60.4417
G1 X156.221 Y125.394 E60.5430
G1 X155.844 Y127.358 E60.6427
G1 X154.237 Y129.630 E60.7816
G1 X152.107 Y130.823 E60.9034
G1 X150.063 Y131.055 E61.0060
G1 X148.098 Y130.551 E61.1072
G1 X146.810 Y129.581 E61.1876
G1 X146.800 Y145.000 E61.9569
G1 X146.382 Y146.045 E62.0131
G1 X145.612 Y146.673 E62.0626
G1 X104.268 Y146.641 E64.1253
G1 X103.292 Y145.185 E64.2127
G1 X103.223 Y138.246 E64.5589
G1 X101.625 Y138.720 E64.6421
G1 X99.227 Y138.239 E64.7641
G1 X97.896 Y137.103 E64.8514
G1 X97.346 Y136.126 E64.9074
G1 X97.152 Y135.267 E64.9513
G1 X96.471 Y134.939 E64.9890
G1 X94.944 Y133.563 E65.0916
G1 X94.064 Y131.946 E65.1834
G1 X93.728 Y130.407 E65.2620
G1 X94.307 Y127.514 E65.4092
G1 X95.557 Y125.786 E65.5156
G1 X96.887 Y124.828 E65.5974
G1 X98.678 Y124.284 E65.6907
G1 X100.044 Y123.672 E65.7654
G1 X101.466 Y123.527 E65.8367
G1 X103.124 Y123.928 E65.9218
G1 X103.196 Y121.341 E66.0509
G1 X101.189 Y122.421 E66.1647
G1 X99.146 Y122.659 E66.2673
G1 X97.041 Y122.092 E66.3760
G1 X95.329 Y120.818 E66.4825
G1 X94.082 Y118.708 E66.6048
G1 X93.800 Y116.504 E66.7156
G1 X94.338 Y114.459 E66.8211
G1 X95.923 Y112.447 E66.9489
G1 X97.916 Y111.399 E67.0613
G1 X100.051 Y111.191 E67.1683
G1 X102.306 Y111.875 E67.2858
G1 X103.169 Y112.541 E67.3402
G1 X103.200 Y104.998 E67.7165
G1 X103.618 Y103.955 E67.7726
G0 F3900 X103.985 Y104.115
G1 F900 X104.494 Y103.713 E67.8050
G1 X121.425 Y103.607 E68.6497
G1 X120.700 Y103.004 E68.6967
G1 X119.663 Y101.130 E68.8036
G1 X119.434 Y99.072 E68.9069
G1 X119.960 Y97.184 E69.0047
G1 X121.487 Y95.312 E69.1252
G1 X123.543 Y94.323 E69.2390
G1 X125.573 Y94.237 E69.3404
G1 X127.290 Y94.801 E69.4305
G1 X128.680 Y95.861 E69.5178
G1 X129.987 Y98.279 E69.6549
G1 X130.122 Y99.993 E69.7407
G1 X129.695 Y101.663 E69.8267
G1 X128.210 Y103.591 E69.9481
G1 X145.111 Y103.631 E70.7913
G1 X145.972 Y103.997 E70.8379
G1 X146.308 Y104.825 E70.8825
G1 X146.390 Y121.954 E71.7371
G1 X146.908 Y121.300 E71.7787
G1 X148.885 Y120.196 E71.8917
G1 X151.014 Y119.983 E71.9984
G1 X152.967 Y120.573 E72.1002
G1 X154.575 Y121.880 E72.2036
G1 X155.533 Y123.589 E72.3014
G1 X155.826 Y125.456 E72.3956
G1 X155.452 Y127.278 E72.4884
G1 X153.913 Y129.395 E72.6190
G1 X152.056 Y130.426 E72.7250
G1 X150.162 Y130.668 E72.8202
G1 X148.197 Y130.164 E72.9214
G1 X146.411 Y128.757 E73.0349
G1 X146.400 Y145.000 E73.8452
G1 X146.015 Y145.885 E73.8934
G1 X145.506 Y146.287 E73.9258
G1 X104.424 Y146.273 E75.9753
G1 X103.692 Y145.181 E76.0409
G1 X103.615 Y137.446 E76.4268
G1 X103.116 Y137.860 E76.4592
G1 X101.695 Y138.326 E76.5338
G1 X99.482 Y137.931 E76.6460
G1 X98.245 Y136.907 E76.7261
G1 X97.695 Y135.930 E76.7820
G1 X97.503 Y134.987 E76.8300
G1 X96.735 Y134.639 E76.8721
G1 X95.295 Y133.372 E76.9678
G1 X94.415 Y131.755 E77.0596
G1 X94.120 Y130.326 E77.1324
G1 X94.698 Y127.597 E77.2716
G1 X95.795 Y126.107 E77.3639
G1 X97.003 Y125.211 E77.4389
G1 X98.820 Y124.659 E77.5337
G1 X100.091 Y124.069 E77.6036
G1 X101.372 Y123.916 E77.6680
G1 X103.030 Y124.317 E77.7531
G1 X103.590 Y124.694 E77.7867
G1 X103.598 Y120.273 E78.0073
G1 X102.995 Y120.998 E78.0543
G1 X101.137 Y122.024 E78.1602
G1 X99.245 Y122.271 E78.2554
G1 X97.280 Y121.771 E78.3566
G1 X95.568 Y120.497 E78.4631
G1 X94.478 Y118.652 E78.5700
G1 X94.187 Y116.606 E78.6731
G1 X94.725 Y114.561 E78.7786
G1 X96.114 Y112.799 E78.8905
G1 X97.961 Y111.796 E78.9954
G1 X99.935 Y111.574 E79.0945
G1 X102.190 Y112.258 E79.2120
G1 X103.566 Y113.381 E79.3006
G1 X103.600 Y105.000 E79.7188
G1 X103.985 Y104.115 E79.7669
G0 F3900 X104.345 Y104.290
G1 F900 X104.593 Y104.101 E79.7825
G1 X122.579 Y104.001 E80.6798
G1 X121.047 Y102.805 E80.7768
G1 X120.060 Y101.080 E80.8759
G1 X119.819 Y99.179 E80.9715
G1 X120.345 Y97.291 E81.0693
G1 X121.666 Y95.670 E81.1736
G1 X123.565 Y94.722 E81.2795
G1 X125.448 Y94.617 E81.3736
G1 X127.165 Y95.181 E81.4638
G1 X128.433 Y96.176 E81.5442
G1 X129.588 Y98.310 E81.6653
G1 X129.723 Y100.024 E81.7510
G1 X129.309 Y101.559 E81.8303
G1 X128.167 Y103.150 E81.9281
G1 X126.783 Y103.988 E82.0088
G1 X145.110 Y104.031 E82.9231
G1 X145.684 Y104.275 E82.9542
G1 X145.908 Y104.827 E82.9839
G1 X145.996 Y123.175 E83.8993
G1 X147.108 Y121.646 E83.9937
G1 X148.930 Y120.593 E84.0987
G1 X150.904 Y120.368 E84.1978
G1 X152.719 Y120.887 E84.2920
G1 X154.226 Y122.076 E84.3877
G1 X155.184 Y123.785 E84.4855
G1 X155.430 Y125.512 E84.5725
G1 X155.061 Y127.192 E84.6583
G1 X153.593 Y129.156 E84.7806
G1 X151.999 Y130.030 E84.8713
G1 X150.261 Y130.281 E84.9589
G1 X148.296 Y129.777 E85.0602
G1 X146.845 Y128.702 E85.1502
G1 X146.012 Y127.322 E85.2307
G1 X146.000 Y145.000 E86.1126
G1 X145.655 Y145.710 E86.1520
G1 X145.407 Y145.899 E86.1676
G1 X104.580 Y145.905 E88.2044
G1 X104.092 Y145.177 E88.2482
G1 X104.006 Y136.537 E88.6792
G1 X102.991 Y137.480 E88.7484
G1 X101.570 Y137.946 E88.8230
G1 X99.731 Y137.618 E88.9162
G1 X98.594 Y136.711 E88.9887
G1 X98.044 Y135.734 E89.0447
G1 X97.859 Y134.704 E89.0969
G1 X96.995 Y134.335 E89.1437
G1 X95.644 Y133.177 E89.2325
G1 X94.807 Y131.674 E89.3183
G1 X94.512 Y130.245 E89.3911
G1 X95.020 Y127.834 E89.5141
G1 X96.117 Y126.344 E89.6064
G1 X97.237 Y125.535 E89.6753
G1 X98.963 Y125.034 E89.7650
G1 X100.138 Y124.466 E89.8301
G1 X101.419 Y124.313 E89.8944
G1 X102.930 Y124.704 E89.9723
G1 X103.989 Y125.486 E90.0380
