;Sliced by ideaMaker 5.3.2.8640, 2026-01-07 18:08:25 UTC+0100
;Slicer Version: 5.3.0.8620
;Dimension: 250.000 250.000 250.000 0.400
;Plate Shape: 0
;Origin Center: 0
;Extruder Offset #1: 25.000 0.000
;Filament Diameter #1: 1.750
;Filament Diameter #2: 1.750
;Filament Compensation #1: 94.000
;Filament Compensation #2: 90.000
;Filament Density #1: 1240.000
;Filament Density #2: 1240.000
;Filament Type #1: PLA
;Filament Type #2: PLA
;Filament Name #1: [Raise3D] Premium PLA 1.75mm
;Filament Name #2: [Raise3D] Premium PLA 1.75mm
;Filament #1: PLA 1.75mm
;Filament #2: PLA 1.75mm
;Printer Type: floppy
;Firmware: Klipper
;Bounding Box: 88.650 161.350 108.702 141.505 0.000 9.000
;Model Gap: 0.000
M221 T0 S94.00
M140 S40.00
M104 T0 S185.00
M109 T0 S185.00
T0
M190 S40.00
G21 ;metric values
G90 ;absolute positioning
M82 ;set extruder to absolute mode
M107 ;start with the fan off
G28 X0 Y0 ;move X/Y to min endstops
G28 Z0 ;move Z to min endstops
G1 Z15.0 F9000 ;move the platform down 15mm

G92 E0 ;zero the extruded length

G0 X43 Y27 F2000  ;go to the edge of the bed
G92 X0 Y0 E0 ;set zero to edge of the bed
G0 F9000 Z1 ;Z up with 1mm
G1 F200 Z0 ;Z home slowly

G1 Z15.0 F9000 ;move the platform down 15mm

G1 F9000 ;speed setting
G92 E-3 ;retraction
M117 Printing...
M1001
;TOTAL_NUM: 1
;PRINTING_TIME: 0
;REMAINING_TIME: 1104
;LAYER:0
;Z:0.300
;HEIGHT:0.300
;PRINTING: NON-OBJECT
;PRINTING_ID: -1
G1 F2400 E-3.0000
G0 F3900 X89.439 Y110.198
G0 F300 Z0.300
;TYPE:SKIRT
;WIDTH:0.400
G1 F1500 E0.0000
G1 F900 X91.278 Y108.702 E0.1183
G1 X158.393 Y108.707 E3.4667
G1 X160.467 Y109.886 E3.5857
G1 X161.258 Y112.117 E3.7038
G1 X161.350 Y137.696 E4.9799
G1 X160.563 Y139.802 E5.0921
G1 X158.725 Y141.297 E5.2103
G1 X92.458 Y141.505 E8.5164
G1 X90.352 Y140.715 E8.6286
G1 X88.858 Y138.879 E8.7467
G1 X88.650 Y112.312 E10.0722
G1 X89.439 Y110.198 E10.1847
G0 F3900 X89.812 Y110.342
G1 F900 X91.386 Y109.087 E10.2852
G1 X158.393 Y109.107 E13.6282
G1 X160.147 Y110.126 E13.7294
G1 X160.858 Y112.118 E13.8349
G1 X160.950 Y137.697 E15.1110
G1 X160.190 Y139.657 E15.2159
G1 X158.617 Y140.912 E15.3163
G1 X92.457 Y141.105 E18.6171
G1 X90.497 Y140.342 E18.7220
G1 X89.243 Y138.771 E18.8223
G1 X89.050 Y112.309 E20.1425
G1 X89.812 Y110.342 E20.2477
G0 F3900 X90.066 Y110.651
G1 F900 X91.500 Y109.471 E20.3404
G1 X158.393 Y109.507 E23.6777
G1 X159.824 Y110.362 E23.7609
G1 X160.458 Y112.119 E23.8541
G1 X160.550 Y137.698 E25.1302
G1 X159.935 Y139.348 E25.2181
G1 X158.503 Y140.529 E25.3107
G1 X92.456 Y140.705 E28.6058
G1 X90.806 Y140.087 E28.6937
G1 X89.626 Y138.657 E28.7862
G1 X89.450 Y112.306 E30.1009
G1 X90.066 Y110.651 E30.1890
G0 F3900 X90.439 Y110.797
G1 F900 X91.609 Y109.856 E30.2639
G1 X158.194 Y109.854 E33.5858
G1 X159.506 Y110.604 E33.6612
G1 X160.058 Y112.120 E33.7417
G1 X160.150 Y137.699 E35.0178
G1 X159.562 Y139.202 E35.0984
G1 X158.393 Y140.144 E35.1733
G1 X92.455 Y140.305 E38.4629
G1 X90.952 Y139.715 E38.5435
G1 X90.011 Y138.547 E38.6183
G1 X89.850 Y112.304 E39.9276
G1 X90.439 Y110.797 E40.0083
G0 F3900 X90.696 Y111.103
G1 F900 X91.726 Y110.238 E40.0754
G1 X158.194 Y110.254 E43.3915
G1 X159.184 Y110.841 E43.4490
G1 X159.658 Y112.121 E43.5171
G1 X159.750 Y137.700 E44.7932
G1 X159.305 Y138.896 E44.8569
G1 X158.275 Y139.762 E44.9240
G1 X92.454 Y139.905 E48.2078
G1 X91.258 Y139.458 E48.2715
G1 X90.393 Y138.429 E48.3386
G1 X90.250 Y112.302 E49.6421
G1 X90.696 Y111.103 E49.7059
G0 F3900 X91.068 Y111.251
G1 F900 X91.838 Y110.622 E49.7555
G1 X158.194 Y110.654 E53.0661
G1 X158.856 Y111.070 E53.1051
G1 X159.258 Y112.122 E53.1612
G1 X159.350 Y137.701 E54.4374
G1 X158.933 Y138.748 E54.4936
G1 X158.163 Y139.378 E54.5433
G1 X92.453 Y139.505 E57.8215
G1 X91.406 Y139.087 E57.8778
G1 X90.777 Y138.317 E57.9274
G1 X90.650 Y112.300 E59.2254
G1 X91.068 Y111.251 E59.2817
G0 F3900 X91.435 Y111.410
G1 F900 X91.944 Y111.008 E59.3141
G1 X157.995 Y111.001 E62.6094
G1 X158.538 Y111.312 E62.6406
G1 X158.858 Y112.123 E62.6841
G1 X158.950 Y137.702 E63.9603
G1 X158.566 Y138.589 E64.0085
G1 X158.057 Y138.992 E64.0409
G1 X92.452 Y139.105 E67.3139
G1 X91.565 Y138.720 E67.3622
G1 X91.163 Y138.211 E67.3945
G1 X91.050 Y112.298 E68.6873
G1 X91.435 Y111.410 E68.7356
G0 F3900 X91.795 Y111.585
G1 F900 X92.043 Y111.396 E68.7512
G1 X157.814 Y111.358 E72.0325
G1 X158.233 Y111.570 E72.0559
G1 X158.458 Y112.124 E72.0858
G1 X158.550 Y137.703 E73.3619
G1 X158.206 Y138.415 E73.4014
G1 X157.958 Y138.604 E73.4169
G1 X92.451 Y138.705 E76.6851
G1 X91.740 Y138.360 E76.7245
G1 X91.551 Y138.112 E76.7401
G1 X91.450 Y112.296 E78.0280
G1 X91.795 Y111.585 E78.0675
G0 F3900 X91.850 Y112.295
G1 F900 X92.142 Y111.783 E78.0969
G1 X157.658 Y111.726 E81.3655
G1 X157.945 Y111.848 E81.3810
G1 X158.058 Y112.125 E81.3960
G1 X158.150 Y137.704 E82.6721
G1 X157.858 Y138.217 E82.7016
G1 X92.450 Y138.305 E85.9648
G1 X91.938 Y138.013 E85.9942
G1 X91.850 Y112.295 E87.2773
G0 F3900 X92.250 Y112.295
G1 F900 X92.367 Y112.114 E87.2880
G1 X157.658 Y112.126 E90.5454
G1 X157.750 Y137.705 E91.8216
G1 X157.633 Y137.886 E91.8323
G1 X92.450 Y137.905 E95.0843
G1 X92.269 Y137.788 E95.0951
G1 X92.250 Y112.295 E96.3669
;PRINTING: Breaker_Filler_Plate_-_Schneider_-_1-UP.stl
;PRINTING_ID: 0
G1 F2400 E93.3669
G1 F300 Z0.500
G0 F3900 X92.650 Y112.495
;TYPE:WALL-OUTER
;WIDTH:0.400
G1 F300 Z0.300
G1 F1500 E96.3669
G1 F2400 X157.350 Y112.495 E99.5948
G1 X157.350 Y137.505 E100.8426
G1 X92.650 Y137.505 E104.0705
G1 X92.650 Y112.495 E105.3182
G0 F3900 X93.050 Y112.895
;TYPE:WALL-INNER
;WIDTH:0.400
G1 F2400 X156.950 Y112.895 E108.5062
G1 X156.950 Y137.105 E109.7140
G1 X93.050 Y137.105 E112.9020
G1 X93.050 Y112.895 E114.1099
G0 F3900 X93.450 Y113.295
G1 F2400 X156.550 Y113.295 E117.2579
G1 X156.550 Y136.705 E118.4259
G1 X93.450 Y136.705 E121.5739
G1 X93.450 Y113.295 E122.7419
G0 F3900 X93.850 Y113.695
G1 F2400 X156.150 Y113.695 E125.8500
G1 X156.150 Y136.305 E126.9780
G1 X93.850 Y136.305 E130.0862
G1 X93.850 Y113.695 E131.2142
G1 F2400 E128.2142
G1 F300 Z0.500
G0 F3900 X94.033 Y135.611
;TYPE:SOLID-FILL
;WIDTH:0.400
G1 F300 Z0.300
G1 F1500 E131.2142
G1 F2400 X94.543 Y136.120 E131.2502
G0 F2400 X95.108 Y136.120
G1 F2400 X94.033 Y135.046 E131.3260
G0 F2400 X94.033 Y134.480
G1 F2400 X95.674 Y136.120 E131.4417
G0 F2400 X96.240 Y136.120
G1 F2400 X94.033 Y133.914 E131.5974
G0 F2400 X94.033 Y133.349
G1 F2400 X96.805 Y136.120 E131.7930
G0 F2400 X97.371 Y136.120
G1 F2400 X94.033 Y132.783 E132.0284
G0 F2400 X94.033 Y132.217
G1 F2400 X97.937 Y136.120 E132.3038
G0 F2400 X98.502 Y136.120
G1 F2400 X94.033 Y131.651 E132.6192
G0 F2400 X94.033 Y131.086
G1 F2400 X99.068 Y136.120 E132.9744
G0 F2400 X99.634 Y136.120
G1 F2400 X94.033 Y130.520 E133.3695
G0 F2400 X94.033 Y129.954
G1 F2400 X100.199 Y136.120 E133.8046
G0 F2400 X100.765 Y136.120
G1 F2400 X94.033 Y129.389 E134.2795
G0 F2400 X94.033 Y128.823
G1 F2400 X101.331 Y136.120 E134.7944
G0 F2400 X101.896 Y136.120
G1 F2400 X94.033 Y128.257 E135.3492
G0 F2400 X94.033 Y127.692
G1 F2400 X102.462 Y136.120 E135.9438
G0 F2400 X103.028 Y136.120
G1 F2400 X94.033 Y127.126 E136.5784
G0 F2400 X94.033 Y126.560
G1 F2400 X103.593 Y136.120 E137.2530
G0 F2400 X104.159 Y136.120
G1 F2400 X94.033 Y125.995 E137.9674
G0 F2400 X94.033 Y125.429
G1 F2400 X104.725 Y136.120 E138.7217
G0 F2400 X105.291 Y136.120
G1 F2400 X94.033 Y124.863 E139.5160
G0 F2400 X94.033 Y124.298
G1 F2400 X105.856 Y136.120 E140.3501
G0 F2400 X106.422 Y136.120
G1 F2400 X94.033 Y123.732 E141.2242
G0 F2400 X94.033 Y123.166
G1 F2400 X106.988 Y136.120 E142.1382
G0 F2400 X107.553 Y136.120
G1 F2400 X94.033 Y122.601 E143.0921
G0 F2400 X94.033 Y122.035
G1 F2400 X108.119 Y136.120 E144.0859
G0 F2400 X108.685 Y136.120
G1 F2400 X94.033 Y121.469 E145.1196
G0 F2400 X94.033 Y120.903
G1 F2400 X109.250 Y136.120 E146.1933
G0 F2400 X109.816 Y136.120
G1 F2400 X94.033 Y120.338 E147.3068
G0 F2400 X94.033 Y119.772
G1 F2400 X110.382 Y136.120 E148.4603
G0 F2400 X110.947 Y136.120
G1 F2400 X94.033 Y119.206 E149.6537
G0 F2400 X94.033 Y118.641
G1 F2400 X111.513 Y136.120 E150.8869
G0 F2400 X112.079 Y136.120
G1 F2400 X94.033 Y118.075 E152.1601
G0 F2400 X94.033 Y117.509
G1 F2400 X112.644 Y136.120 E153.4733
G0 F2400 X113.210 Y136.120
G1 F2400 X94.033 Y116.944 E154.8263
G0 F2400 X94.033 Y116.378
G1 F2400 X113.776 Y136.120 E156.2192
G0 F2400 X114.341 Y136.120
G1 F2400 X94.033 Y115.812 E157.6520
G0 F2400 X94.033 Y115.247
G1 F2400 X114.907 Y136.120 E159.1248
G0 F2400 X115.473 Y136.120
G1 F2400 X94.033 Y114.681 E160.6375
G0 F2400 X94.033 Y114.115
G1 F2400 X116.039 Y136.120 E162.1901
G0 F2400 X116.604 Y136.120
G1 F2400 X94.362 Y113.878 E163.7594
G0 F2400 X94.928 Y113.878
G1 F2400 X117.170 Y136.120 E165.3286
G0 F2400 X117.736 Y136.120
G1 F2400 X95.494 Y113.878 E166.8979
G0 F2400 X96.059 Y113.878
G1 F2400 X118.301 Y136.120 E168.4672
G0 F2400 X118.867 Y136.120
G1 F2400 X96.625 Y113.878 E170.0365
G0 F2400 X97.191 Y113.878
G1 F2400 X119.433 Y136.120 E171.6058
G0 F2400 X119.998 Y136.120
G1 F2400 X97.756 Y113.878 E173.1751
G0 F2400 X98.322 Y113.878
G1 F2400 X120.564 Y136.120 E174.7444
G0 F2400 X121.130 Y136.120
G1 F2400 X98.888 Y113.878 E176.3137
G0 F2400 X99.453 Y113.878
G1 F2400 X121.695 Y136.120 E177.8830
G0 F2400 X122.261 Y136.120
G1 F2400 X100.019 Y113.878 E179.4523
G0 F2400 X100.585 Y113.878
G1 F2400 X122.827 Y136.120 E181.0216
G0 F2400 X123.392 Y136.120
G1 F2400 X101.150 Y113.878 E182.5909
G0 F2400 X101.716 Y113.878
G1 F2400 X123.958 Y136.120 E184.1602
G0 F2400 X124.524 Y136.120
G1 F2400 X102.282 Y113.878 E185.7295
G0 F2400 X102.847 Y113.878
G1 F2400 X125.090 Y136.120 E187.2988
G0 F2400 X125.655 Y136.120
G1 F2400 X103.413 Y113.878 E188.8681
G0 F2400 X103.979 Y113.878
G1 F2400 X126.221 Y136.120 E190.4374
G0 F2400 X126.787 Y136.120
G1 F2400 X104.545 Y113.878 E192.0067
G0 F2400 X105.110 Y113.878
G1 F2400 X127.352 Y136.120 E193.5760
G0 F2400 X127.918 Y136.120
G1 F2400 X105.676 Y113.878 E195.1453
G0 F2400 X106.242 Y113.878
G1 F2400 X128.484 Y136.120 E196.7145
G0 F2400 X129.049 Y136.120
G1 F2400 X106.807 Y113.878 E198.2838
G0 F2400 X107.373 Y113.878
G1 F2400 X129.615 Y136.120 E199.8531
G0 F2400 X130.181 Y136.120
G1 F2400 X107.939 Y113.878 E201.4224
G0 F2400 X108.504 Y113.878
G1 F2400 X130.746 Y136.120 E202.9917
G0 F2400 X131.312 Y136.120
G1 F2400 X109.070 Y113.878 E204.5610
G0 F2400 X109.636 Y113.878
G1 F2400 X131.878 Y136.120 E206.1303
G0 F2400 X132.443 Y136.120
G1 F2400 X110.201 Y113.878 E207.6996
G0 F2400 X110.767 Y113.878
G1 F2400 X133.009 Y136.120 E209.2689
G0 F2400 X133.575 Y136.120
G1 F2400 X111.333 Y113.878 E210.8382
G0 F2400 X111.898 Y113.878
G1 F2400 X134.140 Y136.120 E212.4075
G0 F2400 X134.706 Y136.120
G1 F2400 X112.464 Y113.878 E213.9768
G0 F2400 X113.030 Y113.878
G1 F2400 X135.272 Y136.120 E215.5461
G0 F2400 X135.838 Y136.120
G1 F2400 X113.595 Y113.878 E217.1154
G0 F2400 X114.161 Y113.878
G1 F2400 X136.403 Y136.120 E218.6847
G0 F2400 X136.969 Y136.120
G1 F2400 X114.727 Y113.878 E220.2540
G0 F2400 X115.293 Y113.878
G1 F2400 X137.535 Y136.120 E221.8233
G0 F2400 X138.100 Y136.120
G1 F2400 X115.858 Y113.878 E223.3926
G0 F2400 X116.424 Y113.878
G1 F2400 X138.666 Y136.120 E224.9619
G0 F2400 X139.232 Y136.120
G1 F2400 X116.990 Y113.878 E226.5312
G0 F2400 X117.555 Y113.878
G1 F2400 X139.797 Y136.120 E228.1004
G0 F2400 X140.363 Y136.120
G1 F2400 X118.121 Y113.878 E229.6697
G0 F2400 X118.687 Y113.878
G1 F2400 X140.929 Y136.120 E231.2390
G0 F2400 X141.494 Y136.120
G1 F2400 X119.252 Y113.878 E232.8083
G0 F2400 X119.818 Y113.878
G1 F2400 X142.060 Y136.120 E234.3776
G0 F2400 X142.626 Y136.120
G1 F2400 X120.384 Y113.878 E235.9469
G0 F2400 X120.949 Y113.878
G1 F2400 X143.191 Y136.120 E237.5162
G0 F2400 X143.757 Y136.120
G1 F2400 X121.515 Y113.878 E239.0855
G0 F2400 X122.081 Y113.878
G1 F2400 X144.323 Y136.120 E240.6548
G0 F2400 X144.889 Y136.120
G1 F2400 X122.646 Y113.878 E242.2241
G0 F2400 X123.212 Y113.878
G1 F2400 X145.454 Y136.120 E243.7934
G0 F2400 X146.020 Y136.120
G1 F2400 X123.778 Y113.878 E245.3627
G0 F2400 X124.344 Y113.878
G1 F2400 X146.586 Y136.120 E246.9320
G0 F2400 X147.151 Y136.120
G1 F2400 X124.909 Y113.878 E248.5013
G0 F2400 X125.475 Y113.878
G1 F2400 X147.717 Y136.120 E250.0706
G0 F2400 X148.283 Y136.120
G1 F2400 X126.041 Y113.878 E251.6399
G0 F2400 X126.606 Y113.878
G1 F2400 X148.848 Y136.120 E253.2092
G0 F2400 X149.414 Y136.120
G1 F2400 X127.172 Y113.878 E254.7785
G0 F2400 X127.738 Y113.878
G1 F2400 X149.980 Y136.120 E256.3478
G0 F2400 X150.545 Y136.120
G1 F2400 X128.303 Y113.878 E257.9171
G0 F2400 X128.869 Y113.878
G1 F2400 X151.111 Y136.120 E259.4863
G0 F2400 X151.677 Y136.120
G1 F2400 X129.435 Y113.878 E261.0556
G0 F2400 X130.000 Y113.878
G1 F2400 X152.242 Y136.120 E262.6249
G0 F2400 X152.808 Y136.120
G1 F2400 X130.566 Y113.878 E264.1942
G0 F2400 X131.132 Y113.878
G1 F2400 X153.374 Y136.120 E265.7635
G0 F2400 X153.939 Y136.120
G1 F2400 X131.697 Y113.878 E267.3328
G0 F2400 X132.263 Y113.878
G1 F2400 X154.505 Y136.120 E268.9021
G0 F2400 X155.071 Y136.120
G1 F2400 X132.829 Y113.878 E270.4714
G0 F2400 X133.394 Y113.878
G1 F2400 X155.637 Y136.120 E272.0407
G0 F2400 X155.965 Y135.884
G1 F2400 X133.960 Y113.878 E273.5933
G0 F2400 X134.526 Y113.878
G1 F2400 X155.965 Y135.318 E275.1060
G0 F2400 X155.965 Y134.752
G1 F2400 X135.092 Y113.878 E276.5787
G0 F2400 X135.657 Y113.878
G1 F2400 X155.965 Y134.186 E278.0116
G0 F2400 X155.965 Y133.621
G1 F2400 X136.223 Y113.878 E279.4045
G0 F2400 X136.789 Y113.878
G1 F2400 X155.965 Y133.055 E280.7575
G0 F2400 X155.965 Y132.489
G1 F2400 X137.354 Y113.878 E282.0706
G0 F2400 X137.920 Y113.878
G1 F2400 X155.965 Y131.924 E283.3438
G0 F2400 X155.965 Y131.358
G1 F2400 X138.486 Y113.878 E284.5771
G0 F2400 X139.051 Y113.878
G1 F2400 X155.965 Y130.792 E285.7705
G0 F2400 X155.965 Y130.227
G1 F2400 X139.617 Y113.878 E286.9240
G0 F2400 X140.183 Y113.878
G1 F2400 X155.965 Y129.661 E288.0375
G0 F2400 X155.965 Y129.095
G1 F2400 X140.748 Y113.878 E289.1111
G0 F2400 X141.314 Y113.878
G1 F2400 X155.965 Y128.530 E290.1449
G0 F2400 X155.965 Y127.964
G1 F2400 X141.880 Y113.878 E291.1387
G0 F2400 X142.445 Y113.878
G1 F2400 X155.965 Y127.398 E292.0926
G0 F2400 X155.965 Y126.833
G1 F2400 X143.011 Y113.878 E293.0066
G0 F2400 X143.577 Y113.878
G1 F2400 X155.965 Y126.267 E293.8807
G0 F2400 X155.965 Y125.701
G1 F2400 X144.143 Y113.878 E294.7148
G0 F2400 X144.708 Y113.878
G1 F2400 X155.965 Y125.135 E295.5091
G0 F2400 X155.965 Y124.570
G1 F2400 X145.274 Y113.878 E296.2634
G0 F2400 X145.840 Y113.878
G1 F2400 X155.965 Y124.004 E296.9778
G0 F2400 X155.965 Y123.438
G1 F2400 X146.405 Y113.878 E297.6523
G0 F2400 X146.971 Y113.878
G1 F2400 X155.965 Y122.873 E298.2869
G0 F2400 X155.965 Y122.307
G1 F2400 X147.537 Y113.878 E298.8816
G0 F2400 X148.102 Y113.878
G1 F2400 X155.965 Y121.741 E299.4364
G0 F2400 X155.965 Y121.176
G1 F2400 X148.668 Y113.878 E299.9513
G0 F2400 X149.234 Y113.878
G1 F2400 X155.965 Y120.610 E300.4262
G0 F2400 X155.965 Y120.044
G1 F2400 X149.799 Y113.878 E300.8613
G0 F2400 X150.365 Y113.878
G1 F2400 X155.965 Y119.479 E301.2564
G0 F2400 X155.965 Y118.913
G1 F2400 X150.931 Y113.878 E301.6116
G0 F2400 X151.496 Y113.878
G1 F2400 X155.965 Y118.347 E301.9269
G0 F2400 X155.965 Y117.782
G1 F2400 X152.062 Y113.878 E302.2023
G0 F2400 X152.628 Y113.878
G1 F2400 X155.965 Y117.216 E302.4378
G0 F2400 X155.965 Y116.650
G1 F2400 X153.193 Y113.878 E302.6334
G0 F2400 X153.759 Y113.878
G1 F2400 X155.965 Y116.085 E302.7891
G0 F2400 X155.965 Y115.519
G1 F2400 X154.325 Y113.878 E302.9048
G0 F2400 X154.891 Y113.878
G1 F2400 X155.965 Y114.953 E302.9806
G0 F2400 X155.965 Y114.387
G1 F2400 X155.456 Y113.878 E303.0166
;PRINTING_TIME: 248
;REMAINING_TIME: 856
;LAYER:1
;Z:0.600
;HEIGHT:0.300
M106 S64
;PRINTING: Breaker_Filler_Plate_-_Schneider_-_1-UP.stl
;PRINTING_ID: 0
G1 F2400 E300.0166
G1 F300 Z0.800
G0 F3900 X93.150 Y112.905
G0 F300 Z0.600
G0 F3900 X92.650 Y112.495
;TYPE:WALL-OUTER
;WIDTH:0.400
G1 F300 Z0.600
G1 F1500 E303.0166
G1 F2100 X157.350 Y112.495 E306.2445
G1 X157.350 Y137.505 E307.4922
G1 X92.650 Y137.505 E310.7201
G1 X92.650 Y112.495 E311.9679
G0 F3900 X93.050 Y112.895
;TYPE:WALL-INNER
;WIDTH:0.400
;FLOW:90.0
G1 F2400 X156.950 Y112.895 E314.8370
G1 X156.950 Y137.105 E315.9241
