;Sliced by ideaMaker 5.2.3.8580, 2025-04-26 19:15:59 UTC+0200
;Slicer Version: 5.2.3.8580
;Dimension: 250.000 250.000 250.000 0.400
;Plate Shape: 0
;Origin Center: 0
;Extruder Offset #1: 25.000 0.000
;Filament Diameter #1: 1.750
;Filament Diameter #2: 1.750
;Filament Compensation #1: 94.000
;Filament Compensation #2: 90.000
;Filament Density #1: 1240.000
;Filament Density #2: 1240.000
;Filament Type #1: PLA
;Filament Type #2: PLA
;Filament Name #1: [Raise3D] Premium PLA 1.75mm
;Filament Name #2: [Raise3D] Premium PLA 1.75mm
;Filament #1: PLA 1.75mm
;Filament #2: PLA 1.75mm
;Printer Type: floppy
;Firmware: Klipper
;Bounding Box: 105.300 145.170 104.660 144.400 0.000 30.000
;Model Gap: 0.000
M221 T0 S94.00
M140 S50.00
M104 T0 S190.00
M109 T0 S190.00
T0
M190 S50.00
G21 ;metric values
G90 ;absolute positioning
M82 ;set extruder to absolute mode
M107 ;start with the fan off
G28 X0 Y0 ;move X/Y to min endstops
G28 Z0 ;move Z to min endstops
G1 Z15.0 F9000 ;move the platform down 15mm
G92 E0 ;zero the extruded length
G0 X43 Y27 F2000  ;go to the edge of the bed
G92 X0 Y0 E0 ;set zero to edge of the bed
G0 F9000 Z1 ;Z up with 1mm
G1 F200 Z0 ;Z home slowly
G1 Z15.0 F9000 ;move the platform down 15mm
G1 F9000 ;speed setting
G92 E-3 ;retraction
M117 Printing...
M1001
;TOTAL_NUM: 1
;PRINTING_TIME: 0
;REMAINING_TIME: 2346
;LAYER:0
;Z:0.300
;HEIGHT:0.300
;PRINTING: NON-OBJECT
;PRINTING_ID: -1
G1 F2400 E-3.0000
G0 F3900 X107.211 Y108.426
G0 F300 Z0.300
;TYPE:SKIRT
;WIDTH:0.400
G1 F1500 E0.0000
G1 F900 X109.173 Y106.590 E0.1341
G1 X110.402 Y105.936 E0.2035
G1 X112.463 Y105.160 E0.3134
G1 X115.296 Y104.665 E0.4569
G1 X127.578 Y104.660 E1.0696
G1 X130.186 Y105.131 E1.2018
G1 X132.621 Y105.955 E1.3301
G1 X135.716 Y107.527 E1.5033
G1 X138.657 Y109.735 E1.6867
G1 X141.560 Y112.993 E1.9045
G1 X143.180 Y115.633 E2.0590
G1 X144.302 Y118.284 E2.2026
G1 X145.060 Y121.557 E2.3702
G1 X145.170 Y125.219 E2.5530
G1 X143.663 Y128.795 E2.7466
G1 X143.358 Y129.116 E2.7687
G1 X143.986 Y129.660 E2.8101
G1 X144.801 Y131.259 E2.8997
G1 X145.053 Y135.145 E3.0940
G1 X143.776 Y139.653 E3.3277
G1 X142.073 Y141.917 E3.4691
G1 X139.119 Y143.827 E3.6446
G1 X137.297 Y144.250 E3.7379
G1 X122.793 Y144.400 E4.4615
G1 X117.310 Y143.836 E4.7365
G1 X111.628 Y141.643 E5.0404
G1 X108.870 Y139.172 E5.2251
G1 X106.639 Y135.356 E5.4456
G1 X106.580 Y134.506 E5.4881
G1 X105.841 Y131.801 E5.6280
G1 X105.391 Y127.271 E5.8552
G1 X105.300 Y113.272 E6.5536
G1 X107.211 Y108.426 E6.8135
G0 F3900 X107.486 Y108.717
G1 F900 X109.361 Y106.943 E6.9423
G1 X110.590 Y106.289 E7.0117
G1 X112.603 Y105.535 E7.1190
G1 X115.364 Y105.059 E7.2587
G1 X127.578 Y105.060 E7.8681
G1 X130.114 Y105.524 E7.9967
G1 X132.492 Y106.334 E8.1220
G1 X135.535 Y107.883 E8.2924
G1 X138.416 Y110.054 E8.4724
G1 X141.261 Y113.259 E8.6862
G1 X142.839 Y115.842 E8.8372
G1 X143.933 Y118.439 E8.9778
G1 X144.670 Y121.647 E9.1420
G1 X144.770 Y125.230 E9.3208
G1 X143.296 Y128.636 E9.5060
G1 X142.737 Y129.134 E9.5433
G1 X143.630 Y129.842 E9.6002
G1 X144.445 Y131.441 E9.6897
G1 X144.668 Y135.038 E9.8695
G1 X143.454 Y139.415 E10.0961
G1 X141.854 Y141.583 E10.2306
G1 X139.029 Y143.437 E10.3991
G1 X137.207 Y143.860 E10.4925
G1 X122.789 Y144.000 E11.2118
G1 X117.452 Y143.462 E11.4794
G1 X111.893 Y141.344 E11.7762
G1 X109.213 Y138.967 E11.9549
G1 X107.038 Y135.328 E12.1664
G1 X106.976 Y134.439 E12.2109
G1 X106.227 Y131.696 E12.3528
G1 X105.789 Y127.232 E12.5765
G1 X105.700 Y113.269 E13.2732
G1 X107.486 Y108.717 E13.5171
G0 F3900 X107.763 Y109.006
G1 F900 X109.549 Y107.296 E13.6405
G1 X110.778 Y106.642 E13.7099
G1 X112.743 Y105.910 E13.8146
G1 X115.431 Y105.453 E13.9506
G1 X127.506 Y105.453 E14.5530
G1 X130.042 Y105.917 E14.6816
G1 X132.362 Y106.712 E14.8040
G1 X135.353 Y108.239 E14.9715
G1 X138.175 Y110.373 E15.1480
G1 X140.961 Y113.524 E15.3579
G1 X142.497 Y116.050 E15.5054
G1 X143.564 Y118.594 E15.6430
G1 X144.280 Y121.736 E15.8038
G1 X144.370 Y125.240 E15.9787
G1 X142.931 Y128.473 E16.1552
G1 X142.075 Y129.144 E16.2095
G1 X143.274 Y130.024 E16.2837
G1 X144.089 Y131.623 E16.3732
G1 X144.282 Y134.933 E16.5386
G1 X143.130 Y139.180 E16.7582
G1 X141.632 Y141.250 E16.8856
G1 X138.939 Y143.047 E17.0472
G1 X137.117 Y143.470 E17.1405
G1 X122.785 Y143.600 E17.8555
G1 X117.593 Y143.088 E18.1158
G1 X112.157 Y141.043 E18.4056
G1 X109.554 Y138.758 E18.5784
G1 X107.437 Y135.300 E18.7807
G1 X107.372 Y134.371 E18.8271
G1 X106.613 Y131.591 E18.9709
G1 X106.187 Y127.193 E19.1913
G1 X106.100 Y113.267 E19.8861
G1 X107.763 Y109.006 E20.1143
G0 F3900 X108.041 Y109.293
G1 F900 X109.737 Y107.649 E20.2322
G1 X110.966 Y106.995 E20.3016
G1 X112.882 Y106.285 E20.4036
G1 X115.497 Y105.848 E20.5358
G1 X127.434 Y105.846 E21.1314
G1 X129.970 Y106.310 E21.2600
G1 X132.232 Y107.090 E21.3794
G1 X135.171 Y108.595 E21.5441
G1 X137.933 Y110.692 E21.7171
G1 X140.661 Y113.788 E21.9230
G1 X142.155 Y116.257 E22.0670
G1 X143.195 Y118.748 E22.2016
G1 X143.890 Y121.824 E22.3590
G1 X143.970 Y125.249 E22.5299
G1 X142.567 Y128.306 E22.6977
G1 X141.675 Y128.936 E22.7522
G1 X141.675 Y129.362 E22.7734
G1 X142.918 Y130.206 E22.8484
G1 X143.733 Y131.805 E22.9379
G1 X143.895 Y134.831 E23.0891
G1 X142.804 Y138.949 E23.3016
G1 X141.407 Y140.919 E23.4221
G1 X138.849 Y142.657 E23.5764
G1 X137.027 Y143.080 E23.6697
G1 X122.782 Y143.200 E24.3805
G1 X117.732 Y142.713 E24.6336
G1 X112.419 Y140.741 E24.9163
G1 X109.893 Y138.545 E25.0833
G1 X107.836 Y135.272 E25.2762
G1 X107.768 Y134.303 E25.3246
G1 X106.999 Y131.486 E25.4703
G1 X106.585 Y127.155 E25.6874
G1 X106.500 Y113.265 E26.3803
G1 X108.041 Y109.293 E26.5929
G0 F3900 X108.321 Y109.578
G1 F900 X109.925 Y108.002 E26.7051
G1 X111.154 Y107.348 E26.7745
G1 X113.020 Y106.660 E26.8738
G1 X115.562 Y106.243 E27.0023
G1 X127.362 Y106.239 E27.5910
G1 X129.898 Y106.703 E27.7196
G1 X132.101 Y107.468 E27.8360
G1 X134.988 Y108.951 E27.9979
G1 X137.691 Y111.010 E28.1674
G1 X140.360 Y114.052 E28.3693
G1 X141.812 Y116.463 E28.5097
G1 X142.826 Y118.902 E28.6415
G1 X143.500 Y121.911 E28.7953
G1 X143.570 Y125.257 E28.9623
G1 X142.206 Y128.135 E29.1212
G1 X141.274 Y128.714 E29.1759
G1 X141.276 Y129.584 E29.2193
G1 X142.562 Y130.388 E29.2950
G1 X143.377 Y131.987 E29.3845
G1 X143.508 Y134.731 E29.5216
G1 X142.475 Y138.721 E29.7272
G1 X141.179 Y140.590 E29.8407
G1 X138.759 Y142.267 E29.9876
G1 X136.937 Y142.690 E30.0809
G1 X122.779 Y142.800 E30.7873
G1 X117.869 Y142.337 E31.0333
G1 X112.680 Y140.438 E31.3090
G1 X110.229 Y138.328 E31.4703
G1 X108.235 Y135.244 E31.6536
G1 X108.164 Y134.235 E31.7040
G1 X107.385 Y131.381 E31.8516
G1 X107.140 Y127.745 E32.0334
G1 X106.974 Y127.061 E32.0685
G1 X106.900 Y113.263 E32.7569
G1 X108.321 Y109.578 E32.9540
G0 F3900 X108.604 Y109.861
G1 F900 X110.113 Y108.355 E33.0603
G1 X111.342 Y107.701 E33.1298
G1 X113.158 Y107.036 E33.2263
G1 X115.626 Y106.638 E33.3510
G1 X127.362 Y106.639 E33.9365
G1 X129.825 Y107.096 E34.0615
G1 X131.969 Y107.846 E34.1748
G1 X134.805 Y109.307 E34.3340
G1 X137.448 Y111.328 E34.5000
G1 X140.059 Y114.315 E34.6979
G1 X141.469 Y116.669 E34.8348
G1 X142.456 Y119.055 E34.9636
G1 X143.110 Y121.998 E35.1140
G1 X143.170 Y125.264 E35.2770
G1 X141.847 Y127.959 E35.4268
G1 X140.874 Y128.472 E35.4816
G1 X140.876 Y129.817 E35.5488
G1 X142.206 Y130.570 E35.6250
G1 X143.021 Y132.169 E35.7145
G1 X143.120 Y134.633 E35.8376
G1 X142.144 Y138.497 E36.0364
G1 X140.948 Y140.264 E36.1428
G1 X138.669 Y141.877 E36.2821
G1 X136.847 Y142.300 E36.3755
G1 X122.776 Y142.400 E37.0775
G1 X118.005 Y141.961 E37.3165
G1 X112.940 Y140.134 E37.5851
G1 X110.562 Y138.106 E37.7411
G1 X108.634 Y135.216 E37.9144
G1 X108.560 Y134.167 E37.9669
G1 X107.771 Y131.276 E38.1164
G1 X107.537 Y127.681 E38.2961
G1 X107.363 Y126.966 E38.3328
G1 X107.300 Y113.261 E39.0166
G1 X108.604 Y109.861 E39.1982
G0 F3900 X108.889 Y110.142
G1 F900 X110.301 Y108.708 E39.2986
G1 X111.530 Y108.054 E39.3681
G1 X113.295 Y107.412 E39.4618
G1 X115.689 Y107.033 E39.5827
G1 X127.289 Y107.032 E40.1615
G1 X129.752 Y107.489 E40.2864
G1 X131.836 Y108.223 E40.3967
G1 X134.621 Y109.662 E40.5531
G1 X137.204 Y111.645 E40.7155
G1 X139.757 Y114.578 E40.9095
G1 X141.125 Y116.874 E41.0429
G1 X142.086 Y119.207 E41.1687
G1 X142.719 Y122.084 E41.3157
G1 X142.770 Y125.270 E41.4747
G1 X141.491 Y127.777 E41.6151
G1 X140.473 Y128.207 E41.6702
G1 X140.477 Y130.056 E41.7625
G1 X141.894 Y130.820 E41.8428
G1 X142.664 Y132.349 E41.9282
G1 X142.732 Y134.537 E42.0374
G1 X141.810 Y138.277 E42.2296
G1 X140.713 Y139.940 E42.3290
G1 X138.579 Y141.487 E42.4605
G1 X136.757 Y141.910 E42.5538
G1 X122.773 Y142.000 E43.2515
G1 X118.139 Y141.584 E43.4836
G1 X113.198 Y139.829 E43.7452
G1 X110.891 Y137.879 E43.8959
G1 X109.033 Y135.188 E44.0590
G1 X108.956 Y134.099 E44.1135
G1 X108.157 Y131.171 E44.2649
G1 X107.934 Y127.617 E44.4426
G1 X107.752 Y126.871 E44.4809
G1 X107.700 Y113.259 E45.1600
G1 X108.889 Y110.142 E45.3264
G0 F3900 X109.177 Y110.420
G1 F900 X110.489 Y109.061 E45.4207
G1 X111.718 Y108.407 E45.4901
G1 X113.431 Y107.788 E45.5810
G1 X115.750 Y107.428 E45.6981
G1 X127.216 Y107.425 E46.2701
G1 X129.679 Y107.882 E46.3951
G1 X131.702 Y108.600 E46.5022
G1 X134.437 Y110.017 E46.6559
G1 X136.960 Y111.962 E46.8148
G1 X139.455 Y114.840 E47.0048
G1 X140.781 Y117.078 E47.1346
G1 X141.716 Y119.359 E47.2576
G1 X142.328 Y122.169 E47.4011
G1 X142.370 Y125.275 E47.5561
G1 X141.138 Y127.589 E47.6868
G1 X140.073 Y127.910 E47.7423
G1 X140.077 Y130.301 E47.8616
G1 X141.587 Y131.076 E47.9463
G1 X142.306 Y132.527 E48.0271
G1 X142.343 Y134.443 E48.1227
G1 X141.473 Y138.061 E48.3084
G1 X140.474 Y139.619 E48.4007
G1 X138.489 Y141.097 E48.5242
G1 X136.667 Y141.520 E48.6175
G1 X122.771 Y141.600 E49.3108
G1 X118.175 Y141.186 E49.5410
G1 X113.455 Y139.522 E49.7907
G1 X111.220 Y137.652 E49.9361
G1 X109.362 Y134.961 E50.0992
G1 X109.356 Y134.044 E50.1450
G1 X108.543 Y131.066 E50.2990
G1 X108.331 Y127.553 E50.4745
G1 X108.141 Y126.776 E50.5145
G1 X108.100 Y113.258 E51.1889
G1 X109.177 Y110.420 E51.3403
G0 F3900 X109.468 Y110.695
G1 F900 X110.677 Y109.414 E51.4282
G1 X111.906 Y108.760 E51.4976
G1 X113.566 Y108.164 E51.5856
G1 X115.810 Y107.823 E51.6989
G1 X127.216 Y107.825 E52.2679
G1 X129.605 Y108.275 E52.3892
G1 X131.567 Y108.977 E52.4932
G1 X134.253 Y110.372 E52.6442
G1 X136.715 Y112.278 E52.7995
G1 X139.152 Y115.101 E52.9856
G1 X140.436 Y117.281 E53.1118
G1 X141.346 Y119.510 E53.2319
G1 X141.937 Y122.253 E53.3719
G1 X141.970 Y125.279 E53.5229
G1 X140.888 Y127.276 E53.6362
G1 X139.672 Y127.604 E53.6990
G1 X139.677 Y130.559 E53.8464
G1 X141.233 Y131.263 E53.9317
G1 X141.906 Y132.538 E54.0036
G1 X141.954 Y134.352 E54.0941
G1 X141.133 Y137.850 E54.2734
G1 X140.230 Y139.302 E54.3587
G1 X138.399 Y140.707 E54.4738
G1 X136.577 Y141.130 E54.5671
G1 X122.769 Y141.200 E55.2560
G1 X118.211 Y140.788 E55.4844
G1 X113.710 Y139.214 E55.7223
G1 X111.547 Y137.422 E55.8624
G1 X109.753 Y134.876 E56.0178
G1 X109.756 Y133.991 E56.0619
G1 X108.929 Y130.961 E56.2186
G1 X108.728 Y127.489 E56.3921
G1 X108.530 Y126.681 E56.4336
G1 X108.500 Y113.257 E57.1034
G1 X109.468 Y110.695 E57.2400
G0 F3900 X109.763 Y110.966
G1 F900 X110.865 Y109.767 E57.3212
G1 X112.094 Y109.113 E57.3907
G1 X113.700 Y108.541 E57.4758
G1 X115.869 Y108.219 E57.5852
G1 X127.142 Y108.218 E58.1476
G1 X129.531 Y108.668 E58.2689
G1 X131.431 Y109.353 E58.3696
G1 X134.068 Y110.727 E58.5180
G1 X136.470 Y112.594 E58.6697
G1 X138.849 Y115.362 E58.8518
G1 X140.091 Y117.483 E58.9745
G1 X140.975 Y119.660 E59.0917
G1 X141.546 Y122.336 E59.2282
G1 X141.570 Y125.282 E59.3752
G1 X140.641 Y126.961 E59.4709
G1 X139.271 Y127.288 E59.5412
G1 X139.277 Y130.833 E59.7180
G1 X140.885 Y131.461 E59.8042
G1 X141.506 Y132.552 E59.8668
G1 X141.564 Y134.263 E59.9522
G1 X140.790 Y137.644 E60.1252
G1 X139.981 Y138.989 E60.2036
G1 X138.309 Y140.317 E60.3101
G1 X136.487 Y140.740 E60.4034
G1 X122.767 Y140.800 E61.0879
G1 X118.247 Y140.390 E61.3143
G1 X113.964 Y138.905 E61.5405
G1 X111.872 Y137.188 E61.6755
G1 X110.143 Y134.787 E61.8231
G1 X110.157 Y133.910 E61.8669
G1 X109.868 Y133.253 E61.9027
G1 X109.736 Y132.064 E61.9624
G1 X109.328 Y130.938 E62.0221
G1 X109.125 Y127.425 E62.1977
G1 X108.930 Y126.680 E62.2361
G1 X108.900 Y113.256 E62.9058
G1 X109.763 Y110.966 E63.0279
G0 F3900 X110.062 Y111.232
G1 F900 X111.053 Y110.120 E63.1022
G1 X112.282 Y109.466 E63.1717
G1 X113.833 Y108.918 E63.2538
G1 X115.926 Y108.615 E63.3593
G1 X127.142 Y108.618 E63.9188
G1 X129.456 Y109.061 E64.0364
G1 X131.294 Y109.729 E64.1339
G1 X133.883 Y111.082 E64.2797
G1 X136.224 Y112.909 E64.4278
G1 X138.545 Y115.622 E64.6060
G1 X139.745 Y117.684 E64.7250
G1 X140.604 Y119.810 E64.8394
G1 X141.155 Y122.419 E64.9724
G1 X141.170 Y125.284 E65.1154
G1 X140.398 Y126.643 E65.1933
G1 X138.870 Y126.964 E65.2712
G1 X138.877 Y131.122 E65.4787
G1 X140.546 Y131.673 E65.5664
G1 X141.106 Y132.569 E65.6191
G1 X141.174 Y134.176 E65.6993
G1 X140.444 Y137.443 E65.8663
G1 X139.726 Y138.681 E65.9377
G1 X138.219 Y139.927 E66.0353
G1 X136.397 Y140.350 E66.1286
G1 X122.766 Y140.400 E66.8087
G1 X118.283 Y139.992 E67.0332
G1 X114.216 Y138.595 E67.2478
G1 X112.194 Y136.951 E67.3778
G1 X110.532 Y134.694 E67.5176
G1 X110.560 Y133.826 E67.5610
G1 X110.266 Y133.209 E67.5951
G1 X110.129 Y131.971 E67.6572
G1 X109.727 Y130.915 E67.7136
G1 X109.521 Y127.358 E67.8913
G1 X109.330 Y126.679 E67.9265
G1 X109.300 Y113.255 E68.5962
G1 X110.062 Y111.232 E68.7041
G0 F3900 X110.365 Y111.493
G1 F900 X111.241 Y110.473 E68.7712
G1 X112.470 Y109.819 E68.8406
G1 X113.965 Y109.296 E68.9196
G1 X115.982 Y109.011 E69.0213
G1 X127.067 Y109.011 E69.5743
G1 X129.381 Y109.454 E69.6919
G1 X131.156 Y110.105 E69.7862
G1 X133.697 Y111.436 E69.9293
G1 X135.977 Y113.224 E70.0738
G1 X138.241 Y115.881 E70.2480
G1 X139.399 Y117.884 E70.3634
G1 X140.233 Y119.959 E70.4750
G1 X140.763 Y122.501 E70.6045
G1 X140.770 Y125.285 E70.7434
G1 X140.160 Y126.322 E70.8035
G1 X138.470 Y126.630 E70.8892
G1 X138.477 Y131.427 E71.1285
G1 X140.220 Y131.905 E71.2187
G1 X140.707 Y132.589 E71.2605
G1 X140.783 Y134.091 E71.3356
G1 X140.095 Y137.248 E71.4968
G1 X139.464 Y138.379 E71.5614
G1 X138.129 Y139.537 E71.6496
G1 X136.307 Y139.960 E71.7429
G1 X122.765 Y140.000 E72.4185
G1 X118.319 Y139.594 E72.6412
G1 X114.468 Y138.285 E72.8442
G1 X112.446 Y136.641 E72.9742
G1 X111.990 Y135.844 E73.0200
G1 X110.914 Y134.575 E73.1030
G1 X110.966 Y133.739 E73.1448
G1 X110.664 Y133.165 E73.1771
G1 X110.521 Y131.875 E73.2419
G1 X110.126 Y130.892 E73.2947
G1 X109.917 Y127.286 E73.4749
G1 X109.730 Y126.678 E73.5067
G1 X109.700 Y113.254 E74.1764
G1 X110.365 Y111.493 E74.2703
G0 F3900 X110.674 Y111.747
G1 F900 X111.429 Y110.826 E74.3297
G1 X112.658 Y110.172 E74.3992
G1 X114.096 Y109.674 E74.4751
G1 X116.037 Y109.407 E74.5729
G1 X127.067 Y109.411 E75.1231
G1 X129.305 Y109.847 E75.2369
G1 X131.017 Y110.480 E75.3280
G1 X133.511 Y111.790 E75.4685
G1 X135.729 Y113.538 E75.6094
G1 X137.936 Y116.140 E75.7796
G1 X138.146 Y116.718 E75.8103
G1 X139.066 Y118.105 E75.8933
G1 X139.227 Y118.797 E75.9288
G1 X139.873 Y120.133 E76.0028
G1 X140.371 Y122.581 E76.1275
G1 X140.370 Y125.285 E76.2624
G1 X139.929 Y125.995 E76.3041
G1 X138.069 Y126.288 E76.3980
G1 X138.077 Y131.749 E76.6704
G1 X139.903 Y132.149 E76.7637
G1 X140.320 Y132.690 E76.7978
G1 X140.392 Y134.008 E76.8636
G1 X139.742 Y137.059 E77.0193
G1 X139.193 Y138.085 E77.0773
G1 X138.039 Y139.147 E77.1556
G1 X136.217 Y139.570 E77.2489
G1 X122.764 Y139.600 E77.9201
G1 X118.356 Y139.196 E78.1409
G1 X114.720 Y137.975 E78.3323
G1 X112.698 Y136.331 E78.4623
G1 X112.322 Y135.617 E78.5025
G1 X111.294 Y134.449 E78.5802
G1 X111.376 Y133.660 E78.6197
G1 X111.018 Y132.979 E78.6581
G1 X110.913 Y131.773 E78.7185
G1 X110.525 Y130.869 E78.7676
G1 X110.313 Y127.206 E78.9506
G1 X110.130 Y126.677 E78.9786
G1 X110.100 Y113.253 E79.6483
G1 X110.674 Y111.747 E79.7287
G0 F3900 X110.889 Y112.572
G1 F900 X110.991 Y111.991 E79.7581
G1 X111.617 Y111.179 E79.8093
G1 X112.846 Y110.525 E79.8787
G1 X114.226 Y110.052 E79.9515
G1 X116.090 Y109.804 E80.0453
G1 X126.991 Y109.804 E80.5892
G1 X129.229 Y110.240 E80.7029
G1 X130.877 Y110.855 E80.7907
G1 X133.325 Y112.144 E80.9287
G1 X135.481 Y113.852 E81.0660
