;Sliced by ideaMaker 5.2.4.8581, 2025-10-12 06:38:37 UTC+0200
;Slicer Version: 5.2.3.8580
;Dimension: 250.000 250.000 250.000 0.400
;Plate Shape: 0
;Origin Center: 0
;Extruder Offset #1: 25.000 0.000
;Filament Diameter #1: 1.750
;Filament Diameter #2: 1.750
;Filament Compensation #1: 94.000
;Filament Compensation #2: 90.000
;Filament Density #1: 1240.000
;Filament Density #2: 1240.000
;Filament Type #1: PLA
;Filament Type #2: PLA
;Filament Name #1: [Raise3D] Premium PLA 1.75mm
;Filament Name #2: [Raise3D] Premium PLA 1.75mm
;Filament #1: PLA 1.75mm
;Filament #2: PLA 1.75mm
;Printer Type: floppy
;Firmware: Klipper
;Bounding Box: 96.514 153.979 102.824 146.219 0.000 22.200
;Model Gap: 0.000
M221 T0 S94.00
M140 S45.00
M104 T0 S200.00
M109 T0 S200.00
T0
M190 S45.00
G21 ;metric values
G90 ;absolute positioning
M82 ;set extruder to absolute mode
M107 ;start with the fan off
G28 X0 Y0 ;move X/Y to min endstops
G28 Z0 ;move Z to min endstops
G1 Z15.0 F9000 ;move the platform down 15mm
G92 E0 ;zero the extruded length
G0 X43 Y27 F2000  ;go to the edge of the bed
G92 X0 Y0 E0 ;set zero to edge of the bed
G0 F9000 Z1 ;Z up with 1mm
G1 F200 Z0 ;Z home slowly
G1 Z15.0 F9000 ;move the platform down 15mm
G1 F9000 ;speed setting
G92 E-3 ;retraction
M117 Printing...
M1001
;TOTAL_NUM: 1
;PRINTING_TIME: 0
;REMAINING_TIME: 2555
;LAYER:0
;Z:0.300
;HEIGHT:0.300
;PRINTING: NON-OBJECT
;PRINTING_ID: -1
G1 F2400 E-3.0000
G0 F3900 X106.352 Y121.525
G0 F300 Z0.300
;TYPE:SKIRT
;WIDTH:0.400
G1 F1500 E0.0000
G1 F900 X104.772 Y123.055 E0.1097
G1 X103.268 Y125.504 E0.2531
G1 X102.712 Y126.706 E0.3192
G1 X102.152 Y129.286 E0.4509
G1 X101.454 Y129.882 E0.4967
G1 X102.158 Y130.482 E0.5428
G1 X103.119 Y133.701 E0.7104
G1 X103.585 Y133.271 E0.7421
G1 X104.511 Y133.029 E0.7898
G1 X105.779 Y133.536 E0.8580
G1 X106.265 Y134.928 E0.9315
G1 X105.836 Y136.043 E0.9911
G1 X105.431 Y136.380 E1.0174
G1 X104.893 Y136.558 E1.0457
G1 X105.434 Y137.287 E1.0910
G1 X107.788 Y139.058 E1.2379
G1 X110.170 Y140.022 E1.3661
G1 X111.378 Y140.247 E1.4274
G1 X112.759 Y140.281 E1.4964
G1 X112.688 Y139.860 E1.5177
G1 X113.004 Y138.917 E1.5673
G1 X114.928 Y138.229 E1.6692
G1 X116.200 Y139.062 E1.7451
G1 X116.404 Y139.733 E1.7801
G1 X117.135 Y139.483 E1.8186
G1 X119.186 Y138.284 E1.9371
G1 X120.526 Y137.100 E2.0263
G1 X121.746 Y135.534 E2.1254
G1 X122.808 Y133.345 E2.2468
G1 X123.230 Y131.838 E2.3248
G1 X123.411 Y129.653 E2.4342
G1 X123.137 Y127.319 E2.5515
G1 X122.412 Y125.380 E2.6547
G1 X121.560 Y123.796 E2.7445
G1 X120.214 Y122.145 E2.8507
G1 X119.544 Y121.587 E2.8942
G1 X119.249 Y122.012 E2.9201
G1 X118.537 Y122.483 E2.9627
G1 X117.691 Y122.452 E3.0049
G1 X117.044 Y122.706 E3.0396
G1 X116.386 Y122.684 E3.0724
G1 X115.402 Y122.048 E3.1309
G1 X115.115 Y121.418 E3.1654
G1 X113.337 Y121.180 E3.2549
G1 X112.755 Y120.931 E3.2865
G1 X111.924 Y121.352 E3.3330
G1 X110.863 Y121.411 E3.3860
G1 X110.210 Y121.236 E3.4197
G1 X109.439 Y120.300 E3.4802
G1 X109.350 Y119.915 E3.4999
G1 X107.787 Y120.566 E3.5844
G1 X106.352 Y121.525 E3.6705
G0 F3900 X106.103 Y121.210
G1 F900 X104.457 Y122.804 E3.7848
G1 X102.915 Y125.315 E3.9318
G1 X102.329 Y126.581 E4.0014
G1 X101.822 Y129.059 E4.1276
G1 X100.789 Y129.911 E4.1944
G1 X101.771 Y130.583 E4.2538
G1 X102.417 Y133.066 E4.3818
G1 X103.000 Y134.449 E4.4567
G1 X103.686 Y133.658 E4.5089
G1 X104.612 Y133.416 E4.5566
G1 X105.486 Y133.808 E4.6044
G1 X105.887 Y134.798 E4.6577
G1 X105.557 Y135.756 E4.7083
G1 X105.306 Y136.000 E4.7257
G1 X104.243 Y136.351 E4.7816
G1 X105.148 Y137.573 E4.8574
G1 X107.590 Y139.410 E5.0099
G1 X110.055 Y140.407 E5.1426
G1 X111.339 Y140.646 E5.2077
G1 X113.343 Y140.696 E5.3077
G1 X113.071 Y139.975 E5.3462
G1 X113.312 Y139.172 E5.3880
G1 X114.900 Y138.628 E5.4717
G1 X115.968 Y139.388 E5.5371
G1 X116.055 Y140.275 E5.5816
G1 X117.300 Y139.850 E5.6472
G1 X119.424 Y138.608 E5.7700
G1 X120.820 Y137.375 E5.8629
G1 X122.087 Y135.747 E5.9658
G1 X123.183 Y133.490 E6.0910
G1 X123.626 Y131.906 E6.1731
G1 X123.813 Y129.649 E6.2861
G1 X123.528 Y127.222 E6.4080
G1 X122.779 Y125.220 E6.5146
G1 X121.892 Y123.570 E6.6081
G1 X120.501 Y121.864 E6.7179
G1 X119.443 Y120.982 E6.7866
G1 X119.016 Y121.687 E6.8277
G1 X118.449 Y122.093 E6.8625
G1 X117.611 Y122.048 E6.9044
G1 X117.057 Y122.306 E6.9349
G1 X116.399 Y122.284 E6.9677
G1 X115.639 Y121.726 E7.0148
G1 X115.394 Y120.991 E7.0534
G1 X114.819 Y121.044 E7.0822
G1 X114.253 Y120.824 E7.1125
G1 X113.357 Y120.780 E7.1573
G1 X112.742 Y120.479 E7.1914
G1 X111.902 Y120.953 E7.2396
G1 X110.841 Y121.012 E7.2926
G1 X110.328 Y120.854 E7.3194
G1 X109.764 Y120.067 E7.3677
G1 X109.704 Y119.334 E7.4044
G1 X107.595 Y120.213 E7.5183
G1 X106.103 Y121.210 E7.6079
G0 F3900 X105.854 Y120.895
G1 F900 X104.142 Y122.553 E7.7268
G1 X102.560 Y125.129 E7.8776
G1 X101.945 Y126.458 E7.9507
G1 X101.490 Y128.837 E8.0715
G1 X100.068 Y129.977 E8.1624
G1 X101.384 Y130.684 E8.2370
G1 X102.038 Y133.199 E8.3666
G1 X102.890 Y135.217 E8.4759
G1 X103.873 Y134.012 E8.5535
G1 X104.709 Y133.804 E8.5964
G1 X105.278 Y134.150 E8.6297
G1 X105.488 Y134.769 E8.6623
G1 X105.181 Y135.620 E8.7074
G1 X103.592 Y136.144 E8.7909
G1 X104.860 Y137.857 E8.8972
G1 X107.392 Y139.762 E9.0553
G1 X109.940 Y140.792 E9.1924
G1 X111.300 Y141.045 E9.2614
G1 X113.954 Y141.112 E9.3939
G1 X113.471 Y139.975 E9.4555
G1 X113.625 Y139.421 E9.4842
G1 X114.863 Y139.026 E9.5490
G1 X115.623 Y139.591 E9.5963
G1 X115.680 Y140.826 E9.6580
G1 X117.469 Y140.214 E9.7523
G1 X119.662 Y138.932 E9.8790
G1 X121.114 Y137.650 E9.9757
G1 X122.428 Y135.960 E10.0825
G1 X123.558 Y133.635 E10.2114
G1 X124.022 Y131.974 E10.2975
G1 X124.215 Y129.645 E10.4141
G1 X123.919 Y127.125 E10.5406
G1 X123.146 Y125.060 E10.6507
G1 X122.224 Y123.344 E10.7478
G1 X120.788 Y121.583 E10.8612
G1 X119.328 Y120.366 E10.9560
G1 X118.768 Y121.373 E11.0135
G1 X118.344 Y121.707 E11.0404
G1 X117.516 Y121.638 E11.0819
G1 X117.070 Y121.906 E11.1079
G1 X116.412 Y121.884 E11.1407
G1 X115.907 Y121.429 E11.1746
G1 X115.705 Y120.561 E11.2191
G1 X114.782 Y120.646 E11.2653
G1 X114.359 Y120.428 E11.2891
G1 X113.377 Y120.380 E11.3381
G1 X112.734 Y120.015 E11.3750
G1 X111.844 Y120.557 E11.4270
G1 X111.420 Y120.490 E11.4484
G1 X110.959 Y120.630 E11.4724
G1 X110.446 Y120.472 E11.4992
G1 X110.114 Y119.873 E11.5334
G1 X110.094 Y118.739 E11.5900
G1 X107.403 Y119.860 E11.7354
G1 X105.854 Y120.895 E11.8284
G0 F3900 X103.220 Y118.845
G1 F900 X106.095 Y116.883 E12.0020
G1 X107.584 Y116.188 E12.0840
G1 X109.426 Y115.624 E12.1801
G1 X112.046 Y115.219 E12.3124
G1 X116.315 Y115.606 E12.5262
G1 X119.525 Y116.809 E12.6972
G1 X122.049 Y118.446 E12.8473
G1 X123.459 Y119.744 E12.9429
G1 X124.859 Y121.425 E13.0521
G1 X125.937 Y123.389 E13.1639
G1 X128.329 Y125.320 E13.3172
G1 X129.973 Y125.847 E13.4034
G1 X134.381 Y125.850 E13.6233
G1 X135.916 Y125.350 E13.7038
G1 X136.590 Y124.620 E13.7534
G1 X136.594 Y111.862 E14.3899
G1 X135.502 Y111.496 E14.4473
G1 X134.575 Y112.726 E14.5242
G1 X132.984 Y113.594 E14.6146
G1 X131.538 Y113.752 E14.6872
G1 X130.144 Y113.402 E14.7589
G1 X128.687 Y112.322 E14.8494
G1 X127.818 Y110.729 E14.9399
G1 X127.661 Y109.291 E15.0121
G1 X128.173 Y107.559 E15.1022
G1 X129.099 Y106.420 E15.1754
G1 X130.688 Y105.562 E15.2655
G1 X132.198 Y105.417 E15.3412
G1 X133.858 Y105.921 E15.4277
G1 X134.993 Y106.846 E15.5008
G1 X135.380 Y107.549 E15.5408
G1 X136.595 Y107.248 E15.6033
G1 X136.628 Y104.490 E15.7409
G1 X137.135 Y103.847 E15.7817
G1 X137.645 Y103.624 E15.8095
G1 X139.605 Y103.689 E15.9073
G1 X140.051 Y103.940 E15.9329
G1 X140.350 Y104.519 E15.9654
G1 X140.397 Y107.103 E16.0943
G1 X141.453 Y107.485 E16.1503
G1 X142.455 Y106.281 E16.2285
G1 X144.044 Y105.423 E16.3186
G1 X145.554 Y105.278 E16.3943
G1 X147.214 Y105.782 E16.4808
G1 X148.349 Y106.707 E16.5539
G1 X149.206 Y108.294 E16.6438
G1 X149.361 Y109.733 E16.7160
G1 X149.011 Y111.130 E16.7879
G1 X147.931 Y112.587 E16.8784
G1 X146.340 Y113.455 E16.9688
G1 X144.894 Y113.613 E17.0414
G1 X143.500 Y113.263 E17.1131
G1 X142.043 Y112.183 E17.2036
G1 X141.611 Y111.409 E17.2478
G1 X140.398 Y111.711 E17.3101
G1 X140.398 Y116.827 E17.5654
G1 X151.887 Y116.885 E18.1386
G1 X152.682 Y117.118 E18.1799
G1 X153.118 Y117.828 E18.2215
G1 X153.179 Y141.513 E19.4031
G1 X152.933 Y142.213 E19.4401
G1 X152.658 Y142.526 E19.4609
G1 X151.888 Y142.745 E19.5009
G1 X140.335 Y142.802 E20.0773
G1 X139.879 Y143.325 E20.1119
G1 X139.395 Y143.510 E20.1377
G1 X137.301 Y143.447 E20.2422
G1 X136.915 Y143.131 E20.2671
G1 X136.590 Y142.377 E20.3081
G1 X136.590 Y135.026 E20.6748
G1 X135.966 Y134.318 E20.7219
G1 X135.475 Y134.045 E20.7500
G1 X134.393 Y133.836 E20.8049
G1 X129.289 Y133.940 E21.0596
G1 X128.366 Y134.256 E21.1083
G1 X127.164 Y135.100 E21.1816
G1 X126.010 Y136.093 E21.2575
G1 X124.772 Y138.296 E21.3836
G1 X122.635 Y140.698 E21.5440
G1 X121.008 Y141.871 E21.6441
G1 X122.104 Y142.686 E21.7122
G1 X122.126 Y143.386 E21.7471
G1 X121.508 Y143.930 E21.7882
G1 X120.854 Y143.984 E21.8210
G1 X120.343 Y143.462 E21.8574
G1 X120.274 Y142.491 E21.9060
G1 X118.070 Y143.351 E22.0240
G1 X118.803 Y144.264 E22.0824
G1 X118.828 Y144.965 E22.1174
G1 X118.280 Y145.434 E22.1534
G1 X117.506 Y145.460 E22.1920
G1 X117.091 Y145.032 E22.2218
G1 X117.058 Y143.966 E22.2750
G1 X112.429 Y144.426 E22.5071
G1 X109.861 Y144.122 E22.6361
G1 X107.467 Y143.394 E22.7609
G1 X104.932 Y141.959 E22.9062
G1 X103.061 Y140.631 E23.0207
G1 X102.802 Y141.641 E23.0727
G1 X102.579 Y141.932 E23.0910
G1 X101.608 Y141.811 E23.1398
G1 X101.144 Y141.331 E23.1731
G1 X101.264 Y140.540 E23.2131
G1 X102.428 Y140.022 E23.2766
G1 X101.585 Y139.071 E23.3400
G1 X100.757 Y137.759 E23.4174
G1 X99.960 Y138.598 E23.4752
G1 X98.995 Y139.064 E23.5286
G1 X98.108 Y138.709 E23.5763
G1 X97.899 Y138.073 E23.6097
G1 X98.229 Y137.209 E23.6558
G1 X97.868 Y136.817 E23.6824
G1 X97.314 Y135.386 E23.7590
G1 X97.508 Y134.673 E23.7958
G1 X98.864 Y134.165 E23.8681
G1 X98.327 Y131.027 E24.0269
G1 X98.501 Y130.648 E24.0477
G1 X99.042 Y130.370 E24.0781
G1 X99.085 Y129.324 E24.1303
G1 X98.452 Y128.945 E24.1671
G1 X98.320 Y128.368 E24.1966
G1 X98.926 Y125.464 E24.3446
G1 X99.818 Y123.240 E24.4642
G1 X101.265 Y120.937 E24.5999
G1 X103.220 Y118.845 E24.7427
G0 F3900 X102.928 Y118.572
G1 F900 X105.870 Y116.553 E24.9207
G1 X107.415 Y115.826 E25.0059
G1 X109.309 Y115.242 E25.1048
G1 X111.985 Y114.824 E25.2399
G1 X116.455 Y115.231 E25.4639
G1 X119.665 Y116.434 E25.6349
G1 X122.267 Y118.110 E25.7893
G1 X123.730 Y119.450 E25.8883
G1 X125.166 Y121.169 E26.0000
G1 X126.250 Y123.128 E26.1117
G1 X128.521 Y124.961 E26.2573
G1 X130.036 Y125.447 E26.3367
G1 X134.319 Y125.450 E26.5504
G1 X135.693 Y125.002 E26.6225
G1 X136.190 Y124.464 E26.6590
G1 X136.194 Y112.149 E27.2734
G1 X135.648 Y111.967 E27.3021
G1 X134.767 Y113.077 E27.3728
G1 X133.027 Y113.992 E27.4709
G1 X131.441 Y114.140 E27.5504
G1 X130.047 Y113.790 E27.6221
G1 X128.336 Y112.514 E27.7286
G1 X127.467 Y110.921 E27.8191
G1 X127.277 Y109.178 E27.9066
G1 X127.863 Y107.307 E28.0044
G1 X128.909 Y106.068 E28.0853
G1 X130.498 Y105.210 E28.1754
G1 X132.314 Y105.034 E28.2664
G1 X133.974 Y105.538 E28.3530
G1 X135.246 Y106.536 E28.4336
G1 X135.582 Y107.087 E28.4658
G1 X136.199 Y106.934 E28.4975
G1 X136.228 Y104.485 E28.6197
G1 X136.821 Y103.599 E28.6729
G1 X137.658 Y103.224 E28.7187
G1 X139.618 Y103.289 E28.8165
G1 X140.247 Y103.591 E28.8513
G1 X140.705 Y104.335 E28.8949
G1 X140.792 Y106.821 E29.0190
G1 X141.325 Y107.014 E29.0473
G1 X142.265 Y105.929 E29.1189
G1 X144.006 Y105.025 E29.2168
G1 X145.670 Y104.895 E29.3001
G1 X147.330 Y105.399 E29.3866
G1 X148.701 Y106.517 E29.4749
G1 X149.558 Y108.104 E29.5649
G1 X149.759 Y109.690 E29.6446
G1 X149.332 Y111.368 E29.7310
G1 X148.252 Y112.825 E29.8215
G1 X146.383 Y113.853 E29.9279
G1 X144.797 Y114.001 E30.0074
G1 X143.403 Y113.651 E30.0791
G1 X141.805 Y112.504 E30.1772
G1 X141.411 Y111.871 E30.2144
G1 X140.798 Y112.024 E30.2459
G1 X140.798 Y116.429 E30.4657
G1 X151.889 Y116.485 E31.0190
G1 X152.935 Y116.808 E31.0737
G1 X153.459 Y117.619 E31.1218
G1 X153.579 Y141.512 E32.3139
G1 X153.310 Y142.346 E32.3576
G1 X152.958 Y142.790 E32.3859
G1 X151.890 Y143.145 E32.4420
G1 X140.517 Y143.201 E33.0094
G1 X140.022 Y143.699 E33.0444
G1 X139.538 Y143.884 E33.0703
G1 X137.134 Y143.810 E33.1903
G1 X136.548 Y143.289 E33.2294
G1 X136.190 Y142.377 E33.2783
G1 X136.190 Y135.177 E33.6375
G1 X135.337 Y134.426 E33.6942
G1 X134.358 Y134.237 E33.7439
G1 X129.358 Y134.339 E33.9934
G1 X128.549 Y134.616 E34.0361
G1 X127.411 Y135.415 E34.1055
G1 X126.325 Y136.350 E34.1770
G1 X125.121 Y138.492 E34.2996
G1 X122.934 Y140.964 E34.4642
G1 X121.685 Y141.876 E34.5414
G1 X122.449 Y142.484 E34.5901
G1 X122.526 Y143.373 E34.6346
G1 X122.390 Y143.686 E34.6516
G1 X121.634 Y144.310 E34.7005
G1 X120.887 Y144.383 E34.7380
G1 X120.568 Y144.264 E34.7550
G1 X120.057 Y143.742 E34.7914
G1 X119.914 Y143.061 E34.8261
G1 X118.723 Y143.526 E34.8899
G1 X119.188 Y144.155 E34.9289
G1 X119.202 Y145.108 E34.9765
G1 X118.293 Y145.834 E35.0345
G1 X117.219 Y145.738 E35.0883
G1 X116.718 Y145.176 E35.1259
G1 X116.671 Y144.406 E35.1644
G1 X112.469 Y144.824 E35.3751
G1 X109.814 Y144.519 E35.5084
G1 X107.351 Y143.777 E35.6367
G1 X104.735 Y142.307 E35.7864
G1 X103.303 Y141.294 E35.8739
G1 X103.119 Y141.884 E35.9048
G1 X102.776 Y142.280 E35.9309
G1 X101.408 Y142.157 E35.9994
G1 X100.771 Y141.475 E36.0460
G1 X100.869 Y140.480 E36.0959
G1 X101.101 Y140.175 E36.1150
G1 X101.767 Y139.879 E36.1514
G1 X100.693 Y138.406 E36.2423
G1 X100.134 Y138.958 E36.2815
G1 X99.015 Y139.464 E36.3428
G1 X97.826 Y138.993 E36.4066
G1 X97.500 Y138.040 E36.4568
G1 X97.767 Y137.297 E36.4962
G1 X97.495 Y136.961 E36.5178
G1 X96.914 Y135.373 E36.6021
G1 X97.194 Y134.426 E36.6514
G1 X98.414 Y133.906 E36.7176
G1 X97.933 Y131.094 E36.8599
G1 X98.231 Y130.353 E36.8997
G1 X98.652 Y130.121 E36.9237
G1 X98.675 Y129.544 E36.9525
G1 X98.129 Y129.181 E36.9852
G1 X97.928 Y128.286 E37.0310
G1 X98.534 Y125.382 E37.1790
G1 X99.447 Y123.091 E37.3021
G1 X100.926 Y120.724 E37.4413
G1 X102.928 Y118.572 E37.5879
G0 F3900 X102.635 Y118.300
G1 F900 X105.644 Y116.223 E37.7703
G1 X107.245 Y115.464 E37.8587
G1 X109.191 Y114.860 E37.9604
G1 X111.923 Y114.429 E38.0984
G1 X116.595 Y114.856 E38.3324
G1 X119.805 Y116.059 E38.5035
G1 X122.484 Y117.774 E38.6622
G1 X124.000 Y119.155 E38.7645
G1 X125.473 Y120.913 E38.8789
G1 X126.563 Y122.867 E38.9905
G1 X128.713 Y124.603 E39.1284
G1 X130.099 Y125.047 E39.2010
G1 X134.256 Y125.050 E39.4084
G1 X135.470 Y124.654 E39.4721
G1 X135.790 Y124.308 E39.4956
G1 X135.794 Y112.437 E40.0879
G1 X134.953 Y113.431 E40.1528
G1 X133.213 Y114.346 E40.2509
G1 X131.478 Y114.538 E40.3380
G1 X129.950 Y114.178 E40.4163
G1 X127.985 Y112.706 E40.5388
G1 X127.069 Y110.964 E40.6370
G1 X126.895 Y109.058 E40.7325
G1 X127.557 Y107.049 E40.8380
G1 X128.719 Y105.716 E40.9262
G1 X130.308 Y104.858 E41.0163
G1 X132.275 Y104.636 E41.1151
G1 X134.090 Y105.155 E41.2093
G1 X135.493 Y106.221 E41.2972
G1 X135.771 Y106.628 E41.3218
G1 X135.828 Y104.480 E41.4290
G1 X136.489 Y103.377 E41.4931
G1 X137.671 Y102.824 E41.5582
G1 X139.631 Y102.889 E41.6561
G1 X140.420 Y103.230 E41.6989
G1 X141.046 Y104.125 E41.7534
G1 X141.183 Y106.537 E41.8740
G1 X142.081 Y105.574 E41.9397
G1 X143.975 Y104.626 E42.0453
G1 X145.786 Y104.512 E42.1359
G1 X147.583 Y105.089 E42.2300
G1 X149.053 Y106.327 E42.3259
G1 X149.910 Y107.914 E42.4159
G1 X150.156 Y109.640 E42.5029
G1 X149.720 Y111.467 E42.5966
G1 X148.573 Y113.063 E42.6946
G1 X146.420 Y114.251 E42.8173
G1 X144.834 Y114.399 E42.8968
G1 X143.306 Y114.039 E42.9751
G1 X141.572 Y112.829 E43.0806
G1 X141.225 Y112.330 E43.1109
G1 X141.198 Y116.031 E43.2956
G1 X151.891 Y116.085 E43.8290
G1 X153.193 Y116.502 E43.8972
G1 X153.795 Y117.402 E43.9513
G1 X153.979 Y141.510 E45.1541
G1 X153.691 Y142.469 E45.2040
G1 X153.271 Y143.038 E45.2393
G1 X151.892 Y143.545 E45.3126
G1 X140.685 Y143.600 E45.8717
G1 X140.165 Y144.073 E45.9068
G1 X139.526 Y144.284 E45.9404
G1 X136.967 Y144.173 E46.0681
G1 X136.176 Y143.435 E46.1221
G1 X135.790 Y142.377 E46.1783
G1 X135.790 Y135.357 E46.5285
G1 X135.155 Y134.799 E46.5707
G1 X134.323 Y134.638 E46.6130
G1 X129.427 Y134.738 E46.8573
G1 X128.732 Y134.976 E46.8940
