;Sliced by ideaMaker 5.3.2.8640, 2026-02-08 16:56:33 UTC+0100
;Slicer Version: 5.3.0.8620
;Dimension: 250.000 250.000 250.000 0.400
;Plate Shape: 0
;Origin Center: 0
;Extruder Offset #1: 25.000 0.000
;Filament Diameter #1: 1.750
;Filament Diameter #2: 1.750
;Filament Compensation #1: 94.000
;Filament Compensation #2: 90.000
;Filament Density #1: 1240.000
;Filament Density #2: 1240.000
;Filament Type #1: PLA
;Filament Type #2: PLA
;Filament Name #1: [Raise3D] Premium PLA 1.75mm
;Filament Name #2: [Raise3D] Premium PLA 1.75mm
;Filament #1: PLA 1.75mm
;Filament #2: PLA 1.75mm
;Printer Type: floppy
;Firmware: Klipper
;Bounding Box: 102.109 143.267 103.966 145.093 0.000 39.900
;Model Gap: 0.000
M221 T0 S94.00
M140 S48.00
M104 T0 S195.00
M109 T0 S195.00
T0
M190 S48.00
G21 ;metric values
G90 ;absolute positioning
M82 ;set extruder to absolute mode
M107 ;start with the fan off
G28 X0 Y0 ;move X/Y to min endstops
G28 Z0 ;move Z to min endstops
G1 Z15.0 F9000 ;move the platform down 15mm

G92 E0 ;zero the extruded length

G0 X43 Y27 F2000  ;go to the edge of the bed
G92 X0 Y0 E0 ;set zero to edge of the bed
G0 F9000 Z1 ;Z up with 1mm
G1 F200 Z0 ;Z home slowly

G1 Z15.0 F9000 ;move the platform down 15mm

G1 F9000 ;speed setting
G92 E-3 ;retraction
M117 Printing...
M1001
;TOTAL_NUM: 1
;PRINTING_TIME: 0
;REMAINING_TIME: 2797
;LAYER:0
;Z:0.300
;HEIGHT:0.300
;PRINTING: NON-OBJECT
;PRINTING_ID: -1
G1 F2400 E-3.0000
G0 F3900 X102.230 Y104.118
G0 F300 Z0.300
G0 F3900 X102.508 Y104.005
;TYPE:SKIRT
;WIDTH:0.400
G1 F1500 E0.0000
G1 F900 X142.952 Y103.966 E2.0178
G1 X143.197 Y104.334 E2.0398
G1 X143.267 Y144.622 E4.0498
G1 X143.146 Y144.910 E4.0654
G1 X142.868 Y145.023 E4.0804
G1 X102.580 Y145.093 E6.0903
G1 X102.292 Y144.972 E6.1059
G1 X102.179 Y144.694 E6.1209
G1 X102.109 Y104.406 E8.1309
G1 X102.230 Y104.118 E8.1465
G1 X102.508 Y104.005 E8.1614
G0 F3900 X102.509 Y104.405
G1 F900 X142.797 Y104.335 E10.1714
G1 X142.867 Y144.623 E12.1814
G1 X102.579 Y144.693 E14.1914
G1 X102.509 Y104.405 E16.2013
;PRINTING: FlowCalibrationCube4mm_nozzle0.8walls.stl
;PRINTING_ID: 0
G1 F2400 E13.2013
G1 F300 Z0.500
G0 F3900 X102.888 Y104.714
;TYPE:WALL-OUTER
;WIDTH:0.400
G1 F300 Z0.300
G1 F1500 E16.2013
G1 F2400 X142.488 Y104.714 E18.1770
G1 X142.488 Y144.314 E20.1526
G1 X102.888 Y144.314 E22.1283
G1 X102.888 Y104.714 E24.1040
G0 F3900 X103.288 Y105.114
;TYPE:WALL-INNER
;WIDTH:0.400
G1 F2400 X142.088 Y105.114 E26.0397
G1 X142.088 Y143.914 E27.9754
G1 X103.288 Y143.914 E29.9112
G1 X103.288 Y105.114 E31.8469
G0 F3900 X103.688 Y105.514
G1 F2400 X141.688 Y105.514 E33.7427
G1 X141.688 Y143.514 E35.6386
G1 X103.688 Y143.514 E37.5344
G1 X103.688 Y105.514 E39.4302
G0 F3900 X104.088 Y105.914
G1 F2400 X141.288 Y105.914 E41.2861
G1 X141.288 Y143.114 E43.1421
G1 X104.088 Y143.114 E44.9980
G1 X104.088 Y105.914 E46.8539
G1 F2400 E43.8539
G1 F300 Z0.500
G0 F3900 X104.272 Y142.455
;TYPE:SOLID-FILL
;WIDTH:0.400
G1 F300 Z0.300
G1 F1500 E46.8539
G1 F2400 X104.745 Y142.929 E46.8873
G0 F2400 X105.311 Y142.929
G1 F2400 X104.272 Y141.890 E46.9606
G0 F2400 X104.272 Y141.324
G1 F2400 X105.877 Y142.929 E47.0738
G0 F2400 X106.442 Y142.929
G1 F2400 X104.272 Y140.758 E47.2270
G0 F2400 X104.272 Y140.193
G1 F2400 X107.008 Y142.929 E47.4200
G0 F2400 X107.574 Y142.929
G1 F2400 X104.272 Y139.627 E47.6530
G0 F2400 X104.272 Y139.061
G1 F2400 X108.139 Y142.929 E47.9259
G0 F2400 X108.705 Y142.929
G1 F2400 X104.272 Y138.496 E48.2386
G0 F2400 X104.272 Y137.930
G1 F2400 X109.271 Y142.929 E48.5913
G0 F2400 X109.837 Y142.929
G1 F2400 X104.272 Y137.364 E48.9840
G0 F2400 X104.272 Y136.798
G1 F2400 X110.402 Y142.929 E49.4165
G0 F2400 X110.968 Y142.929
G1 F2400 X104.272 Y136.233 E49.8890
G0 F2400 X104.272 Y135.667
G1 F2400 X111.534 Y142.929 E50.4013
G0 F2400 X112.099 Y142.929
G1 F2400 X104.272 Y135.101 E50.9536
G0 F2400 X104.272 Y134.536
G1 F2400 X112.665 Y142.929 E51.5458
G0 F2400 X113.231 Y142.929
G1 F2400 X104.272 Y133.970 E52.1779
G0 F2400 X104.272 Y133.404
G1 F2400 X113.796 Y142.929 E52.8499
G0 F2400 X114.362 Y142.929
G1 F2400 X104.272 Y132.839 E53.5618
G0 F2400 X104.272 Y132.273
G1 F2400 X114.928 Y142.929 E54.3136
G0 F2400 X115.493 Y142.929
G1 F2400 X104.272 Y131.707 E55.1054
G0 F2400 X104.272 Y131.142
G1 F2400 X116.059 Y142.929 E55.9370
G0 F2400 X116.625 Y142.929
G1 F2400 X104.272 Y130.576 E56.8086
G0 F2400 X104.272 Y130.010
G1 F2400 X117.190 Y142.929 E57.7200
G0 F2400 X117.756 Y142.929
G1 F2400 X104.272 Y129.445 E58.6714
G0 F2400 X104.272 Y128.879
G1 F2400 X118.322 Y142.929 E59.6627
G0 F2400 X118.887 Y142.929
G1 F2400 X104.272 Y128.313 E60.6939
G0 F2400 X104.272 Y127.748
G1 F2400 X119.453 Y142.929 E61.7650
G0 F2400 X120.019 Y142.929
G1 F2400 X104.272 Y127.182 E62.8761
G0 F2400 X104.272 Y126.616
G1 F2400 X120.585 Y142.929 E64.0270
G0 F2400 X121.150 Y142.929
G1 F2400 X104.272 Y126.050 E65.2179
G0 F2400 X104.272 Y125.485
G1 F2400 X121.716 Y142.929 E66.4487
G0 F2400 X122.282 Y142.929
G1 F2400 X104.272 Y124.919 E67.7194
G0 F2400 X104.272 Y124.353
G1 F2400 X122.847 Y142.929 E69.0300
G0 F2400 X123.413 Y142.929
G1 F2400 X104.272 Y123.788 E70.3805
G0 F2400 X104.272 Y123.222
G1 F2400 X123.979 Y142.929 E71.7709
G0 F2400 X124.544 Y142.929
G1 F2400 X104.272 Y122.656 E73.2012
G0 F2400 X104.272 Y122.091
G1 F2400 X125.110 Y142.929 E74.6715
G0 F2400 X125.676 Y142.929
G1 F2400 X104.272 Y121.525 E76.1816
G0 F2400 X104.272 Y120.959
G1 F2400 X126.241 Y142.929 E77.7317
G0 F2400 X126.807 Y142.929
G1 F2400 X104.272 Y120.394 E79.3217
G0 F2400 X104.272 Y119.828
G1 F2400 X127.373 Y142.929 E80.9516
G0 F2400 X127.938 Y142.929
G1 F2400 X104.272 Y119.262 E82.6214
G0 F2400 X104.272 Y118.697
G1 F2400 X128.504 Y142.929 E84.3311
G0 F2400 X129.070 Y142.929
G1 F2400 X104.272 Y118.131 E86.0807
G0 F2400 X104.272 Y117.565
G1 F2400 X129.636 Y142.929 E87.8703
G0 F2400 X130.201 Y142.929
G1 F2400 X104.272 Y117.000 E89.6997
G0 F2400 X104.272 Y116.434
G1 F2400 X130.767 Y142.929 E91.5691
G0 F2400 X131.333 Y142.929
G1 F2400 X104.272 Y115.868 E93.4784
G0 F2400 X104.272 Y115.302
G1 F2400 X131.898 Y142.929 E95.4276
G0 F2400 X132.464 Y142.929
G1 F2400 X104.272 Y114.737 E97.4167
G0 F2400 X104.272 Y114.171
G1 F2400 X133.030 Y142.929 E99.4457
G0 F2400 X133.595 Y142.929
G1 F2400 X104.272 Y113.605 E101.5146
G0 F2400 X104.272 Y113.040
G1 F2400 X134.161 Y142.929 E103.6235
G0 F2400 X134.727 Y142.929
G1 F2400 X104.272 Y112.474 E105.7722
G0 F2400 X104.272 Y111.908
G1 F2400 X135.292 Y142.929 E107.9609
G0 F2400 X135.858 Y142.929
G1 F2400 X104.272 Y111.343 E110.1895
G0 F2400 X104.272 Y110.777
G1 F2400 X136.424 Y142.929 E112.4580
G0 F2400 X136.989 Y142.929
G1 F2400 X104.272 Y110.211 E114.7663
G0 F2400 X104.272 Y109.646
G1 F2400 X137.555 Y142.929 E117.1146
G0 F2400 X138.121 Y142.929
G1 F2400 X104.272 Y109.080 E119.5029
G0 F2400 X104.272 Y108.514
G1 F2400 X138.686 Y142.929 E121.9310
G0 F2400 X139.252 Y142.929
G1 F2400 X104.272 Y107.949 E124.3990
G0 F2400 X104.272 Y107.383
G1 F2400 X139.818 Y142.929 E126.9070
G0 F2400 X140.384 Y142.929
G1 F2400 X104.272 Y106.817 E129.4549
G0 F2400 X104.272 Y106.251
G1 F2400 X140.949 Y142.929 E132.0427
G0 F2400 X141.103 Y142.518
G1 F2400 X104.684 Y106.098 E134.6123
G0 F2400 X105.250 Y106.098
G1 F2400 X141.103 Y141.952 E137.1419
G0 F2400 X141.103 Y141.386
G1 F2400 X105.815 Y106.098 E139.6317
G0 F2400 X106.381 Y106.098
G1 F2400 X141.103 Y140.821 E142.0816
G0 F2400 X141.103 Y140.255
G1 F2400 X106.947 Y106.098 E144.4915
G0 F2400 X107.512 Y106.098
G1 F2400 X141.103 Y139.689 E146.8615
G0 F2400 X141.103 Y139.123
G1 F2400 X108.078 Y106.098 E149.1916
G0 F2400 X108.644 Y106.098
G1 F2400 X141.103 Y138.558 E151.4818
G0 F2400 X141.103 Y137.992
G1 F2400 X109.209 Y106.098 E153.7321
G0 F2400 X109.775 Y106.098
G1 F2400 X141.103 Y137.426 E155.9424
G0 F2400 X141.103 Y136.861
G1 F2400 X110.341 Y106.098 E158.1129
G0 F2400 X110.906 Y106.098
G1 F2400 X141.103 Y136.295 E160.2435
G0 F2400 X141.103 Y135.729
G1 F2400 X111.472 Y106.098 E162.3341
G0 F2400 X112.038 Y106.098
G1 F2400 X141.103 Y135.164 E164.3848
G0 F2400 X141.103 Y134.598
G1 F2400 X112.603 Y106.098 E166.3957
G0 F2400 X113.169 Y106.098
G1 F2400 X141.103 Y134.032 E168.3665
G0 F2400 X141.103 Y133.467
G1 F2400 X113.735 Y106.098 E170.2975
G0 F2400 X114.300 Y106.098
G1 F2400 X141.103 Y132.901 E172.1886
G0 F2400 X141.103 Y132.335
G1 F2400 X114.866 Y106.098 E174.0398
G0 F2400 X115.432 Y106.098
G1 F2400 X141.103 Y131.770 E175.8511
G0 F2400 X141.103 Y131.204
G1 F2400 X115.998 Y106.098 E177.6224
G0 F2400 X116.563 Y106.098
G1 F2400 X141.103 Y130.638 E179.3538
G0 F2400 X141.103 Y130.072
G1 F2400 X117.129 Y106.098 E181.0453
G0 F2400 X117.695 Y106.098
G1 F2400 X141.103 Y129.507 E182.6969
G0 F2400 X141.103 Y128.941
G1 F2400 X118.260 Y106.098 E184.3086
G0 F2400 X118.826 Y106.098
G1 F2400 X141.103 Y128.375 E185.8804
G0 F2400 X141.103 Y127.810
G1 F2400 X119.392 Y106.098 E187.4122
G0 F2400 X119.957 Y106.098
G1 F2400 X141.103 Y127.244 E188.9042
G0 F2400 X141.103 Y126.678
G1 F2400 X120.523 Y106.098 E190.3562
G0 F2400 X121.089 Y106.098
G1 F2400 X141.103 Y126.113 E191.7684
G0 F2400 X141.103 Y125.547
G1 F2400 X121.654 Y106.098 E193.1406
G0 F2400 X122.220 Y106.098
G1 F2400 X141.103 Y124.981 E194.4729
G0 F2400 X141.103 Y124.416
G1 F2400 X122.786 Y106.098 E195.7653
G0 F2400 X123.351 Y106.098
G1 F2400 X141.103 Y123.850 E197.0178
G0 F2400 X141.103 Y123.284
G1 F2400 X123.917 Y106.098 E198.2304
G0 F2400 X124.483 Y106.098
G1 F2400 X141.103 Y122.719 E199.4030
G0 F2400 X141.103 Y122.153
G1 F2400 X125.049 Y106.098 E200.5358
G0 F2400 X125.614 Y106.098
G1 F2400 X141.103 Y121.587 E201.6286
G0 F2400 X141.103 Y121.022
G1 F2400 X126.180 Y106.098 E202.6815
G0 F2400 X126.746 Y106.098
G1 F2400 X141.103 Y120.456 E203.6945
G0 F2400 X141.103 Y119.890
G1 F2400 X127.311 Y106.098 E204.6676
G0 F2400 X127.877 Y106.098
G1 F2400 X141.103 Y119.324 E205.6008
G0 F2400 X141.103 Y118.759
G1 F2400 X128.443 Y106.098 E206.4941
G0 F2400 X129.008 Y106.098
G1 F2400 X141.103 Y118.193 E207.3474
G0 F2400 X141.103 Y117.627
G1 F2400 X129.574 Y106.098 E208.1609
G0 F2400 X130.140 Y106.098
G1 F2400 X141.103 Y117.062 E208.9344
G0 F2400 X141.103 Y116.496
G1 F2400 X130.705 Y106.098 E209.6680
G0 F2400 X131.271 Y106.098
G1 F2400 X141.103 Y115.930 E210.3617
G0 F2400 X141.103 Y115.365
G1 F2400 X131.837 Y106.098 E211.0155
G0 F2400 X132.402 Y106.098
G1 F2400 X141.103 Y114.799 E211.6294
G0 F2400 X141.103 Y114.233
G1 F2400 X132.968 Y106.098 E212.2034
G0 F2400 X133.534 Y106.098
G1 F2400 X141.103 Y113.668 E212.7375
G0 F2400 X141.103 Y113.102
G1 F2400 X134.099 Y106.098 E213.2316
G0 F2400 X134.665 Y106.098
G1 F2400 X141.103 Y112.536 E213.6859
G0 F2400 X141.103 Y111.971
G1 F2400 X135.231 Y106.098 E214.1002
G0 F2400 X135.797 Y106.098
G1 F2400 X141.103 Y111.405 E214.4746
G0 F2400 X141.103 Y110.839
G1 F2400 X136.362 Y106.098 E214.8091
G0 F2400 X136.928 Y106.098
G1 F2400 X141.103 Y110.274 E215.1037
G0 F2400 X141.103 Y109.708
G1 F2400 X137.494 Y106.098 E215.3584
G0 F2400 X138.059 Y106.098
G1 F2400 X141.103 Y109.142 E215.5732
G0 F2400 X141.103 Y108.576
G1 F2400 X138.625 Y106.098 E215.7480
G0 F2400 X139.191 Y106.098
G1 F2400 X141.103 Y108.011 E215.8829
G0 F2400 X141.103 Y107.445
G1 F2400 X139.756 Y106.098 E215.9780
G0 F2400 X140.322 Y106.098
G1 F2400 X141.103 Y106.879 E216.0331
G0 F2400 X141.103 Y106.314
G1 F2400 X140.888 Y106.098 E216.0483
;PRINTING_TIME: 136
;REMAINING_TIME: 2661
;LAYER:1
;Z:0.600
;HEIGHT:0.300
M106 S64
;PRINTING: FlowCalibrationCube4mm_nozzle0.8walls.stl
;PRINTING_ID: 0
G1 F2400 E213.0483
G1 F300 Z0.800
G0 F3900 X103.388 Y105.124
G0 F300 Z0.600
G0 F3900 X102.888 Y104.714
;TYPE:WALL-OUTER
;WIDTH:0.400
G1 F300 Z0.600
G1 F1500 E216.0483
G1 F2100 X142.488 Y104.714 E218.0239
G1 X142.488 Y144.314 E219.9996
G1 X102.888 Y144.314 E221.9752
G1 X102.888 Y104.714 E223.9509
G0 F3900 X103.288 Y105.114
;TYPE:WALL-INNER
;WIDTH:0.400
;FLOW:90.0
G1 F2400 X142.088 Y105.114 E225.6930
G1 X142.088 Y143.914 E227.4352
G1 X103.288 Y143.914 E229.1774
G1 X103.288 Y105.114 E230.9195
G0 F3900 X103.688 Y105.514
G1 F2400 X141.688 Y105.514 E232.6258
G1 X141.688 Y143.514 E234.3320
G1 X103.688 Y143.514 E236.0383
G1 X103.688 Y105.514 E237.7445
G0 F3900 X104.088 Y105.914
G1 F2400 X141.288 Y105.914 E239.4149
G1 X141.288 Y143.114 E241.0852
G1 X104.088 Y143.114 E242.7555
G1 X104.088 Y105.914 E244.4258
G0 F3900 X104.619 Y106.097
;TYPE:SOLID-FILL
;WIDTH:0.400
;FLOW:95.0
G1 F2700 X104.272 Y106.445 E244.4491
G0 F2700 X104.272 Y107.011
G1 F2700 X105.185 Y106.097 E244.5103
G0 F2700 X105.751 Y106.097
G1 F2700 X104.272 Y107.577 E244.6095
G0 F2700 X104.272 Y108.142
G1 F2700 X106.317 Y106.097 E244.7466
G0 F2700 X106.882 Y106.097
G1 F2700 X104.272 Y108.708 E244.9216
G0 F2700 X104.272 Y109.274
G1 F2700 X107.448 Y106.097 E245.1345
G0 F2700 X108.014 Y106.097
G1 F2700 X104.272 Y109.839 E245.3853
G0 F2700 X104.272 Y110.405
G1 F2700 X108.579 Y106.097 E245.6740
G0 F2700 X109.145 Y106.097
G1 F2700 X104.272 Y110.971 E246.0007
G0 F2700 X104.272 Y111.536
G1 F2700 X109.711 Y106.097 E246.3652
G0 F2700 X110.276 Y106.097
G1 F2700 X104.272 Y112.102 E246.7677
G0 F2700 X104.272 Y112.668
G1 F2700 X110.842 Y106.097 E247.2081
G0 F2700 X111.408 Y106.097
G1 F2700 X104.272 Y113.233 E247.6864
G0 F2700 X104.272 Y113.799
G1 F2700 X111.973 Y106.097 E248.2026
G0 F2700 X112.539 Y106.097
G1 F2700 X104.272 Y114.365 E248.7568
G0 F2700 X104.272 Y114.931
G1 F2700 X113.105 Y106.097 E249.3489
G0 F2700 X113.670 Y106.097
G1 F2700 X104.272 Y115.496 E249.9788
G0 F2700 X104.272 Y116.062
G1 F2700 X114.236 Y106.097 E250.6467
G0 F2700 X114.802 Y106.097
G1 F2700 X104.272 Y116.628 E251.3526
G0 F2700 X104.272 Y117.193
G1 F2700 X115.368 Y106.097 E252.0963
G0 F2700 X115.933 Y106.097
G1 F2700 X104.272 Y117.759 E252.8779
G0 F2700 X104.272 Y118.325
G1 F2700 X116.499 Y106.097 E253.6975
G0 F2700 X117.065 Y106.097
G1 F2700 X104.272 Y118.890 E254.5550
G0 F2700 X104.272 Y119.456
G1 F2700 X117.630 Y106.097 E255.4504
G0 F2700 X118.196 Y106.097
G1 F2700 X104.272 Y120.022 E256.3837
G0 F2700 X104.272 Y120.587
G1 F2700 X118.762 Y106.097 E257.3549
G0 F2700 X119.327 Y106.097
G1 F2700 X104.272 Y121.153 E258.3641
G0 F2700 X104.272 Y121.719
G1 F2700 X119.893 Y106.097 E259.4112
G0 F2700 X120.459 Y106.097
G1 F2700 X104.272 Y122.284 E260.4961
G0 F2700 X104.272 Y122.850
G1 F2700 X121.024 Y106.097 E261.6190
G0 F2700 X121.590 Y106.097
G1 F2700 X104.272 Y123.416 E262.7798
G0 F2700 X104.272 Y123.981
G1 F2700 X122.156 Y106.097 E263.9786
G0 F2700 X122.721 Y106.097
G1 F2700 X104.272 Y124.547 E265.2152
G0 F2700 X104.272 Y125.113
G1 F2700 X123.287 Y106.097 E266.4897
G0 F2700 X123.853 Y106.097
G1 F2700 X104.272 Y125.679 E267.8022
G0 F2700 X104.272 Y126.244
G1 F2700 X124.418 Y106.097 E269.1526
G0 F2700 X124.984 Y106.097
G1 F2700 X104.272 Y126.810 E270.5409
G0 F2700 X104.272 Y127.376
G1 F2700 X125.550 Y106.097 E271.9672
G0 F2700 X126.116 Y106.097
G1 F2700 X104.272 Y127.941 E273.4313
G0 F2700 X104.272 Y128.507
G1 F2700 X126.681 Y106.097 E274.9334
G0 F2700 X127.247 Y106.097
G1 F2700 X104.272 Y129.073 E276.4734
G0 F2700 X104.272 Y129.638
G1 F2700 X127.813 Y106.097 E278.0513
G0 F2700 X128.378 Y106.097
G1 F2700 X104.272 Y130.204 E279.6671
G0 F2700 X104.272 Y130.770
G1 F2700 X128.944 Y106.097 E281.3208
G0 F2700 X129.510 Y106.097
G1 F2700 X104.272 Y131.335 E283.0125
G0 F2700 X104.272 Y131.901
G1 F2700 X130.075 Y106.097 E284.7420
G0 F2700 X130.641 Y106.097
G1 F2700 X104.272 Y132.467 E286.5095
G0 F2700 X104.272 Y133.032
G1 F2700 X131.207 Y106.097 E288.3149
G0 F2700 X131.772 Y106.097
G1 F2700 X104.272 Y133.598 E290.1582
G0 F2700 X104.272 Y134.164
G1 F2700 X132.338 Y106.097 E292.0394
G0 F2700 X132.904 Y106.097
G1 F2700 X104.272 Y134.730 E293.9586
G0 F2700 X104.272 Y135.295
G1 F2700 X133.469 Y106.097 E295.9156
G0 F2700 X134.035 Y106.097
G1 F2700 X104.272 Y135.861 E297.9106
G0 F2700 X104.272 Y136.427
G1 F2700 X134.601 Y106.097 E299.9435
G0 F2700 X135.166 Y106.097
G1 F2700 X104.272 Y136.992 E302.0143
G0 F2700 X104.272 Y137.558
G1 F2700 X135.732 Y106.097 E304.1230
G0 F2700 X136.298 Y106.097
G1 F2700 X104.272 Y138.124 E306.2697
G0 F2700 X104.272 Y138.689
G1 F2700 X136.864 Y106.097 E308.4542
G0 F2700 X137.429 Y106.097
G1 F2700 X104.272 Y139.255 E310.6767
G0 F2700 X104.272 Y139.821
