;Sliced by ideaMaker 5.3.2.8640, 2026-02-08 11:02:01 UTC+0100
;Slicer Version: 5.3.0.8620
;Dimension: 250.000 250.000 250.000 0.400
;Plate Shape: 0
;Origin Center: 0
;Extruder Offset #1: 25.000 0.000
;Filament Diameter #1: 1.750
;Filament Diameter #2: 1.750
;Filament Compensation #1: 94.000
;Filament Compensation #2: 90.000
;Filament Density #1: 1240.000
;Filament Density #2: 1240.000
;Filament Type #1: PLA
;Filament Type #2: PLA
;Filament Name #1: [Raise3D] Premium PLA 1.75mm
;Filament Name #2: [Raise3D] Premium PLA 1.75mm
;Filament #1: PLA 1.75mm
;Filament #2: PLA 1.75mm
;Printer Type: floppy
;Firmware: Klipper
;Bounding Box: 112.109 133.267 113.966 135.093 0.000 20.100
;Model Gap: 0.000
M221 T0 S94.00
M140 S48.00
M104 T0 S195.00
M109 T0 S195.00
T0
M190 S48.00
G21 ;metric values
G90 ;absolute positioning
M82 ;set extruder to absolute mode
M107 ;start with the fan off
G28 X0 Y0 ;move X/Y to min endstops
G28 Z0 ;move Z to min endstops
G1 Z15.0 F9000 ;move the platform down 15mm

G92 E0 ;zero the extruded length

G0 X43 Y27 F2000  ;go to the edge of the bed
G92 X0 Y0 E0 ;set zero to edge of the bed
G0 F9000 Z1 ;Z up with 1mm
G1 F200 Z0 ;Z home slowly

G1 Z15.0 F9000 ;move the platform down 15mm

G1 F9000 ;speed setting
G92 E-3 ;retraction
M117 Printing...
M1001
;TOTAL_NUM: 1
;PRINTING_TIME: 0
;REMAINING_TIME: 1107
;LAYER:0
;Z:0.300
;HEIGHT:0.300
;PRINTING: NON-OBJECT
;PRINTING_ID: -1
G1 F2400 E-3.0000
G0 F3900 X112.230 Y114.119
G0 F300 Z0.300
G0 F3900 X112.508 Y114.005
;TYPE:SKIRT
;WIDTH:0.400
G1 F1500 E0.0000
G1 F900 X132.952 Y113.966 E1.0200
G1 X133.197 Y114.334 E1.0420
G1 X133.267 Y134.622 E2.0542
G1 X133.146 Y134.909 E2.0697
G1 X132.868 Y135.023 E2.0847
G1 X112.580 Y135.093 E3.0969
G1 X112.293 Y134.972 E3.1124
G1 X112.179 Y134.694 E3.1274
G1 X112.109 Y114.406 E4.1396
G1 X112.230 Y114.119 E4.1551
G1 X112.508 Y114.005 E4.1701
G0 F3900 X112.509 Y114.405
G1 F900 X132.797 Y114.335 E5.1823
G1 X132.867 Y134.623 E6.1945
G1 X112.579 Y134.693 E7.2067
G1 X112.509 Y114.405 E8.2189
;PRINTING: FlowCalibrationCube4mm_nozzle0.8walls.stl
;PRINTING_ID: 0
G1 F2400 E5.2189
G1 F300 Z0.500
G0 F3900 X112.888 Y114.714
;TYPE:WALL-OUTER
;WIDTH:0.400
G1 F300 Z0.300
G1 F1500 E8.2189
G1 F2400 X132.488 Y114.714 E9.1967
G1 X132.488 Y134.314 E10.1745
G1 X112.888 Y134.314 E11.1524
G1 X112.888 Y114.714 E12.1302
G0 F3900 X113.288 Y115.114
;TYPE:WALL-INNER
;WIDTH:0.400
G1 F2400 X132.088 Y115.114 E13.0682
G1 X132.088 Y133.914 E14.0061
G1 X113.288 Y133.914 E14.9440
G1 X113.288 Y115.114 E15.8820
G0 F3900 X113.688 Y115.514
G1 F2400 X131.688 Y115.514 E16.7800
G1 X131.688 Y133.514 E17.6780
G1 X113.688 Y133.514 E18.5761
G1 X113.688 Y115.514 E19.4741
G0 F3900 X114.088 Y115.914
G1 F2400 X131.288 Y115.914 E20.3322
G1 X131.288 Y133.114 E21.1903
G1 X114.088 Y133.114 E22.0484
G1 X114.088 Y115.914 E22.9065
G1 F2400 E19.9065
G1 F300 Z0.500
G0 F3900 X130.523 Y116.098
;TYPE:SOLID-FILL
;WIDTH:0.400
G1 F300 Z0.300
G1 F1500 E22.9065
G1 F2400 X131.103 Y116.678 E22.9474
G0 F2400 X131.103 Y117.244
G1 F2400 X129.957 Y116.098 E23.0283
G0 F2400 X129.392 Y116.098
G1 F2400 X131.103 Y117.810 E23.1491
G0 F2400 X131.103 Y118.376
G1 F2400 X128.826 Y116.098 E23.3098
G0 F2400 X128.260 Y116.098
G1 F2400 X131.103 Y118.941 E23.5103
G0 F2400 X131.103 Y119.507
G1 F2400 X127.694 Y116.098 E23.7509
G0 F2400 X127.129 Y116.098
G1 F2400 X131.103 Y120.073 E24.0313
G0 F2400 X131.103 Y120.638
G1 F2400 X126.563 Y116.098 E24.3516
G0 F2400 X125.997 Y116.098
G1 F2400 X131.103 Y121.204 E24.7119
G0 F2400 X131.103 Y121.770
G1 F2400 X125.432 Y116.098 E25.1120
G0 F2400 X124.866 Y116.098
G1 F2400 X131.103 Y122.335 E25.5521
G0 F2400 X131.103 Y122.901
G1 F2400 X124.300 Y116.098 E26.0321
G0 F2400 X123.735 Y116.098
G1 F2400 X131.103 Y123.467 E26.5519
G0 F2400 X131.103 Y124.032
G1 F2400 X123.169 Y116.098 E27.1117
G0 F2400 X122.603 Y116.098
G1 F2400 X131.103 Y124.598 E27.7115
G0 F2400 X131.103 Y125.164
G1 F2400 X122.038 Y116.098 E28.3511
G0 F2400 X121.472 Y116.098
G1 F2400 X131.103 Y125.729 E29.0306
G0 F2400 X131.103 Y126.295
G1 F2400 X120.906 Y116.098 E29.7500
G0 F2400 X120.341 Y116.098
G1 F2400 X131.103 Y126.861 E30.5094
G0 F2400 X131.103 Y127.427
G1 F2400 X119.775 Y116.098 E31.3087
G0 F2400 X119.209 Y116.098
G1 F2400 X131.103 Y127.992 E32.1479
G0 F2400 X131.103 Y128.558
G1 F2400 X118.644 Y116.098 E33.0270
G0 F2400 X118.078 Y116.098
G1 F2400 X131.103 Y129.124 E33.9460
G0 F2400 X131.103 Y129.689
G1 F2400 X117.512 Y116.098 E34.9049
G0 F2400 X116.946 Y116.098
G1 F2400 X131.103 Y130.255 E35.9037
G0 F2400 X131.103 Y130.821
G1 F2400 X116.381 Y116.098 E36.9425
G0 F2400 X115.815 Y116.098
G1 F2400 X131.103 Y131.386 E38.0212
G0 F2400 X131.103 Y131.952
G1 F2400 X115.249 Y116.098 E39.1397
G0 F2400 X114.684 Y116.098
G1 F2400 X131.103 Y132.518 E40.2982
G0 F2400 X130.949 Y132.929
G1 F2400 X114.271 Y116.251 E41.4749
G0 F2400 X114.271 Y116.817
G1 F2400 X130.384 Y132.929 E42.6118
G0 F2400 X129.818 Y132.929
G1 F2400 X114.271 Y117.383 E43.7087
G0 F2400 X114.271 Y117.948
G1 F2400 X129.252 Y132.929 E44.7656
G0 F2400 X128.687 Y132.929
G1 F2400 X114.271 Y118.514 E45.7827
G0 F2400 X114.271 Y119.080
G1 F2400 X128.121 Y132.929 E46.7599
G0 F2400 X127.555 Y132.929
G1 F2400 X114.271 Y119.646 E47.6971
G0 F2400 X114.271 Y120.211
G1 F2400 X126.990 Y132.929 E48.5945
G0 F2400 X126.424 Y132.929
G1 F2400 X114.271 Y120.777 E49.4519
G0 F2400 X114.271 Y121.343
G1 F2400 X125.858 Y132.929 E50.2694
G0 F2400 X125.292 Y132.929
G1 F2400 X114.271 Y121.908 E51.0470
G0 F2400 X114.271 Y122.474
G1 F2400 X124.727 Y132.929 E51.7847
G0 F2400 X124.161 Y132.929
G1 F2400 X114.271 Y123.040 E52.4824
G0 F2400 X114.271 Y123.605
G1 F2400 X123.595 Y132.929 E53.1403
G0 F2400 X123.030 Y132.929
G1 F2400 X114.271 Y124.171 E53.7583
G0 F2400 X114.271 Y124.737
G1 F2400 X122.464 Y132.929 E54.3363
G0 F2400 X121.898 Y132.929
G1 F2400 X114.271 Y125.302 E54.8744
G0 F2400 X114.271 Y125.868
G1 F2400 X121.333 Y132.929 E55.3726
G0 F2400 X120.767 Y132.929
G1 F2400 X114.271 Y126.434 E55.8309
G0 F2400 X114.271 Y126.999
G1 F2400 X120.201 Y132.929 E56.2493
G0 F2400 X119.636 Y132.929
G1 F2400 X114.271 Y127.565 E56.6278
G0 F2400 X114.271 Y128.131
G1 F2400 X119.070 Y132.929 E56.9664
G0 F2400 X118.504 Y132.929
G1 F2400 X114.271 Y128.696 E57.2650
G0 F2400 X114.271 Y129.262
G1 F2400 X117.939 Y132.929 E57.5238
G0 F2400 X117.373 Y132.929
G1 F2400 X114.271 Y129.828 E57.7426
G0 F2400 X114.271 Y130.394
G1 F2400 X116.807 Y132.929 E57.9215
G0 F2400 X116.241 Y132.929
G1 F2400 X114.271 Y130.959 E58.0605
G0 F2400 X114.271 Y131.525
G1 F2400 X115.676 Y132.929 E58.1596
G0 F2400 X115.110 Y132.929
G1 F2400 X114.271 Y132.091 E58.2188
G0 F2400 X114.271 Y132.656
G1 F2400 X114.544 Y132.929 E58.2380
;PRINTING_TIME: 45
;REMAINING_TIME: 1062
;LAYER:1
;Z:0.600
;HEIGHT:0.300
M106 S64
;PRINTING: FlowCalibrationCube4mm_nozzle0.8walls.stl
;PRINTING_ID: 0
G1 F2400 E55.2380
G1 F300 Z0.800
G0 F3900 X113.388 Y115.124
G0 F300 Z0.600
G0 F3900 X112.888 Y114.714
;TYPE:WALL-OUTER
;WIDTH:0.400
G1 F300 Z0.600
G1 F1500 E58.2380
G1 F2100 X132.488 Y114.714 E59.2159
G1 X132.488 Y134.314 E60.1937
G1 X112.888 Y134.314 E61.1716
G1 X112.888 Y114.714 E62.1494
G0 F3900 X113.288 Y115.114
;TYPE:WALL-INNER
;WIDTH:0.400
;FLOW:90.0
G1 F2400 X132.088 Y115.114 E62.9936
G1 X132.088 Y133.914 E63.8377
G1 X113.288 Y133.914 E64.6818
G1 X113.288 Y115.114 E65.5260
G0 F3900 X113.688 Y115.514
G1 F2400 X131.688 Y115.514 E66.3342
G1 X131.688 Y133.514 E67.1424
G1 X113.688 Y133.514 E67.9507
G1 X113.688 Y115.514 E68.7589
G0 F3900 X114.088 Y115.914
G1 F2400 X131.288 Y115.914 E69.5312
G1 X131.288 Y133.114 E70.3035
G1 X114.088 Y133.114 E71.0758
G1 X114.088 Y115.914 E71.8481
G0 F3900 X114.271 Y116.244
;TYPE:SOLID-FILL
;WIDTH:0.400
;FLOW:95.0
G1 F2700 X114.419 Y116.097 E71.8580
G0 F2700 X114.984 Y116.097
G1 F2700 X114.271 Y116.810 E71.9057
G0 F2700 X114.271 Y117.376
G1 F2700 X115.550 Y116.097 E71.9915
G0 F2700 X116.116 Y116.097
G1 F2700 X114.271 Y117.941 E72.1151
G0 F2700 X114.271 Y118.507
G1 F2700 X116.681 Y116.097 E72.2766
G0 F2700 X117.247 Y116.097
G1 F2700 X114.271 Y119.073 E72.4761
G0 F2700 X114.271 Y119.638
G1 F2700 X117.813 Y116.097 E72.7135
G0 F2700 X118.378 Y116.097
G1 F2700 X114.271 Y120.204 E72.9888
G0 F2700 X114.271 Y120.770
G1 F2700 X118.944 Y116.097 E73.3020
G0 F2700 X119.510 Y116.097
G1 F2700 X114.271 Y121.335 E73.6531
G0 F2700 X114.271 Y121.901
G1 F2700 X120.075 Y116.097 E74.0422
G0 F2700 X120.641 Y116.097
G1 F2700 X114.271 Y122.467 E74.4691
G0 F2700 X114.271 Y123.033
G1 F2700 X121.207 Y116.097 E74.9340
G0 F2700 X121.772 Y116.097
G1 F2700 X114.271 Y123.598 E75.4368
G0 F2700 X114.271 Y124.164
G1 F2700 X122.338 Y116.097 E75.9775
G0 F2700 X122.904 Y116.097
G1 F2700 X114.271 Y124.730 E76.5562
G0 F2700 X114.271 Y125.295
G1 F2700 X123.470 Y116.097 E77.1727
G0 F2700 X124.035 Y116.097
G1 F2700 X114.271 Y125.861 E77.8272
G0 F2700 X114.271 Y126.427
G1 F2700 X124.601 Y116.097 E78.5196
G0 F2700 X125.167 Y116.097
G1 F2700 X114.271 Y126.992 E79.2499
G0 F2700 X114.271 Y127.558
G1 F2700 X125.732 Y116.097 E80.0181
G0 F2700 X126.298 Y116.097
G1 F2700 X114.271 Y128.124 E80.8242
G0 F2700 X114.271 Y128.689
G1 F2700 X126.864 Y116.097 E81.6683
G0 F2700 X127.429 Y116.097
G1 F2700 X114.271 Y129.255 E82.5502
G0 F2700 X114.271 Y129.821
G1 F2700 X127.995 Y116.097 E83.4701
G0 F2700 X128.561 Y116.097
G1 F2700 X114.271 Y130.386 E84.4279
G0 F2700 X114.271 Y130.952
G1 F2700 X129.126 Y116.097 E85.4236
G0 F2700 X129.692 Y116.097
G1 F2700 X114.271 Y131.518 E86.4572
G0 F2700 X114.271 Y132.084
G1 F2700 X130.258 Y116.097 E87.5288
G0 F2700 X130.823 Y116.097
G1 F2700 X114.271 Y132.649 E88.6382
G0 F2700 X114.557 Y132.929
G1 F2700 X131.103 Y116.384 E89.7472
G0 F2700 X131.103 Y116.949
G1 F2700 X115.123 Y132.929 E90.8183
G0 F2700 X115.689 Y132.929
G1 F2700 X131.103 Y117.515 E91.8515
G0 F2700 X131.103 Y118.081
G1 F2700 X116.254 Y132.929 E92.8468
G0 F2700 X116.820 Y132.929
G1 F2700 X131.103 Y118.646 E93.8041
G0 F2700 X131.103 Y119.212
G1 F2700 X117.386 Y132.929 E94.7235
G0 F2700 X117.951 Y132.929
G1 F2700 X131.103 Y119.778 E95.6050
G0 F2700 X131.103 Y120.343
G1 F2700 X118.517 Y132.929 E96.4487
G0 F2700 X119.083 Y132.929
G1 F2700 X131.103 Y120.909 E97.2543
G0 F2700 X131.103 Y121.475
G1 F2700 X119.648 Y132.929 E98.0221
G0 F2700 X120.214 Y132.929
G1 F2700 X131.103 Y122.040 E98.7520
G0 F2700 X131.103 Y122.606
G1 F2700 X120.780 Y132.929 E99.4439
G0 F2700 X121.345 Y132.929
G1 F2700 X131.103 Y123.172 E100.0979
G0 F2700 X131.103 Y123.738
G1 F2700 X121.911 Y132.929 E100.7140
G0 F2700 X122.477 Y132.929
G1 F2700 X131.103 Y124.303 E101.2922
G0 F2700 X131.103 Y124.869
G1 F2700 X123.042 Y132.929 E101.8324
G0 F2700 X123.608 Y132.929
G1 F2700 X131.103 Y125.435 E102.3348
G0 F2700 X131.103 Y126.000
G1 F2700 X124.174 Y132.929 E102.7992
G0 F2700 X124.740 Y132.929
G1 F2700 X131.103 Y126.566 E103.2257
G0 F2700 X131.103 Y127.132
G1 F2700 X125.305 Y132.929 E103.6143
G0 F2700 X125.871 Y132.929
G1 F2700 X131.103 Y127.697 E103.9650
G0 F2700 X131.103 Y128.263
G1 F2700 X126.437 Y132.929 E104.2777
G0 F2700 X127.002 Y132.929
G1 F2700 X131.103 Y128.829 E104.5526
G0 F2700 X131.103 Y129.394
G1 F2700 X127.568 Y132.929 E104.7895
G0 F2700 X128.134 Y132.929
G1 F2700 X131.103 Y129.960 E104.9885
G0 F2700 X131.103 Y130.526
G1 F2700 X128.699 Y132.929 E105.1496
G0 F2700 X129.265 Y132.929
G1 F2700 X131.103 Y131.091 E105.2728
G0 F2700 X131.103 Y131.657
G1 F2700 X129.831 Y132.929 E105.3581
G0 F2700 X130.396 Y132.929
G1 F2700 X131.103 Y132.223 E105.4055
G0 F2700 X131.103 Y132.788
G1 F2700 X130.962 Y132.929 E105.4149
;PRINTING_TIME: 74
;REMAINING_TIME: 1033
;LAYER:2
;Z:0.900
;HEIGHT:0.300
;FLOW:100.0
;PRINTING: FlowCalibrationCube4mm_nozzle0.8walls.stl
;PRINTING_ID: 0
G1 F2400 E102.4149
G1 F300 Z1.100
G0 F3900 X113.388 Y115.124
G0 F300 Z0.900
G0 F3900 X112.888 Y114.714
;TYPE:WALL-OUTER
;WIDTH:0.400
G1 F300 Z0.900
G1 F1500 E105.4149
G1 F2100 X132.488 Y114.714 E106.3928
G1 X132.488 Y134.314 E107.3706
G1 X112.888 Y134.314 E108.3485
G1 X112.888 Y114.714 E109.3263
G0 F3900 X113.288 Y115.114
;TYPE:WALL-INNER
;WIDTH:0.400
;FLOW:90.0
G1 F2400 X132.088 Y115.114 E110.1704
G1 X132.088 Y133.914 E111.0146
G1 X113.288 Y133.914 E111.8587
G1 X113.288 Y115.114 E112.7029
G0 F3900 X113.688 Y115.514
G1 F2400 X131.688 Y115.514 E113.5111
G1 X131.688 Y133.514 E114.3193
G1 X113.688 Y133.514 E115.1275
G1 X113.688 Y115.514 E115.9358
G0 F3900 X114.088 Y115.914
G1 F2400 X131.288 Y115.914 E116.7081
G1 X131.288 Y133.114 E117.4804
G1 X114.088 Y133.114 E118.2527
G1 X114.088 Y115.914 E119.0250
G1 F2400 E116.0250
G1 F300 Z1.100
G0 F3900 X130.523 Y116.098
;TYPE:SOLID-FILL
;WIDTH:0.400
;FLOW:95.0
G1 F300 Z0.900
G1 F1500 E119.0250
G1 F3000 X131.103 Y116.678 E119.0638
G0 F3000 X131.103 Y117.244
G1 F3000 X129.957 Y116.098 E119.1406
G0 F3000 X129.392 Y116.098
G1 F3000 X131.103 Y117.810 E119.2554
G0 F3000 X131.103 Y118.376
G1 F3000 X128.826 Y116.098 E119.4080
G0 F3000 X128.260 Y116.098
G1 F3000 X131.103 Y118.941 E119.5986
G0 F3000 X131.103 Y119.507
G1 F3000 X127.694 Y116.098 E119.8271
G0 F3000 X127.129 Y116.098
G1 F3000 X131.103 Y120.073 E120.0935
G0 F3000 X131.103 Y120.638
G1 F3000 X126.563 Y116.098 E120.3978
G0 F3000 X125.997 Y116.098
G1 F3000 X131.103 Y121.204 E120.7400
G0 F3000 X131.103 Y121.770
G1 F3000 X125.432 Y116.098 E121.1202
G0 F3000 X124.866 Y116.098
G1 F3000 X131.103 Y122.335 E121.5382
G0 F3000 X131.103 Y122.901
G1 F3000 X124.300 Y116.098 E121.9942
G0 F3000 X123.735 Y116.098
G1 F3000 X131.103 Y123.467 E122.4881
G0 F3000 X131.103 Y124.032
G1 F3000 X123.169 Y116.098 E123.0199
G0 F3000 X122.603 Y116.098
G1 F3000 X131.103 Y124.598 E123.5896
G0 F3000 X131.103 Y125.164
G1 F3000 X122.038 Y116.098 E124.1973
G0 F3000 X121.472 Y116.098
G1 F3000 X131.103 Y125.729 E124.8428
G0 F3000 X131.103 Y126.295
G1 F3000 X120.906 Y116.098 E125.5263
G0 F3000 X120.341 Y116.098
G1 F3000 X131.103 Y126.861 E126.2477
G0 F3000 X131.103 Y127.427
G1 F3000 X119.775 Y116.098 E127.0070
G0 F3000 X119.209 Y116.098
G1 F3000 X131.103 Y127.992 E127.8042
G0 F3000 X131.103 Y128.558
G1 F3000 X118.644 Y116.098 E128.6394
G0 F3000 X118.078 Y116.098
G1 F3000 X131.103 Y129.124 E129.5124
G0 F3000 X131.103 Y129.689
G1 F3000 X117.512 Y116.098 E130.4234
G0 F3000 X116.946 Y116.098
G1 F3000 X131.103 Y130.255 E131.3723
G0 F3000 X131.103 Y130.821
G1 F3000 X116.381 Y116.098 E132.3591
G0 F3000 X115.815 Y116.098
G1 F3000 X131.103 Y131.386 E133.3838
G0 F3000 X131.103 Y131.952
G1 F3000 X115.249 Y116.098 E134.4465
G0 F3000 X114.684 Y116.098
G1 F3000 X131.103 Y132.518 E135.5471
G0 F3000 X130.949 Y132.929
G1 F3000 X114.271 Y116.251 E136.6650
G0 F3000 X114.271 Y116.817
G1 F3000 X130.384 Y132.929 E137.7449
G0 F3000 X129.818 Y132.929
G1 F3000 X114.271 Y117.383 E138.7870
G0 F3000 X114.271 Y117.948
G1 F3000 X129.252 Y132.929 E139.7911
G0 F3000 X128.687 Y132.929
G1 F3000 X114.271 Y118.514 E140.7574
G0 F3000 X114.271 Y119.080
G1 F3000 X128.121 Y132.929 E141.6857
G0 F3000 X127.555 Y132.929
G1 F3000 X114.271 Y119.646 E142.5760
G0 F3000 X114.271 Y120.211
G1 F3000 X126.990 Y132.929 E143.4285
G0 F3000 X126.424 Y132.929
G1 F3000 X114.271 Y120.777 E144.2431
G0 F3000 X114.271 Y121.343
G1 F3000 X125.858 Y132.929 E145.0197
G0 F3000 X125.292 Y132.929
G1 F3000 X114.271 Y121.908 E145.7584
G0 F3000 X114.271 Y122.474
G1 F3000 X124.727 Y132.929 E146.4592
G0 F3000 X124.161 Y132.929
G1 F3000 X114.271 Y123.040 E147.1221
G0 F3000 X114.271 Y123.605
G1 F3000 X123.595 Y132.929 E147.7470
G0 F3000 X123.030 Y132.929
G1 F3000 X114.271 Y124.171 E148.3341
G0 F3000 X114.271 Y124.737
G1 F3000 X122.464 Y132.929 E148.8832
G0 F3000 X121.898 Y132.929
G1 F3000 X114.271 Y125.302 E149.3944
G0 F3000 X114.271 Y125.868
G1 F3000 X121.333 Y132.929 E149.8678
G0 F3000 X120.767 Y132.929
G1 F3000 X114.271 Y126.434 E150.3031
G0 F3000 X114.271 Y126.999
G1 F3000 X120.201 Y132.929 E150.7006
G0 F3000 X119.636 Y132.929
G1 F3000 X114.271 Y127.565 E151.0602
G0 F3000 X114.271 Y128.131
G1 F3000 X119.070 Y132.929 E151.3818
G0 F3000 X118.504 Y132.929
G1 F3000 X114.271 Y128.696 E151.6655
G0 F3000 X114.271 Y129.262
G1 F3000 X117.939 Y132.929 E151.9114
G0 F3000 X117.373 Y132.929
G1 F3000 X114.271 Y129.828 E152.1192
G0 F3000 X114.271 Y130.394
G1 F3000 X116.807 Y132.929 E152.2892
