;Sliced by ideaMaker 5.2.3.8580, 2025-04-26 16:27:49 UTC+0200
;Slicer Version: 5.2.3.8580
;Dimension: 250.000 250.000 250.000 0.400
;Plate Shape: 0
;Origin Center: 0
;Extruder Offset #1: 25.000 0.000
;Filament Diameter #1: 1.750
;Filament Diameter #2: 1.750
;Filament Compensation #1: 94.000
;Filament Compensation #2: 90.000
;Filament Density #1: 1240.000
;Filament Density #2: 1240.000
;Filament Type #1: PLA
;Filament Type #2: PLA
;Filament Name #1: [Raise3D] Premium PLA 1.75mm
;Filament Name #2: [Raise3D] Premium PLA 1.75mm
;Filament #1: PLA 1.75mm
;Filament #2: PLA 1.75mm
;Printer Type: floppy
;Firmware: Klipper
;Bounding Box: 29.610 220.397 29.583 220.394 0.000 0.600
;Model Gap: 0.000
M221 T0 S94.00
M140 S50.00
M104 T0 S190.00
M109 T0 S190.00
T0
M190 S50.00
G21 ;metric values
G90 ;absolute positioning
M82 ;set extruder to absolute mode
M107 ;start with the fan off
G28 X0 Y0 ;move X/Y to min endstops
G28 Z0 ;move Z to min endstops
G1 Z15.0 F9000 ;move the platform down 15mm
G92 E0 ;zero the extruded length
G0 X43 Y27 F2000  ;go to the edge of the bed
G92 X0 Y0 E0 ;set zero to edge of the bed
G0 F9000 Z1 ;Z up with 1mm
G1 F200 Z0 ;Z home slowly
G1 Z15.0 F9000 ;move the platform down 15mm
G1 F9000 ;speed setting
G92 E-3 ;retraction
M117 Printing...
M1001
;TOTAL_NUM: 1
;PRINTING_TIME: 0
;REMAINING_TIME: 3868
;LAYER:0
;Z:0.300
;HEIGHT:0.300
;PRINTING: NON-OBJECT
;PRINTING_ID: -1
G1 F2400 E-3.0000
G0 F3900 X29.652 Y85.539
G0 F300 Z0.300
;TYPE:SKIRT
;WIDTH:0.400
G1 F1500 E0.0000
G1 F900 X85.640 Y29.608 E3.9482
G1 X163.795 Y29.583 E7.8474
G1 X166.374 Y30.917 E7.9923
G1 X220.397 Y85.678 E11.8300
G1 X220.347 Y164.458 E15.7604
G1 X164.362 Y220.394 E19.7087
G1 X85.556 Y220.347 E23.6403
G1 X29.610 Y164.348 E27.5895
G1 X29.652 Y85.539 E31.5213
G0 F3900 X30.020 Y85.695
G1 F900 X85.790 Y29.979 E35.4543
G1 X163.795 Y29.983 E39.3459
G1 X166.089 Y31.198 E39.4755
G1 X220.025 Y85.826 E43.3054
G1 X219.979 Y164.302 E47.2206
G1 X164.212 Y220.023 E51.1536
G1 X85.712 Y219.979 E55.0700
G1 X29.981 Y164.198 E59.0039
G1 X30.020 Y85.695 E62.9204
G0 F3900 X30.388 Y85.851
G1 F900 X85.940 Y30.350 E66.8381
G1 X163.610 Y30.338 E70.7131
G1 X165.804 Y31.479 E70.8365
G1 X219.653 Y85.974 E74.6587
G1 X219.611 Y164.146 E78.5587
G1 X164.062 Y219.652 E82.4765
G1 X85.868 Y219.611 E86.3776
G1 X30.352 Y164.048 E90.2962
G1 X30.388 Y85.851 E94.1975
G0 F3900 X30.756 Y86.007
G1 F900 X86.090 Y30.721 E98.0999
G1 X163.428 Y30.694 E101.9583
G1 X165.520 Y31.760 E102.0754
G1 X219.281 Y86.122 E105.8898
G1 X219.243 Y163.990 E109.7747
G1 X163.912 Y219.281 E113.6772
G1 X86.024 Y219.243 E117.5630
G1 X30.723 Y163.898 E121.4663
G1 X30.756 Y86.007 E125.3523
G0 F3900 X31.124 Y86.163
G1 F900 X86.240 Y31.092 E129.2395
G1 X163.428 Y31.094 E133.0904
G1 X165.236 Y32.041 E133.1922
G1 X218.909 Y86.270 E136.9988
G1 X218.875 Y163.834 E140.8685
G1 X163.762 Y218.910 E144.7557
G1 X86.180 Y218.875 E148.6263
G1 X31.094 Y163.748 E152.5144
G1 X31.124 Y86.163 E156.3851
G0 F3900 X31.492 Y86.319
G1 F900 X86.390 Y31.463 E160.2570
G1 X163.246 Y31.450 E164.0913
G1 X164.952 Y32.322 E164.1869
G1 X218.538 Y86.418 E167.9857
G1 X218.507 Y163.678 E171.8402
G1 X163.612 Y218.539 E175.7122
G1 X86.336 Y218.507 E179.5675
G1 X31.465 Y163.598 E183.4403
G1 X31.492 Y86.319 E187.2957
G0 F3900 X31.860 Y86.475
G1 F900 X86.540 Y31.834 E191.1523
G1 X163.068 Y31.808 E194.9703
G1 X164.668 Y32.604 E195.0595
G1 X218.167 Y86.567 E198.8505
G1 X218.139 Y163.522 E202.6898
G1 X163.462 Y218.168 E206.5465
G1 X86.492 Y218.139 E210.3866
G1 X31.836 Y163.448 E214.2441
G1 X31.860 Y86.475 E218.0843
G0 F3900 X32.228 Y86.631
G1 F900 X86.690 Y32.205 E221.9256
G1 X163.068 Y32.208 E225.7361
G1 X164.384 Y32.886 E225.8100
G1 X217.796 Y86.716 E229.5932
G1 X217.771 Y163.366 E233.4173
G1 X163.312 Y217.797 E237.2587
G1 X86.648 Y217.771 E241.0835
G1 X32.207 Y163.298 E244.9257
G1 X32.228 Y86.631 E248.7507
G0 F3900 X32.596 Y86.787
G1 F900 X86.840 Y32.576 E252.5767
G1 X162.890 Y32.566 E256.3709
G1 X164.100 Y33.168 E256.4383
G1 X217.425 Y86.865 E260.2138
G1 X217.403 Y163.210 E264.0227
G1 X163.162 Y217.426 E267.8488
G1 X86.804 Y217.403 E271.6583
G1 X32.578 Y163.148 E275.4853
G1 X32.596 Y86.787 E279.2949
G0 F3900 X32.964 Y86.943
G1 F900 X86.990 Y32.947 E283.1057
G1 X162.718 Y32.927 E286.8838
G1 X163.816 Y33.450 E286.9444
G1 X217.054 Y87.014 E290.7122
G1 X217.035 Y163.054 E294.5058
G1 X163.012 Y217.055 E298.3167
G1 X86.960 Y217.035 E302.1109
G1 X32.949 Y162.998 E305.9226
G1 X32.964 Y86.943 E309.7170
G0 F3900 X33.332 Y87.099
G1 F900 X87.140 Y33.318 E313.5125
G1 X162.554 Y33.292 E317.2749
G1 X163.532 Y33.732 E317.3284
G1 X216.683 Y87.163 E321.0884
G1 X216.667 Y162.898 E324.8668
G1 X162.862 Y216.684 E328.6624
G1 X87.116 Y216.667 E332.4414
G1 X33.320 Y162.848 E336.2378
G1 X33.332 Y87.099 E340.0169
G0 F3900 X33.700 Y87.255
G1 F900 X87.290 Y33.689 E343.7972
G1 X162.400 Y33.661 E347.5444
G1 X163.249 Y34.014 E347.5903
G1 X216.312 Y87.312 E351.3425
G1 X216.299 Y162.742 E355.1057
G1 X162.712 Y216.313 E358.8860
G1 X87.272 Y216.299 E362.6497
G1 X33.691 Y162.698 E366.4308
G1 X33.700 Y87.255 E370.1947
G0 F3900 X34.068 Y87.411
G1 F900 X87.440 Y34.060 E373.9596
G1 X162.400 Y34.061 E377.6994
G1 X162.966 Y34.296 E377.7300
G1 X215.941 Y87.461 E381.4744
G1 X215.931 Y162.586 E385.2224
G1 X162.562 Y215.942 E388.9874
G1 X87.428 Y215.931 E392.7358
G1 X34.062 Y162.548 E396.5017
G1 X34.068 Y87.411 E400.2503
G0 F3900 X34.436 Y87.567
G1 F900 X87.590 Y34.431 E403.9999
G1 X162.400 Y34.461 E407.7322
G1 X162.683 Y34.578 E407.7475
G1 X215.570 Y87.611 E411.4841
G1 X215.563 Y162.430 E415.2169
G1 X162.412 Y215.571 E418.9666
G1 X87.584 Y215.563 E422.6998
G1 X34.433 Y162.398 E426.4504
G1 X34.436 Y87.567 E430.1837
G0 F3900 X34.804 Y87.723
G1 F900 X87.740 Y34.802 E433.9181
G1 X162.400 Y34.861 E437.6429
G1 X215.199 Y87.761 E441.3717
G1 X215.195 Y162.274 E445.0892
G1 X162.262 Y215.200 E448.8236
G1 X87.740 Y215.195 E452.5416
G1 X34.804 Y162.248 E456.2769
G1 X34.804 Y87.723 E459.9949
;PRINTING: First_Layer_Test.stl
;PRINTING_ID: 0
G1 F2400 E456.9949
G0 F3900 X35.204 Y87.805
;TYPE:WALL-OUTER
;WIDTH:0.400
G1 F1500 E459.9949
G1 F2400 X87.822 Y35.202 E463.7069
G1 X162.178 Y35.202 E467.4165
G1 X214.799 Y87.843 E471.1299
G1 X214.795 Y162.192 E474.8392
G1 X162.180 Y214.800 E478.5512
G1 X87.822 Y214.795 E482.2610
G1 X35.204 Y162.166 E485.9739
G1 X35.204 Y87.805 E489.6837
G0 F3900 X35.604 Y87.971
;TYPE:WALL-INNER
;WIDTH:0.400
G1 F2400 X87.988 Y35.602 E493.3792
G1 X162.012 Y35.602 E497.0723
G1 X214.399 Y88.009 E500.7691
G1 X214.395 Y162.026 E504.4619
G1 X162.014 Y214.400 E508.1574
G1 X87.988 Y214.395 E511.8506
G1 X35.604 Y162.000 E515.5469
G1 X35.604 Y87.971 E519.2402
G0 F3900 X36.004 Y88.137
G1 F2400 X88.154 Y36.002 E522.9192
G1 X161.846 Y36.002 E526.5957
G1 X213.999 Y88.175 E530.2761
G1 X213.995 Y161.860 E533.9522
G1 X161.848 Y214.000 E537.6312
G1 X88.154 Y213.995 E541.3078
G1 X36.004 Y161.834 E544.9877
G1 X36.004 Y88.137 E548.6645
G0 F3900 X36.404 Y88.303
G1 F2400 X88.320 Y36.402 E552.3269
G1 X161.680 Y36.402 E555.9868
G1 X213.599 Y88.341 E559.6507
G1 X213.595 Y161.694 E563.3103
G1 X161.682 Y213.600 E566.9728
G1 X88.320 Y213.595 E570.6328
G1 X36.404 Y161.668 E574.2962
G1 X36.404 Y88.303 E577.9564
G1 F2400 E574.9564
G0 F3900 X36.587 Y161.321
;TYPE:SOLID-FILL
;WIDTH:0.400
G1 F1500 E577.9564
G1 F2400 X88.676 Y213.409 E581.6315
G0 F2400 X89.241 Y213.409
G1 F2400 X36.587 Y160.755 E585.3465
G0 F2400 X36.587 Y160.190
G1 F2400 X89.807 Y213.409 E589.1014
G0 F2400 X90.373 Y213.409
G1 F2400 X36.587 Y159.624 E592.8963
G0 F2400 X36.587 Y159.058
G1 F2400 X90.938 Y213.409 E596.7311
G0 F2400 X91.504 Y213.409
G1 F2400 X36.587 Y158.493 E600.6057
G0 F2400 X36.587 Y157.927
G1 F2400 X92.070 Y213.409 E604.5203
G0 F2400 X92.635 Y213.409
G1 F2400 X36.587 Y157.361 E608.4748
G0 F2400 X36.587 Y156.795
G1 F2400 X93.201 Y213.409 E612.4692
G0 F2400 X93.767 Y213.409
G1 F2400 X36.587 Y156.230 E616.5035
G0 F2400 X36.587 Y155.664
G1 F2400 X94.332 Y213.409 E620.5778
G0 F2400 X94.898 Y213.409
G1 F2400 X36.587 Y155.098 E624.6919
G0 F2400 X36.587 Y154.533
G1 F2400 X95.464 Y213.409 E628.8460
G0 F2400 X96.030 Y213.409
G1 F2400 X36.587 Y153.967 E633.0400
G0 F2400 X36.587 Y153.401
G1 F2400 X96.595 Y213.409 E637.2738
G0 F2400 X97.161 Y213.409
G1 F2400 X36.587 Y152.836 E641.5476
G0 F2400 X36.587 Y152.270
G1 F2400 X97.727 Y213.410 E645.8614
G0 F2400 X98.293 Y213.410
G1 F2400 X36.587 Y151.704 E650.2151
G0 F2400 X36.587 Y151.139
G1 F2400 X98.859 Y213.410 E654.6087
G0 F2400 X99.424 Y213.410
G1 F2400 X36.587 Y150.573 E659.0422
G0 F2400 X36.587 Y150.007
G1 F2400 X99.990 Y213.410 E663.5156
G0 F2400 X100.556 Y213.410
G1 F2400 X36.587 Y149.442 E668.0289
G0 F2400 X36.587 Y148.876
G1 F2400 X101.121 Y213.410 E672.5821
G0 F2400 X101.687 Y213.410
G1 F2400 X36.587 Y148.310 E677.1753
G0 F2400 X36.587 Y147.745
G1 F2400 X102.253 Y213.410 E681.8083
G0 F2400 X102.818 Y213.410
G1 F2400 X36.587 Y147.179 E686.4813
G0 F2400 X36.587 Y146.613
G1 F2400 X103.384 Y213.410 E691.1942
G0 F2400 X103.950 Y213.410
G1 F2400 X36.587 Y146.047 E695.9470
G0 F2400 X36.587 Y145.482
G1 F2400 X104.516 Y213.410 E700.7397
G0 F2400 X105.081 Y213.410
G1 F2400 X36.587 Y144.916 E705.5724
G0 F2400 X36.587 Y144.350
G1 F2400 X105.647 Y213.410 E710.4449
G0 F2400 X106.213 Y213.410
G1 F2400 X36.587 Y143.785 E715.3574
G0 F2400 X36.587 Y143.219
G1 F2400 X106.779 Y213.411 E720.3098
G0 F2400 X107.345 Y213.411
G1 F2400 X36.587 Y142.653 E725.3021
G0 F2400 X36.587 Y142.088
G1 F2400 X107.910 Y213.411 E730.3344
G0 F2400 X108.476 Y213.411
G1 F2400 X36.587 Y141.522 E735.4065
G0 F2400 X36.587 Y140.956
G1 F2400 X109.042 Y213.411 E740.5186
G0 F2400 X109.607 Y213.411
G1 F2400 X36.587 Y140.391 E745.6706
G0 F2400 X36.587 Y139.825
G1 F2400 X110.173 Y213.411 E750.8625
G0 F2400 X110.739 Y213.411
G1 F2400 X36.587 Y139.259 E756.0943
G0 F2400 X36.587 Y138.694
G1 F2400 X111.304 Y213.411 E761.3660
G0 F2400 X111.870 Y213.411
G1 F2400 X36.587 Y138.128 E766.6776
G0 F2400 X36.587 Y137.562
G1 F2400 X112.436 Y213.411 E772.0292
G0 F2400 X113.002 Y213.411
G1 F2400 X36.587 Y136.996 E777.4206
G0 F2400 X36.587 Y136.431
G1 F2400 X113.567 Y213.411 E782.8520
G0 F2400 X114.133 Y213.411
G1 F2400 X36.587 Y135.865 E788.3233
G0 F2400 X36.587 Y135.299
G1 F2400 X114.699 Y213.411 E793.8345
G0 F2400 X115.264 Y213.411
G1 F2400 X36.587 Y134.734 E799.3856
G0 F2400 X36.587 Y134.168
G1 F2400 X115.830 Y213.411 E804.9766
G0 F2400 X116.396 Y213.411
G1 F2400 X36.587 Y133.602 E810.6076
G0 F2400 X36.587 Y133.037
G1 F2400 X116.962 Y213.411 E816.2784
G0 F2400 X117.528 Y213.411
G1 F2400 X36.587 Y132.471 E821.9892
G0 F2400 X36.587 Y131.905
G1 F2400 X118.093 Y213.411 E827.7399
G0 F2400 X118.659 Y213.411
G1 F2400 X36.587 Y131.340 E833.5305
G0 F2400 X36.587 Y130.774
G1 F2400 X119.225 Y213.411 E839.3610
G0 F2400 X119.790 Y213.411
G1 F2400 X36.587 Y130.208 E845.2314
G0 F2400 X36.587 Y129.643
G1 F2400 X120.356 Y213.411 E851.1418
G0 F2400 X120.922 Y213.411
G1 F2400 X36.587 Y129.077 E857.0920
G0 F2400 X36.587 Y128.511
G1 F2400 X121.488 Y213.411 E863.0822
G0 F2400 X122.053 Y213.411
G1 F2400 X36.587 Y127.946 E869.1123
G0 F2400 X36.587 Y127.380
G1 F2400 X122.619 Y213.411 E875.1822
G0 F2400 X123.185 Y213.411
G1 F2400 X36.587 Y126.814 E881.2922
G0 F2400 X36.587 Y126.248
G1 F2400 X123.750 Y213.411 E887.4420
G0 F2400 X124.316 Y213.411
G1 F2400 X36.587 Y125.683 E893.6317
G0 F2400 X36.587 Y125.117
G1 F2400 X124.882 Y213.411 E899.8614
G0 F2400 X125.448 Y213.412
G1 F2400 X36.587 Y124.551 E906.1310
G0 F2400 X36.587 Y123.986
G1 F2400 X126.014 Y213.412 E912.4405
G0 F2400 X126.579 Y213.412
G1 F2400 X36.587 Y123.420 E918.7899
G0 F2400 X36.587 Y122.854
G1 F2400 X127.145 Y213.412 E925.1793
G0 F2400 X127.711 Y213.412
G1 F2400 X36.587 Y122.289 E931.6085
G0 F2400 X36.587 Y121.723
G1 F2400 X128.276 Y213.412 E938.0777
G0 F2400 X128.842 Y213.412
G1 F2400 X36.587 Y121.157 E944.5868
G0 F2400 X36.587 Y120.592
G1 F2400 X129.408 Y213.412 E951.1358
G0 F2400 X129.974 Y213.412
G1 F2400 X36.587 Y120.026 E957.7247
G0 F2400 X36.587 Y119.460
G1 F2400 X130.539 Y213.412 E964.3535
G0 F2400 X131.105 Y213.412
G1 F2400 X36.587 Y118.895 E971.0222
G0 F2400 X36.587 Y118.329
G1 F2400 X131.671 Y213.412 E977.7309
G0 F2400 X132.236 Y213.412
G1 F2400 X36.587 Y117.763 E984.4794
G0 F2400 X36.587 Y117.197
G1 F2400 X132.802 Y213.412 E991.2679
G0 F2400 X133.368 Y213.412
G1 F2400 X36.587 Y116.632 E998.0963
G0 F2400 X36.587 Y116.066
G1 F2400 X133.933 Y213.412 E1004.9646
G0 F2400 X134.500 Y213.413
G1 F2400 X36.587 Y115.500 E1011.8729
G0 F2400 X36.587 Y114.935
G1 F2400 X135.065 Y213.413 E1018.8210
G0 F2400 X135.631 Y213.413
G1 F2400 X36.587 Y114.369 E1025.8091
G0 F2400 X36.587 Y113.803
G1 F2400 X136.197 Y213.413 E1032.8372
G0 F2400 X136.762 Y213.413
G1 F2400 X36.587 Y113.238 E1039.9050
G0 F2400 X36.587 Y112.672
G1 F2400 X137.328 Y213.413 E1047.0129
G0 F2400 X137.894 Y213.413
G1 F2400 X36.587 Y112.106 E1054.1606
G0 F2400 X36.587 Y111.541
G1 F2400 X138.459 Y213.413 E1061.3482
G0 F2400 X139.025 Y213.413
G1 F2400 X36.587 Y110.975 E1068.5758
G0 F2400 X36.587 Y110.409
G1 F2400 X139.591 Y213.413 E1075.8433
G0 F2400 X140.157 Y213.413
G1 F2400 X36.587 Y109.844 E1083.1507
G0 F2400 X36.587 Y109.278
G1 F2400 X140.722 Y213.413 E1090.4980
G0 F2400 X141.288 Y213.413
G1 F2400 X36.587 Y108.712 E1097.8852
G0 F2400 X36.587 Y108.147
G1 F2400 X141.854 Y213.413 E1105.3123
G0 F2400 X142.419 Y213.413
G1 F2400 X36.587 Y107.581 E1112.7793
G0 F2400 X36.587 Y107.015
G1 F2400 X142.985 Y213.413 E1120.2863
G0 F2400 X143.551 Y213.414
G1 F2400 X36.587 Y106.449 E1127.8332
G0 F2400 X36.587 Y105.884
G1 F2400 X144.117 Y213.414 E1135.4200
G0 F2400 X144.683 Y213.414
G1 F2400 X36.587 Y105.318 E1143.0468
G0 F2400 X36.587 Y104.752
G1 F2400 X145.248 Y213.414 E1150.7134
G0 F2400 X145.814 Y213.414
G1 F2400 X36.587 Y104.187 E1158.4200
G0 F2400 X36.587 Y103.621
G1 F2400 X146.380 Y213.414 E1166.1665
G0 F2400 X146.945 Y213.414
G1 F2400 X36.587 Y103.055 E1173.9529
G0 F2400 X36.587 Y102.490
G1 F2400 X147.511 Y213.414 E1181.7792
G0 F2400 X148.077 Y213.414
G1 F2400 X36.587 Y101.924 E1189.6454
G0 F2400 X36.587 Y101.358
G1 F2400 X148.643 Y213.414 E1197.5515
G0 F2400 X149.208 Y213.414
G1 F2400 X36.587 Y100.793 E1205.4976
G0 F2400 X36.587 Y100.227
G1 F2400 X149.774 Y213.414 E1213.4835
G0 F2400 X150.340 Y213.414
G1 F2400 X36.587 Y99.661 E1221.5094
G0 F2400 X36.587 Y99.096
G1 F2400 X150.905 Y213.414 E1229.5751
G0 F2400 X151.471 Y213.414
G1 F2400 X36.587 Y98.530 E1237.6808
G0 F2400 X36.587 Y97.964
G1 F2400 X152.037 Y213.414 E1245.8265
G0 F2400 X152.603 Y213.414
G1 F2400 X36.587 Y97.399 E1254.0120
G0 F2400 X36.587 Y96.833
G1 F2400 X153.169 Y213.414 E1262.2374
G0 F2400 X153.734 Y213.414
G1 F2400 X36.587 Y96.267 E1270.5028
G0 F2400 X36.587 Y95.701
G1 F2400 X154.300 Y213.414 E1278.8081
G0 F2400 X154.866 Y213.414
G1 F2400 X36.587 Y95.136 E1287.1533
G0 F2400 X36.587 Y94.570
G1 F2400 X155.431 Y213.414 E1295.5383
G0 F2400 X155.997 Y213.414
G1 F2400 X36.587 Y94.004 E1303.9634
G0 F2400 X36.587 Y93.439
G1 F2400 X156.563 Y213.414 E1312.4283
G0 F2400 X157.129 Y213.414
G1 F2400 X36.587 Y92.873 E1320.9331
G0 F2400 X36.587 Y92.307
G1 F2400 X157.694 Y213.414 E1329.4779
G0 F2400 X158.260 Y213.414
G1 F2400 X36.587 Y91.742 E1338.0625
G0 F2400 X36.587 Y91.176
G1 F2400 X158.826 Y213.414 E1346.6871
G0 F2400 X159.391 Y213.414
G1 F2400 X36.587 Y90.610 E1355.3516
G0 F2400 X36.587 Y90.045
G1 F2400 X159.957 Y213.414 E1364.0560
G0 F2400 X160.523 Y213.414
G1 F2400 X36.587 Y89.479 E1372.8003
G0 F2400 X36.587 Y88.913
G1 F2400 X161.088 Y213.414 E1381.5845
G0 F2400 X161.630 Y213.390
G1 F2400 X36.604 Y88.364 E1390.4058
G0 F2400 X36.886 Y88.081
G1 F2400 X161.913 Y213.107 E1399.2271
G0 F2400 X162.196 Y212.824
G1 F2400 X37.169 Y87.798 E1408.0484
G0 F2400 X37.452 Y87.515
G1 F2400 X162.478 Y212.542 E1416.8697
G0 F2400 X162.761 Y212.259
G1 F2400 X37.735 Y87.232 E1425.6910
G0 F2400 X38.018 Y86.950
G1 F2400 X163.044 Y211.976 E1434.5122
G0 F2400 X163.327 Y211.693
G1 F2400 X38.301 Y86.667 E1443.3335
G0 F2400 X38.583 Y86.384
G1 F2400 X163.610 Y211.410 E1452.1548
G0 F2400 X163.893 Y211.127
G1 F2400 X38.866 Y86.101 E1460.9761
G0 F2400 X39.149 Y85.818
G1 F2400 X164.176 Y210.845 E1469.7974
