;Sliced by ideaMaker 5.2.4.8581, 2025-06-09 13:25:25 UTC+0200
;Slicer Version: 5.2.3.8580
;Dimension: 250.000 250.000 250.000 0.400
;Plate Shape: 0
;Origin Center: 0
;Extruder Offset #1: 25.000 0.000
;Filament Diameter #1: 1.750
;Filament Diameter #2: 1.750
;Filament Compensation #1: 94.000
;Filament Compensation #2: 90.000
;Filament Density #1: 1240.000
;Filament Density #2: 1240.000
;Filament Type #1: PLA
;Filament Type #2: PLA
;Filament Name #1: [Raise3D] Premium PLA 1.75mm
;Filament Name #2: [Raise3D] Premium PLA 1.75mm
;Filament #1: PLA 1.75mm
;Filament #2: PLA 1.75mm
;Printer Type: floppy
;Firmware: Klipper
;Bounding Box: 104.476 145.523 104.502 145.516 0.000 19.500
;Model Gap: 0.000
M221 T0 S94.00
M140 S50.00
M104 T0 S190.00
M109 T0 S190.00
T0
M190 S50.00
G21 ;metric values
G90 ;absolute positioning
M82 ;set extruder to absolute mode
M107 ;start with the fan off
G28 X0 Y0 ;move X/Y to min endstops
G28 Z0 ;move Z to min endstops
G1 Z15.0 F9000 ;move the platform down 15mm
G92 E0 ;zero the extruded length
G0 X43 Y27 F2000  ;go to the edge of the bed
G92 X0 Y0 E0 ;set zero to edge of the bed
G0 F9000 Z1 ;Z up with 1mm
G1 F200 Z0 ;Z home slowly
G1 Z15.0 F9000 ;move the platform down 15mm
G1 F9000 ;speed setting
G92 E-3 ;retraction
M117 Printing...
M1001
;TOTAL_NUM: 1
;PRINTING_TIME: 0
;REMAINING_TIME: 1790
;LAYER:0
;Z:0.300
;HEIGHT:0.300
;PRINTING: NON-OBJECT
;PRINTING_ID: -1
G1 F2400 E-3.0000
G0 F3900 X121.062 Y105.600
G0 F300 Z0.300
;TYPE:SKIRT
;WIDTH:0.400
G1 F1500 E0.0000
G1 F900 X122.659 Y104.758 E0.0901
G1 X125.588 Y104.502 E0.2368
G1 X127.608 Y104.839 E0.3389
G1 X129.150 Y105.817 E0.4300
G1 X130.296 Y108.200 E0.5619
G1 X130.394 Y110.611 E0.6823
G1 X131.937 Y111.241 E0.7655
G1 X136.081 Y114.308 E1.0227
G1 X138.616 Y117.811 E1.2384
G1 X139.408 Y119.655 E1.3385
G1 X142.299 Y119.843 E1.4831
G1 X144.404 Y121.065 E1.6045
G1 X145.248 Y122.644 E1.6938
G1 X145.523 Y125.387 E1.8314
G1 X145.216 Y127.464 E1.9361
G1 X144.165 Y129.173 E2.0362
G1 X142.228 Y130.180 E2.1451
G1 X139.413 Y130.339 E2.2858
G1 X138.755 Y131.944 E2.3723
G1 X135.777 Y135.995 E2.6232
G1 X132.178 Y138.621 E2.8454
G1 X130.336 Y139.413 E2.9455
G1 X130.149 Y142.288 E3.0892
G1 X128.924 Y144.399 E3.2110
G1 X127.343 Y145.240 E3.3003
G1 X124.804 Y145.516 E3.4277
G1 X122.563 Y145.212 E3.5406
G1 X120.838 Y144.139 E3.6419
G1 X119.712 Y141.867 E3.7684
G1 X119.645 Y139.406 E3.8913
G1 X117.965 Y138.714 E3.9819
G1 X113.992 Y135.777 E4.2284
G1 X111.370 Y132.188 E4.4501
G1 X110.578 Y130.343 E4.5503
G1 X107.704 Y130.156 E4.6940
G1 X105.593 Y128.931 E4.8158
G1 X104.752 Y127.350 E4.9051
G1 X104.476 Y124.809 E5.0326
G1 X104.779 Y122.570 E5.1453
G1 X105.858 Y120.841 E5.2470
G1 X108.125 Y119.718 E5.3732
G1 X110.586 Y119.652 E5.4961
G1 X111.278 Y117.972 E5.5867
G1 X114.215 Y113.999 E5.8332
G1 X117.804 Y111.377 E6.0550
G1 X119.649 Y110.585 E6.1551
G1 X119.836 Y107.711 E6.2988
G1 X121.062 Y105.600 E6.4206
G0 F3900 X121.255 Y105.950
G1 F900 X122.695 Y105.156 E6.5026
G1 X125.522 Y104.897 E6.6443
G1 X127.542 Y105.234 E6.7464
G1 X128.929 Y106.151 E6.8294
G1 X129.932 Y108.365 E6.9507
G1 X130.001 Y110.882 E7.0763
G1 X131.786 Y111.611 E7.1725
G1 X135.757 Y114.543 E7.4187
G1 X138.292 Y118.046 E7.6345
G1 X139.137 Y120.041 E7.7426
G1 X142.107 Y120.194 E7.8909
G1 X144.055 Y121.260 E8.0017
G1 X144.850 Y122.686 E8.0832
G1 X145.127 Y125.329 E8.2158
G1 X144.820 Y127.406 E8.3205
G1 X143.828 Y128.957 E8.4124
G1 X142.205 Y129.781 E8.5032
G1 X139.139 Y129.954 E8.6564
G1 X138.385 Y131.792 E8.7555
G1 X135.541 Y135.672 E8.9955
G1 X131.942 Y138.298 E9.2178
G1 X129.950 Y139.143 E9.3257
G1 X129.798 Y142.096 E9.4732
G1 X128.730 Y144.049 E9.5843
G1 X127.300 Y144.842 E9.6659
G1 X124.761 Y145.118 E9.7933
G1 X122.764 Y144.866 E9.8937
G1 X121.194 Y143.956 E9.9842
G1 X120.112 Y141.856 E10.1021
G1 X120.038 Y139.133 E10.2380
G1 X118.203 Y138.392 E10.3367
G1 X114.230 Y135.455 E10.5832
G1 X111.694 Y131.953 E10.7989
G1 X110.849 Y129.957 E10.9071
G1 X107.896 Y129.805 E11.0546
G1 X105.943 Y128.737 E11.1656
G1 X105.150 Y127.307 E11.2472
G1 X104.874 Y124.766 E11.3747
G1 X105.125 Y122.771 E11.4751
G1 X106.041 Y121.197 E11.5659
G1 X108.136 Y120.118 E11.6835
G1 X110.859 Y120.045 E11.8194
G1 X111.600 Y118.210 E11.9181
G1 X114.537 Y114.237 E12.1646
G1 X118.039 Y111.701 E12.3803
G1 X120.035 Y110.856 E12.4885
G1 X120.187 Y107.903 E12.6360
G1 X121.255 Y105.950 E12.7470
G0 F3900 X121.456 Y106.296
G1 F900 X122.733 Y105.554 E12.8207
G1 X125.456 Y105.292 E12.9572
G1 X127.476 Y105.629 E13.0594
G1 X128.701 Y106.480 E13.1338
G1 X129.532 Y108.376 E13.2371
G1 X129.608 Y111.153 E13.3757
G1 X131.635 Y111.981 E13.4849
G1 X135.433 Y114.778 E13.7202
G1 X137.968 Y118.281 E13.9359
G1 X138.865 Y120.427 E14.0520
G1 X142.086 Y120.593 E14.2129
G1 X143.710 Y121.462 E14.3048
G1 X144.452 Y122.730 E14.3781
G1 X144.731 Y125.271 E14.5056
G1 X144.424 Y127.348 E14.6104
G1 X143.496 Y128.735 E14.6936
G1 X142.182 Y129.382 E14.7667
G1 X138.864 Y129.569 E14.9325
G1 X138.015 Y131.640 E15.0442
G1 X135.305 Y135.349 E15.2733
G1 X131.706 Y137.975 E15.4956
G1 X129.564 Y138.871 E15.6114
G1 X129.399 Y142.075 E15.7715
G1 X128.529 Y143.703 E15.8636
G1 X127.257 Y144.444 E15.9370
G1 X124.718 Y144.720 E16.0645
G1 X122.816 Y144.469 E16.1602
G1 X121.401 Y143.614 E16.2426
G1 X120.472 Y141.683 E16.3496
G1 X120.435 Y138.861 E16.4904
G1 X118.353 Y138.021 E16.6024
G1 X114.554 Y135.220 E16.8378
G1 X112.018 Y131.718 E17.0536
G1 X111.121 Y129.571 E17.1696
G1 X107.917 Y129.406 E17.3297
G1 X106.289 Y128.536 E17.4218
G1 X105.548 Y127.264 E17.4952
G1 X105.272 Y124.723 E17.6228
G1 X105.522 Y122.823 E17.7184
G1 X106.383 Y121.404 E17.8012
G1 X108.309 Y120.479 E17.9078
G1 X111.131 Y120.442 E18.0486
G1 X111.971 Y118.360 E18.1606
G1 X114.772 Y114.561 E18.3961
G1 X118.274 Y112.025 E18.6118
G1 X120.421 Y111.128 E18.7279
G1 X120.586 Y107.924 E18.8879
G1 X121.456 Y106.296 E18.9800
G0 F3900 X121.666 Y106.636
G1 F900 X122.773 Y105.952 E19.0449
G1 X125.390 Y105.687 E19.1762
G1 X127.410 Y106.024 E19.2783
G1 X128.463 Y106.802 E19.3437
G1 X129.132 Y108.387 E19.4295
G1 X129.215 Y111.424 E19.5811
G1 X131.484 Y112.351 E19.7033
G1 X135.109 Y115.013 E19.9277
G1 X137.644 Y118.516 E20.1434
G1 X138.591 Y120.813 E20.2674
G1 X142.065 Y120.992 E20.4409
G1 X143.370 Y121.673 E20.5144
G1 X144.054 Y122.774 E20.5791
G1 X144.333 Y125.315 E20.7066
G1 X144.084 Y127.137 E20.7983
G1 X143.311 Y128.381 E20.8714
G1 X142.160 Y128.983 E20.9362
G1 X138.589 Y129.184 E21.1146
G1 X137.645 Y131.488 E21.2389
G1 X135.069 Y135.026 E21.4572
G1 X131.470 Y137.652 E21.6795
G1 X129.178 Y138.597 E21.8032
G1 X129.000 Y142.054 E21.9759
G1 X128.319 Y143.363 E22.0495
G1 X127.214 Y144.046 E22.1143
G1 X124.675 Y144.322 E22.2417
G1 X122.871 Y144.073 E22.3326
G1 X121.615 Y143.276 E22.4068
G1 X120.872 Y141.678 E22.4947
G1 X120.831 Y138.590 E22.6488
G1 X118.503 Y137.650 E22.7740
G1 X114.878 Y134.985 E22.9985
G1 X112.342 Y131.483 E23.2142
G1 X111.395 Y129.185 E23.3382
G1 X107.938 Y129.007 E23.5109
G1 X106.629 Y128.326 E23.5845
G1 X105.946 Y127.221 E23.6493
G1 X105.670 Y124.680 E23.7768
G1 X105.918 Y122.878 E23.8676
G1 X106.720 Y121.619 E23.9421
G1 X108.314 Y120.879 E24.0297
G1 X111.402 Y120.838 E24.1838
G1 X112.342 Y118.510 E24.3091
G1 X115.007 Y114.885 E24.5335
G1 X118.509 Y112.349 E24.7493
G1 X120.807 Y111.402 E24.8733
G1 X120.985 Y107.945 E25.0460
G1 X121.666 Y106.636 E25.1196
G0 F3900 X121.888 Y106.969
G1 F900 X122.816 Y106.350 E25.1752
G1 X125.324 Y106.082 E25.3011
G1 X127.344 Y106.419 E25.4032
G1 X128.213 Y107.114 E25.4587
G1 X128.732 Y108.398 E25.5278
G1 X128.822 Y111.695 E25.6924
G1 X131.333 Y112.721 E25.8277
G1 X134.785 Y115.248 E26.0412
G1 X137.320 Y118.751 E26.2569
G1 X138.315 Y121.199 E26.3887
G1 X142.044 Y121.391 E26.5750
G1 X143.038 Y121.895 E26.6306
G1 X143.657 Y122.820 E26.6861
G1 X143.937 Y125.261 E26.8087
G1 X143.688 Y127.083 E26.9005
G1 X143.115 Y128.033 E26.9558
G1 X142.138 Y128.584 E27.0118
G1 X138.314 Y128.799 E27.2028
G1 X137.275 Y131.336 E27.3396
G1 X134.746 Y134.790 E27.5532
G1 X131.236 Y137.328 E27.7693
G1 X128.792 Y138.322 E27.9009
G1 X128.601 Y142.033 E28.0863
G1 X128.097 Y143.030 E28.1420
G1 X127.169 Y143.649 E28.1977
G1 X124.730 Y143.926 E28.3202
G1 X122.926 Y143.677 E28.4110
G1 X121.974 Y143.099 E28.4666
G1 X121.272 Y141.673 E28.5459
G1 X121.227 Y138.319 E28.7132
G1 X118.653 Y137.279 E28.8517
G1 X115.202 Y134.750 E29.0652
G1 X112.666 Y131.248 E29.2809
G1 X111.670 Y128.799 E29.4128
G1 X107.959 Y128.608 E29.5982
G1 X106.962 Y128.104 E29.6539
G1 X106.343 Y127.176 E29.7096
G1 X106.066 Y124.735 E29.8321
G1 X106.314 Y122.933 E29.9229
G1 X106.896 Y121.978 E29.9787
G1 X108.319 Y121.279 E30.0578
G1 X111.673 Y121.234 E30.2251
G1 X112.713 Y118.660 E30.3636
G1 X115.242 Y115.209 E30.5771
G1 X118.744 Y112.673 E30.7928
G1 X121.193 Y111.677 E30.9247
G1 X121.384 Y107.966 E31.1101
G1 X121.888 Y106.969 E31.1658
;PRINTING: GROHEAeratorKey.stl
;PRINTING_ID: 0
G1 F2400 E28.1658
G0 F3900 X123.627 Y136.861
;TYPE:WALL-OUTER
;WIDTH:0.400
G1 F1500 E31.1658
G1 F2400 X121.514 Y135.765 E31.2846
G1 X119.811 Y135.174 E31.3745
G1 X116.919 Y133.073 E31.5528
G1 X114.818 Y130.181 E31.7312
G1 X114.227 Y128.476 E31.8212
G1 X113.132 Y126.460 E31.9357
G1 X108.601 Y126.264 E32.1619
G1 X108.452 Y125.000 E32.2254
G1 X108.608 Y123.706 E32.2905
G1 X108.784 Y123.638 E32.2999
G1 X113.131 Y123.634 E32.5167
G1 X114.227 Y121.521 E32.6355
G1 X114.818 Y119.818 E32.7254
G1 X116.919 Y116.926 E32.9038
G1 X119.811 Y114.825 E33.0821
G1 X121.516 Y114.234 E33.1721
G1 X123.532 Y113.139 E33.2866
G1 X123.728 Y108.608 E33.5129
G1 X124.990 Y108.459 E33.5763
G1 X125.793 Y108.579 E33.6168
G1 X126.303 Y108.618 E33.6423
G1 X126.362 Y108.788 E33.6513
G1 X126.450 Y113.137 E33.8683
G1 X128.469 Y114.234 E33.9829
G1 X130.174 Y114.825 E34.0729
G1 X133.067 Y116.926 E34.2513
G1 X135.168 Y119.819 E34.4297
G1 X135.758 Y121.523 E34.5197
G1 X136.853 Y123.539 E34.6341
G1 X141.400 Y123.735 E34.8612
G1 X141.550 Y125.000 E34.9247
G1 X141.400 Y126.264 E34.9882
G1 X136.853 Y126.460 E35.2153
G1 X135.758 Y128.476 E35.3298
G1 X135.168 Y130.180 E35.4197
G1 X133.067 Y133.073 E35.5981
G1 X130.174 Y135.174 E35.7765
G1 X128.469 Y135.765 E35.8665
G1 X126.453 Y136.860 E35.9810
G1 X126.257 Y141.391 E36.2072
G1 X124.994 Y141.540 E36.2707
G1 X123.699 Y141.384 E36.3358
G1 X123.631 Y141.208 E36.3452
G1 X123.627 Y136.861 E36.5620
G0 F3900 X124.027 Y136.618
;TYPE:WALL-INNER
;WIDTH:0.400
G1 F2400 X121.672 Y135.397 E36.6944
G1 X119.998 Y134.816 E36.7828
G1 X117.205 Y132.787 E36.9550
G1 X115.177 Y129.994 E37.1272
G1 X114.594 Y128.314 E37.2159
G1 X113.375 Y126.070 E37.3433
G1 X108.958 Y125.879 E37.5639
G1 X108.855 Y125.001 E37.6080
G1 X108.971 Y124.038 E37.6564
G1 X113.374 Y124.034 E37.8761
G1 X114.595 Y121.679 E38.0084
G1 X115.176 Y120.005 E38.0968
G1 X117.205 Y117.212 E38.2691
G1 X119.998 Y115.184 E38.4413
G1 X121.678 Y114.601 E38.5300
G1 X123.922 Y113.382 E38.6574
G1 X124.113 Y108.965 E38.8780
G1 X124.984 Y108.863 E38.9217
G1 X125.748 Y108.977 E38.9602
G1 X125.966 Y108.993 E38.9711
G1 X126.055 Y113.377 E39.1899
G1 X128.307 Y114.601 E39.3178
G1 X129.987 Y115.184 E39.4065
G1 X132.781 Y117.212 E39.5787
G1 X134.809 Y120.006 E39.7510
G1 X135.391 Y121.685 E39.8396
G1 X136.610 Y123.929 E39.9671
G1 X141.043 Y124.120 E40.1884
G1 X141.147 Y125.000 E40.2326
G1 X141.043 Y125.879 E40.2768
G1 X136.610 Y126.070 E40.4982
G1 X135.391 Y128.314 E40.6256
G1 X134.809 Y129.993 E40.7142
G1 X132.781 Y132.787 E40.8865
G1 X129.987 Y134.815 E41.0587
G1 X128.307 Y135.398 E41.1474
G1 X126.063 Y136.617 E41.2748
G1 X125.872 Y141.034 E41.4954
G1 X124.994 Y141.137 E41.5395
G1 X124.031 Y141.021 E41.5879
G1 X124.027 Y136.618 E41.8076
G0 F3900 X124.427 Y136.375
G1 F2400 X121.830 Y135.029 E41.9535
G1 X120.185 Y134.458 E42.0404
G1 X117.491 Y132.501 E42.2065
G1 X115.535 Y129.807 E42.3726
G1 X114.961 Y128.152 E42.4600
G1 X113.618 Y125.680 E42.6003
G1 X109.316 Y125.494 E42.8152
G1 X109.258 Y125.002 E42.8399
G1 X109.326 Y124.438 E42.8682
G1 X113.617 Y124.434 E43.0823
G1 X114.963 Y121.837 E43.2282
G1 X115.534 Y120.192 E43.3151
G1 X117.491 Y117.498 E43.4812
G1 X120.185 Y115.542 E43.6473
G1 X121.840 Y114.968 E43.7347
G1 X124.312 Y113.625 E43.8751
G1 X124.498 Y109.323 E44.0899
G1 X125.573 Y109.355 E44.1436
G1 X125.660 Y113.617 E44.3562
G1 X128.145 Y114.968 E44.4973
G1 X129.800 Y115.542 E44.5847
G1 X132.495 Y117.498 E44.7509
G1 X134.450 Y120.193 E44.9170
G1 X135.024 Y121.847 E45.0043
G1 X136.367 Y124.319 E45.1447
G1 X140.686 Y124.505 E45.3604
G1 X140.744 Y125.000 E45.3852
G1 X140.686 Y125.494 E45.4100
G1 X136.367 Y125.680 E45.6257
G1 X135.024 Y128.152 E45.7661
G1 X134.450 Y129.806 E45.8534
G1 X132.495 Y132.501 E46.0195
G1 X129.800 Y134.457 E46.1856
G1 X128.145 Y135.031 E46.2730
G1 X125.673 Y136.374 E46.4134
G1 X125.487 Y140.676 E46.6282
G1 X124.995 Y140.734 E46.6529
G1 X124.431 Y140.666 E46.6813
G1 X124.427 Y136.375 E46.8954
G0 F3900 X124.827 Y136.132
G1 F2400 X121.988 Y134.661 E47.0549
G1 X120.372 Y134.100 E47.1402
G1 X117.777 Y132.215 E47.3002
G1 X115.893 Y129.620 E47.4602
G1 X115.328 Y127.990 E47.5463
G1 X113.861 Y125.290 E47.6996
G1 X109.673 Y125.109 E47.9087
G1 X109.661 Y125.003 E47.9141
G1 X109.681 Y124.838 E47.9223
G1 X113.860 Y124.834 E48.1308
G1 X115.331 Y121.995 E48.2904
G1 X115.892 Y120.379 E48.3757
G1 X117.777 Y117.784 E48.5357
G1 X120.372 Y115.900 E48.6957
G1 X122.002 Y115.335 E48.7818
G1 X124.702 Y113.868 E48.9351
G1 X124.881 Y109.735 E49.1415
G1 X125.181 Y109.744 E49.1564
G1 X125.265 Y113.857 E49.3617
G1 X127.983 Y115.335 E49.5160
G1 X129.613 Y115.901 E49.6021
G1 X132.209 Y117.784 E49.7621
G1 X134.091 Y120.380 E49.9221
G1 X134.657 Y122.009 E50.0081
G1 X136.124 Y124.709 E50.1614
G1 X140.328 Y124.890 E50.3714
G1 X140.341 Y125.000 E50.3769
G1 X140.328 Y125.109 E50.3824
G1 X136.124 Y125.290 E50.5923
G1 X134.657 Y127.990 E50.7456
G1 X134.091 Y129.619 E50.8316
G1 X132.209 Y132.215 E50.9916
G1 X129.613 Y134.098 E51.1516
G1 X127.983 Y134.664 E51.2377
G1 X125.283 Y136.131 E51.3910
G1 X125.102 Y140.319 E51.6001
G1 X124.996 Y140.331 E51.6054
G1 X124.831 Y140.311 E51.6137
G1 X124.827 Y136.132 E51.8222
G1 F2400 E48.8222
G0 F3900 X119.054 Y132.914
;TYPE:SOLID-FILL
;WIDTH:0.400
G1 F1500 E51.8222
G1 F2400 X117.077 Y130.936 E51.9618
G0 F3900 X115.961 Y129.255
G1 F2400 X120.736 Y134.029 E52.2986
G0 F2400 X121.603 Y134.331
G1 F2400 X115.662 Y128.390 E52.7178
G0 F2400 X115.193 Y127.355
G1 F2400 X122.616 Y134.778 E53.2415
G0 F2400 X123.789 Y135.386
G1 F2400 X114.520 Y126.116 E53.8955
G0 F2400 X113.976 Y125.007
G1 F2400 X124.963 Y135.994 E54.6707
G0 F2400 X125.394 Y135.859
G1 F2400 X114.169 Y124.634 E55.4627
G0 F2400 X114.362 Y124.261
G1 F2400 X125.761 Y135.660 E56.2670
G0 F2400 X126.127 Y135.461
G1 F2400 X114.555 Y123.889 E57.0834
G0 F2400 X114.748 Y123.516
G1 F2400 X126.493 Y135.261 E57.9121
G0 F2400 X126.860 Y135.063
G1 F2400 X114.941 Y123.144 E58.7531
G0 F2400 X115.134 Y122.771
G1 F2400 X127.226 Y134.863 E59.6062
G0 F2400 X127.593 Y134.664
G1 F2400 X115.327 Y122.398 E60.4717
G0 F2400 X115.515 Y122.021
G1 F2400 X127.967 Y134.472 E61.3502
G0 F2400 X128.387 Y134.326
G1 F2400 X115.662 Y121.601 E62.2480
G0 F2400 X115.807 Y121.181
G1 F2400 X128.807 Y134.181 E63.1652
G0 F2400 X129.227 Y134.035
G1 F2400 X115.953 Y120.761 E64.1018
G0 F2400 X116.126 Y120.369
G1 F2400 X129.620 Y133.863 E65.0538
G0 F2400 X129.948 Y133.625
G1 F2400 X116.364 Y120.041 E66.0123
G0 F2400 X116.602 Y119.713
G1 F2400 X130.275 Y133.387 E66.9770
G0 F2400 X130.604 Y133.149
G1 F2400 X116.840 Y119.386 E67.9481
G0 F2400 X117.078 Y119.058
G1 F2400 X130.932 Y132.912 E68.9256
G0 F2400 X131.260 Y132.674
G1 F2400 X117.316 Y118.731 E69.9094
G0 F2400 X117.554 Y118.402
G1 F2400 X131.588 Y132.436 E70.8995
G0 F2400 X131.915 Y132.198
G1 F2400 X117.792 Y118.075 E71.8960
G0 F2400 X118.076 Y117.794
G1 F2400 X132.198 Y131.915 E72.8923
G0 F2400 X132.436 Y131.587
G1 F2400 X118.404 Y117.555 E73.8824
G0 F2400 X118.732 Y117.318
G1 F2400 X132.673 Y131.259 E74.8660
G0 F2400 X132.911 Y130.931
G1 F2400 X119.059 Y117.079 E75.8433
G0 F2400 X119.387 Y116.842
G1 F2400 X133.148 Y130.603 E76.8142
G0 F2400 X133.386 Y130.275
G1 F2400 X119.715 Y116.604 E77.7788
G0 F2400 X120.043 Y116.366
