;Sliced by ideaMaker 5.2.4.8581, 2025-07-13 11:19:31 UTC+0200
;Slicer Version: 5.2.3.8580
;Dimension: 250.000 250.000 250.000 0.400
;Plate Shape: 0
;Origin Center: 0
;Extruder Offset #1: 25.000 0.000
;Filament Diameter #1: 1.750
;Filament Diameter #2: 1.750
;Filament Compensation #1: 94.000
;Filament Compensation #2: 90.000
;Filament Density #1: 1240.000
;Filament Density #2: 1240.000
;Filament Type #1: PLA
;Filament Type #2: PLA
;Filament Name #1: [Raise3D] Premium PLA 1.75mm
;Filament Name #2: [Raise3D] Premium PLA 1.75mm
;Filament #1: PLA 1.75mm
;Filament #2: PLA 1.75mm
;Printer Type: floppy
;Firmware: Klipper
;Bounding Box: 80.629 169.461 69.866 180.111 0.000 47.400
;Model Gap: 0.000
M221 T0 S94.00
M140 S50.00
M104 T0 S190.00
M109 T0 S190.00
T0
M190 S50.00
G21 ;metric values
G90 ;absolute positioning
M82 ;set extruder to absolute mode
M107 ;start with the fan off
G28 X0 Y0 ;move X/Y to min endstops
G28 Z0 ;move Z to min endstops
G1 Z15.0 F9000 ;move the platform down 15mm
G92 E0 ;zero the extruded length
G0 X43 Y27 F2000  ;go to the edge of the bed
G92 X0 Y0 E0 ;set zero to edge of the bed
G0 F9000 Z1 ;Z up with 1mm
G1 F200 Z0 ;Z home slowly
G1 Z15.0 F9000 ;move the platform down 15mm
G1 F9000 ;speed setting
G92 E-3 ;retraction
M117 Printing...
M1001
;TOTAL_NUM: 1
;PRINTING_TIME: 0
;REMAINING_TIME: 10170
;LAYER:0
;Z:0.300
;HEIGHT:0.300
;PRINTING: NON-OBJECT
;PRINTING_ID: -1
G1 F2400 E-3.0000
G0 F3900 X82.403 Y71.151
G0 F300 Z0.300
;TYPE:SKIRT
;WIDTH:0.400
G1 F1500 E0.0000
G1 F900 X83.418 Y70.431 E0.0621
G1 X85.417 Y69.866 E0.1657
G1 X165.360 Y69.898 E4.1541
G1 X167.899 Y71.039 E4.2930
G1 X168.563 Y71.808 E4.3437
G1 X169.012 Y72.763 E4.3963
G1 X169.461 Y74.828 E4.5017
G1 X169.313 Y76.776 E4.5992
G1 X168.016 Y79.478 E4.7487
G1 X166.026 Y81.454 E4.8886
G1 X162.778 Y83.366 E5.0767
G1 X151.890 Y88.168 E5.6704
G1 X146.824 Y90.983 E5.9595
G1 X143.408 Y93.313 E6.1658
G1 X141.164 Y95.084 E6.3084
G1 X139.031 Y96.969 E6.4504
G1 X136.022 Y100.012 E6.6639
G1 X134.192 Y102.128 E6.8035
G1 X131.596 Y105.542 E7.0175
G1 X129.278 Y109.099 E7.2293
G1 X127.162 Y112.923 E7.4473
G1 X125.369 Y116.745 E7.6580
G1 X124.284 Y119.475 E7.8045
G1 X123.160 Y122.895 E7.9841
G1 X122.376 Y126.145 E8.1509
G1 X121.933 Y129.966 E8.3428
G1 X122.195 Y132.785 E8.4841
G1 X122.915 Y134.437 E8.5740
G1 X123.908 Y135.357 E8.6415
G1 X125.022 Y135.830 E8.7019
G1 X127.417 Y136.175 E8.8226
G1 X129.494 Y136.097 E8.9263
G1 X132.273 Y135.679 E9.0665
G1 X135.512 Y134.566 E9.2374
G1 X138.997 Y134.065 E9.4130
G1 X142.173 Y134.476 E9.5728
G1 X143.663 Y135.109 E9.6536
G1 X145.501 Y136.494 E9.7684
G1 X146.786 Y138.306 E9.8792
G1 X147.567 Y140.473 E9.9941
G1 X150.570 Y145.501 E10.2863
G1 X152.268 Y149.274 E10.4927
G1 X152.784 Y151.563 E10.6098
G1 X152.842 Y153.450 E10.7040
G1 X152.498 Y155.492 E10.8073
G1 X151.721 Y157.476 E10.9136
G1 X150.578 Y158.809 E11.0012
G1 X149.174 Y159.636 E11.0825
G1 X147.700 Y159.925 E11.1574
G1 X146.122 Y159.722 E11.2368
G1 X144.790 Y159.073 E11.3107
G1 X143.984 Y158.349 E11.3648
G1 X143.216 Y157.197 E11.4339
G1 X142.533 Y155.245 E11.5370
G1 X141.788 Y154.308 E11.5968
G1 X140.877 Y153.876 E11.6471
G1 X139.487 Y153.992 E11.7167
G1 X129.744 Y161.027 E12.3162
G1 X125.258 Y164.880 E12.6112
G1 X122.376 Y168.202 E12.8307
G1 X118.128 Y175.367 E13.2462
G1 X115.340 Y178.404 E13.4519
G1 X113.029 Y179.623 E13.5823
G1 X110.392 Y180.111 E13.7160
G1 X107.350 Y179.754 E13.8689
G1 X104.900 Y178.793 E14.0001
G1 X101.829 Y176.571 E14.1893
G1 X100.545 Y175.151 E14.2848
G1 X99.452 Y173.498 E14.3836
G1 X98.072 Y169.889 E14.5764
G1 X97.744 Y166.342 E14.7541
G1 X97.990 Y163.942 E14.8745
G1 X98.672 Y161.371 E15.0072
G1 X99.785 Y158.767 E15.1485
G1 X101.977 Y155.012 E15.3654
G1 X102.769 Y153.295 E15.4597
G1 X103.382 Y151.528 E15.5530
G1 X103.980 Y148.692 E15.6976
G1 X104.100 Y144.957 E15.8841
G1 X102.884 Y136.985 E16.2864
G1 X102.652 Y130.134 E16.6284
G1 X102.905 Y126.184 E16.8259
G1 X103.351 Y122.453 E17.0133
G1 X105.317 Y111.015 E17.5923
G1 X106.086 Y105.204 E17.8848
G1 X106.202 Y100.643 E18.1124
G1 X105.782 Y97.256 E18.2827
G1 X105.127 Y95.051 E18.3974
G1 X104.559 Y93.814 E18.4653
G1 X103.321 Y91.946 E18.5771
G1 X102.427 Y90.972 E18.6431
G1 X100.657 Y89.518 E18.7574
G1 X97.771 Y87.835 E18.9241
G1 X94.687 Y86.505 E19.0916
G1 X87.083 Y83.696 E19.4960
G1 X83.138 Y81.380 E19.7243
G1 X81.514 Y79.526 E19.8472
G1 X80.629 Y77.167 E19.9729
G1 X80.698 Y74.596 E20.1013
G1 X81.631 Y72.142 E20.2322
G1 X82.403 Y71.151 E20.2949
G0 F3900 X82.715 Y71.401
G1 F900 X83.645 Y70.761 E20.3512
G1 X85.417 Y70.266 E20.4430
G1 X165.360 Y70.298 E24.4314
G1 X167.596 Y71.300 E24.5536
G1 X168.260 Y72.069 E24.6043
G1 X168.647 Y72.927 E24.6513
G1 X169.070 Y74.911 E24.7525
G1 X168.914 Y76.742 E24.8442
G1 X167.733 Y79.195 E24.9800
G1 X165.823 Y81.109 E25.1149
G1 X162.575 Y83.021 E25.3029
G1 X151.709 Y87.811 E25.8954
G1 X146.621 Y90.638 E26.1858
G1 X143.160 Y92.999 E26.3948
G1 X140.905 Y94.779 E26.5381
G1 X138.756 Y96.677 E26.6812
G1 X135.733 Y99.736 E26.8957
G1 X133.883 Y101.874 E27.0368
G1 X131.268 Y105.313 E27.2523
G1 X128.932 Y108.899 E27.4658
G1 X126.807 Y112.738 E27.6847
G1 X124.997 Y116.597 E27.8974
G1 X123.912 Y119.327 E28.0440
G1 X122.774 Y122.787 E28.2257
G1 X121.982 Y126.070 E28.3942
G1 X121.531 Y129.962 E28.5896
G1 X121.803 Y132.888 E28.7362
G1 X122.581 Y134.672 E28.8333
G1 X123.688 Y135.698 E28.9086
G1 X124.913 Y136.219 E28.9751
G1 X127.397 Y136.576 E29.1003
G1 X129.534 Y136.496 E29.2070
G1 X132.364 Y136.070 E29.3497
G1 X135.642 Y134.944 E29.5227
G1 X138.948 Y134.462 E29.6893
G1 X142.017 Y134.844 E29.8436
G1 X143.507 Y135.477 E29.9244
G1 X145.176 Y136.728 E30.0285
G1 X146.410 Y138.442 E30.1338
G1 X147.203 Y140.644 E30.2506
G1 X150.227 Y145.706 E30.5448
G1 X151.903 Y149.438 E30.7489
G1 X152.393 Y151.650 E30.8619
G1 X152.442 Y153.461 E30.9523
G1 X152.104 Y155.424 E31.0517
G1 X151.349 Y157.329 E31.1539
G1 X150.375 Y158.464 E31.2285
G1 X148.971 Y159.291 E31.3098
G1 X147.630 Y159.531 E31.3778
G1 X146.178 Y159.326 E31.4509
G1 X144.970 Y158.716 E31.5184
G1 X144.256 Y158.055 E31.5670
G1 X143.551 Y156.978 E31.6312
G1 X142.888 Y155.049 E31.7330
G1 X142.044 Y153.987 E31.8006
G1 X140.969 Y153.477 E31.8600
G1 X139.840 Y153.459 E31.9163
G1 X139.306 Y153.630 E31.9443
G1 X129.494 Y160.715 E32.5481
G1 X124.976 Y164.595 E32.8452
G1 X122.050 Y167.968 E33.0680
G1 X117.784 Y175.163 E33.4853
G1 X115.153 Y178.050 E33.6802
G1 X112.842 Y179.269 E33.8105
G1 X110.439 Y179.714 E33.9325
G1 X107.397 Y179.357 E34.0853
G1 X105.134 Y178.469 E34.2066
G1 X102.063 Y176.247 E34.3957
G1 X100.843 Y174.884 E34.4869
G1 X99.786 Y173.278 E34.5829
G1 X98.470 Y169.852 E34.7660
G1 X98.142 Y166.305 E34.9437
G1 X98.388 Y163.984 E35.0601
G1 X99.058 Y161.474 E35.1897
G1 X100.153 Y158.925 E35.3281
G1 X102.333 Y155.195 E35.5437
G1 X103.141 Y153.444 E35.6399
G1 X103.767 Y151.638 E35.7352
G1 X104.379 Y148.737 E35.8832
G1 X104.501 Y144.937 E36.0728
G1 X103.279 Y136.925 E36.4772
G1 X103.052 Y130.121 E36.8168
G1 X103.304 Y126.210 E37.0123
G1 X103.748 Y122.501 E37.1987
G1 X105.714 Y111.067 E37.7775
G1 X106.485 Y105.238 E38.0709
G1 X106.603 Y100.624 E38.3011
G1 X106.175 Y97.176 E38.4745
G1 X105.502 Y94.910 E38.5924
G1 X104.909 Y93.619 E38.6633
G1 X103.636 Y91.698 E38.7783
G1 X102.702 Y90.680 E38.8472
G1 X100.885 Y89.188 E38.9645
G1 X97.956 Y87.480 E39.1336
G1 X94.826 Y86.130 E39.3037
G1 X87.222 Y83.321 E39.7081
G1 X83.436 Y81.113 E39.9268
G1 X81.889 Y79.385 E40.0425
G1 X81.004 Y77.026 E40.1682
G1 X81.098 Y74.612 E40.2887
G1 X82.004 Y72.287 E40.4132
G1 X82.715 Y71.401 E40.4699
G0 F3900 X83.023 Y71.657
G1 F900 X83.867 Y71.094 E40.5205
G1 X85.417 Y70.666 E40.6007
G1 X165.360 Y70.698 E44.5891
G1 X167.298 Y71.567 E44.6951
G1 X167.895 Y72.233 E44.7397
G1 X168.282 Y73.091 E44.7866
G1 X168.678 Y74.993 E44.8836
G1 X168.516 Y76.704 E44.9693
G1 X167.449 Y78.914 E45.0918
G1 X165.620 Y80.764 E45.2215
G1 X162.372 Y82.676 E45.4096
G1 X151.528 Y87.454 E46.0008
G1 X146.418 Y90.293 E46.2924
G1 X142.912 Y92.685 E46.5042
G1 X140.646 Y94.474 E46.6482
G1 X138.491 Y96.377 E46.7916
G1 X135.436 Y99.468 E47.0085
G1 X133.574 Y101.620 E47.1504
G1 X130.940 Y105.084 E47.3675
G1 X128.586 Y108.699 E47.5828
G1 X126.452 Y112.553 E47.8025
G1 X124.625 Y116.449 E48.0172
G1 X123.540 Y119.179 E48.1638
G1 X122.388 Y122.679 E48.3476
G1 X121.588 Y125.995 E48.5178
G1 X121.129 Y129.958 E48.7168
G1 X121.411 Y132.991 E48.8688
G1 X122.247 Y134.907 E48.9731
G1 X123.468 Y136.039 E49.0562
G1 X124.804 Y136.608 E49.1286
G1 X127.377 Y136.977 E49.2583
G1 X129.574 Y136.895 E49.3680
G1 X132.455 Y136.461 E49.5133
G1 X135.772 Y135.322 E49.6883
G1 X138.901 Y134.859 E49.8461
G1 X141.861 Y135.212 E49.9948
G1 X143.351 Y135.845 E50.0756
G1 X144.853 Y136.964 E50.1690
G1 X146.034 Y138.577 E50.2688
G1 X146.840 Y140.816 E50.3875
G1 X149.884 Y145.911 E50.6836
G1 X151.538 Y149.602 E50.8854
G1 X152.002 Y151.735 E50.9943
G1 X152.042 Y153.470 E51.0809
G1 X151.710 Y155.355 E51.1764
G1 X150.978 Y157.180 E51.2745
G1 X150.172 Y158.119 E51.3362
G1 X148.768 Y158.946 E51.4175
G1 X147.567 Y159.136 E51.4782
G1 X146.239 Y158.931 E51.5452
G1 X145.156 Y158.362 E51.6062
G1 X144.532 Y157.766 E51.6493
G1 X143.929 Y156.848 E51.7041
G1 X143.243 Y154.853 E51.8093
G1 X142.300 Y153.666 E51.8850
G1 X141.061 Y153.078 E51.9534
G1 X139.781 Y153.058 E52.0173
G1 X139.125 Y153.268 E52.0516
G1 X129.244 Y160.403 E52.6597
G1 X124.694 Y164.310 E52.9589
G1 X121.734 Y167.722 E53.1842
G1 X120.692 Y169.279 E53.2777
G1 X117.437 Y174.964 E53.6045
G1 X114.966 Y177.696 E53.7883
G1 X112.655 Y178.915 E53.9187
G1 X110.369 Y179.320 E54.0345
G1 X107.446 Y178.960 E54.1814
G1 X105.282 Y178.097 E54.2976
G1 X102.298 Y175.924 E54.4818
G1 X101.143 Y174.619 E54.5688
G1 X100.120 Y173.059 E54.6618
G1 X98.868 Y169.815 E54.8353
G1 X98.540 Y166.268 E55.0130
G1 X98.786 Y164.028 E55.1254
G1 X99.444 Y161.578 E55.2520
G1 X100.520 Y159.083 E55.3876
G1 X102.689 Y155.378 E55.6018
G1 X103.513 Y153.593 E55.6998
G1 X104.152 Y151.748 E55.7973
G1 X104.776 Y148.790 E55.9481
G1 X104.938 Y146.841 E56.0456
G1 X104.901 Y144.907 E56.1422
G1 X103.674 Y136.865 E56.5480
G1 X103.452 Y130.108 E56.8853
G1 X103.703 Y126.236 E57.0789
G1 X104.145 Y122.549 E57.2641
G1 X106.111 Y111.119 E57.8428
G1 X106.884 Y105.272 E58.1370
G1 X107.004 Y100.605 E58.3699
G1 X106.568 Y97.096 E58.5463
G1 X105.875 Y94.763 E58.6678
G1 X105.262 Y93.428 E58.7410
G1 X103.951 Y91.450 E58.8594
G1 X102.977 Y90.388 E58.9313
G1 X101.113 Y88.858 E59.0516
G1 X98.141 Y87.125 E59.2233
G1 X94.965 Y85.755 E59.3958
G1 X87.361 Y82.946 E59.8003
G1 X83.731 Y80.843 E60.0096
G1 X82.262 Y79.240 E60.1180
G1 X81.404 Y77.042 E60.2358
G1 X81.498 Y74.628 E60.3563
G1 X82.375 Y72.436 E60.4741
G1 X83.023 Y71.657 E60.5246
G0 F3900 X83.325 Y71.919
G1 F900 X84.084 Y71.430 E60.5697
G1 X85.417 Y71.066 E60.6386
G1 X165.360 Y71.098 E64.6270
G1 X167.000 Y71.834 E64.7167
G1 X167.597 Y72.500 E64.7613
G1 X167.914 Y73.247 E64.8018
G1 X168.286 Y75.073 E64.8947
G1 X168.118 Y76.662 E64.9745
G1 X167.163 Y78.634 E65.0838
G1 X165.417 Y80.419 E65.2083
G1 X162.169 Y82.331 E65.3964
G1 X151.347 Y87.097 E65.9863
G1 X146.215 Y89.948 E66.2792
G1 X142.664 Y92.371 E66.4937
G1 X140.387 Y94.169 E66.6384
G1 X138.216 Y96.085 E66.7829
G1 X135.146 Y99.192 E67.0008
G1 X133.265 Y101.366 E67.1442
G1 X130.612 Y104.855 E67.3629
G1 X128.240 Y108.499 E67.5798
G1 X126.097 Y112.368 E67.8005
G1 X124.253 Y116.301 E68.0172
G1 X123.168 Y119.031 E68.1638
G1 X122.002 Y122.571 E68.3497
G1 X121.194 Y125.920 E68.5216
G1 X120.728 Y129.947 E68.7238
G1 X120.802 Y131.816 E68.8172
G1 X121.022 Y133.088 E68.8816
G1 X121.403 Y134.226 E68.9414
G1 X121.929 Y135.158 E68.9948
G1 X123.248 Y136.380 E69.0845
G1 X124.695 Y136.997 E69.1630
G1 X127.357 Y137.378 E69.2972
G1 X129.614 Y137.294 E69.4099
G1 X132.546 Y136.852 E69.5578
G1 X135.902 Y135.700 E69.7348
G1 X138.856 Y135.256 E69.8838
G1 X141.705 Y135.580 E70.0269
G1 X143.195 Y136.213 E70.1077
G1 X144.532 Y137.203 E70.1907
G1 X145.658 Y138.712 E70.2846
G1 X146.477 Y140.988 E70.4053
G1 X149.541 Y146.116 E70.7033
G1 X151.173 Y149.765 E70.9027
G1 X151.611 Y151.818 E71.0074
G1 X151.642 Y153.477 E71.0902
G1 X151.316 Y155.284 E71.1818
G1 X150.607 Y157.029 E71.2758
G1 X149.963 Y157.778 E71.3251
G1 X148.698 Y158.552 E71.3991
G1 X147.628 Y158.741 E71.4533
G1 X146.300 Y158.536 E71.5203
G1 X145.349 Y158.012 E71.5745
G1 X144.814 Y157.482 E71.6121
G1 X144.265 Y156.631 E71.6626
G1 X143.600 Y154.659 E71.7664
G1 X142.555 Y153.345 E71.8502
G1 X141.154 Y152.679 E71.9276
G1 X139.722 Y152.657 E71.9990
G1 X138.944 Y152.906 E72.0398
G1 X128.987 Y160.096 E72.6525
G1 X124.415 Y164.021 E72.9531
G1 X121.415 Y167.480 E73.1816
G1 X120.351 Y169.069 E73.2770
G1 X117.090 Y174.765 E73.6044
G1 X114.777 Y177.344 E73.7773
G1 X112.585 Y178.521 E73.9014
G1 X110.299 Y178.926 E74.0172
G1 X107.497 Y178.563 E74.1582
G1 X105.432 Y177.726 E74.2693
G1 X102.535 Y175.601 E74.4486
G1 X101.444 Y174.355 E74.5312
G1 X100.455 Y172.840 E74.6215
G1 X99.242 Y169.672 E74.7907
G1 X98.938 Y166.233 E74.9629
G1 X99.183 Y164.073 E75.0714
G1 X99.830 Y161.683 E75.1949
G1 X100.887 Y159.242 E75.3276
G1 X103.045 Y155.562 E75.5405
G1 X103.885 Y153.742 E75.6405
G1 X104.537 Y151.858 E75.7399
G1 X105.173 Y148.843 E75.8937
G1 X105.338 Y146.857 E75.9931
G1 X105.301 Y144.877 E76.0919
G1 X104.069 Y136.805 E76.4993
G1 X103.852 Y130.095 E76.8342
G1 X104.102 Y126.262 E77.0258
G1 X104.542 Y122.597 E77.2100
G1 X106.508 Y111.171 E77.7884
G1 X107.283 Y105.306 E78.0836
G1 X107.405 Y100.586 E78.3191
G1 X106.961 Y97.016 E78.4986
G1 X106.250 Y94.622 E78.6232
G1 X105.612 Y93.233 E78.6995
G1 X104.266 Y91.202 E78.8210
G1 X103.252 Y90.096 E78.8959
G1 X101.341 Y88.528 E79.0192
G1 X98.326 Y86.770 E79.1933
G1 X95.104 Y85.380 E79.3684
G1 X87.500 Y82.571 E79.7728
G1 X84.022 Y80.569 E79.9730
G1 X82.635 Y79.095 E80.0740
G1 X81.777 Y76.897 E80.1917
G1 X81.897 Y74.649 E80.3040
G1 X82.745 Y72.588 E80.4152
G1 X83.325 Y71.919 E80.4594
G0 F3900 X83.620 Y72.189
G1 F900 X84.295 Y71.770 E80.4990
G1 X85.417 Y71.466 E80.5570
G1 X165.360 Y71.498 E84.5454
G1 X166.710 Y72.109 E84.6193
G1 X167.229 Y72.656 E84.6570
G1 X167.546 Y73.403 E84.6974
G1 X167.894 Y75.151 E84.7864
G1 X167.721 Y76.615 E84.8599
G1 X166.876 Y78.356 E84.9565
G1 X165.214 Y80.074 E85.0757
G1 X161.966 Y81.986 E85.2637
G1 X151.166 Y86.740 E85.8525
G1 X146.012 Y89.603 E86.1466
G1 X142.416 Y92.057 E86.3638
G1 X140.128 Y93.863 E86.5092
G1 X137.941 Y95.793 E86.6547
G1 X134.848 Y98.924 E86.8743
G1 X132.962 Y101.104 E87.0181
G1 X130.284 Y104.626 E87.2389
G1 X127.894 Y108.299 E87.4575
G1 X125.742 Y112.183 E87.6790
G1 X123.881 Y116.153 E87.8978
G1 X122.796 Y118.883 E88.0443
G1 X121.616 Y122.463 E88.2324
G1 X120.800 Y125.845 E88.4060
G1 X120.327 Y129.936 E88.6114
G1 X120.403 Y131.854 E88.7072
G1 X120.633 Y133.185 E88.7746
G1 X121.036 Y134.390 E88.8380
G1 X121.612 Y135.411 E88.8964
G1 X123.026 Y136.720 E88.9926
G1 X124.586 Y137.386 E89.0772
G1 X127.337 Y137.779 E89.2158
G1 X129.654 Y137.693 E89.3315
G1 X132.637 Y137.243 E89.4820
G1 X136.032 Y136.078 E89.6611
G1 X138.813 Y135.654 E89.8014
G1 X141.549 Y135.948 E89.9387
G1 X143.039 Y136.581 E90.0195
G1 X144.214 Y137.445 E90.0923
G1 X145.282 Y138.847 E90.1802
G1 X146.114 Y141.160 E90.3028
G1 X149.198 Y146.321 E90.6028
G1 X150.808 Y149.928 E90.7998
G1 X151.219 Y151.900 E90.9003
G1 X151.242 Y153.483 E90.9793
G1 X150.923 Y155.211 E91.0670
G1 X150.237 Y156.877 E91.1569
G1 X149.748 Y157.441 E91.1941
G1 X148.621 Y158.160 E91.2608
G1 X147.681 Y158.345 E91.3086
G1 X146.493 Y158.186 E91.3684
G1 X145.542 Y157.662 E91.4226
G1 X145.102 Y157.205 E91.4542
G1 X144.644 Y156.503 E91.4960
G1 X143.957 Y154.465 E91.6033
G1 X142.826 Y153.043 E91.6940
G1 X142.080 Y152.572 E91.7380
G1 X141.224 Y152.280 E91.7831
G1 X139.662 Y152.256 E91.8611
G1 X138.763 Y152.544 E91.9082
G1 X128.730 Y159.789 E92.5256
G1 X124.136 Y163.732 E92.8276
G1 X121.099 Y167.234 E93.0589
G1 X120.004 Y168.870 E93.1571
G1 X116.743 Y174.566 E93.4845
G1 X114.588 Y176.992 E93.6464
G1 X112.396 Y178.169 E93.7706
G1 X110.233 Y178.532 E93.8800
G1 X107.551 Y178.167 E94.0150
G1 X105.585 Y177.356 E94.1211
G1 X102.773 Y175.279 E94.2955
G1 X101.746 Y174.093 E94.3738
G1 X100.790 Y172.622 E94.4613
