;Sliced by ideaMaker 5.2.4.8581, 2025-06-09 11:19:59 UTC+0200
;Slicer Version: 5.2.3.8580
;Dimension: 250.000 250.000 250.000 0.400
;Plate Shape: 0
;Origin Center: 0
;Extruder Offset #1: 25.000 0.000
;Filament Diameter #1: 1.750
;Filament Diameter #2: 1.750
;Filament Compensation #1: 94.000
;Filament Compensation #2: 90.000
;Filament Density #1: 1240.000
;Filament Density #2: 1240.000
;Filament Type #1: PLA
;Filament Type #2: PLA
;Filament Name #1: [Raise3D] Premium PLA 1.75mm
;Filament Name #2: [Raise3D] Premium PLA 1.75mm
;Filament #1: PLA 1.75mm
;Filament #2: PLA 1.75mm
;Printer Type: floppy
;Firmware: Klipper
;Bounding Box: 104.954 145.044 104.982 145.035 0.000 18.900
;Model Gap: 0.000
M221 T0 S94.00
M140 S50.00
M104 T0 S190.00
M109 T0 S190.00
T0
M190 S50.00
G21 ;metric values
G90 ;absolute positioning
M82 ;set extruder to absolute mode
M107 ;start with the fan off
G28 X0 Y0 ;move X/Y to min endstops
G28 Z0 ;move Z to min endstops
G1 Z15.0 F9000 ;move the platform down 15mm
G92 E0 ;zero the extruded length
G0 X43 Y27 F2000  ;go to the edge of the bed
G92 X0 Y0 E0 ;set zero to edge of the bed
G0 F9000 Z1 ;Z up with 1mm
G1 F200 Z0 ;Z home slowly
G1 Z15.0 F9000 ;move the platform down 15mm
G1 F9000 ;speed setting
G92 E-3 ;retraction
M117 Printing...
M1001
;TOTAL_NUM: 1
;PRINTING_TIME: 0
;REMAINING_TIME: 1692
;LAYER:0
;Z:0.300
;HEIGHT:0.300
;PRINTING: NON-OBJECT
;PRINTING_ID: -1
G1 F2400 E-3.0000
G0 F3900 X121.105 Y106.074
G0 F300 Z0.300
;TYPE:SKIRT
;WIDTH:0.400
G1 F1500 E0.0000
G1 F900 X122.695 Y105.234 E0.0897
G1 X125.584 Y104.982 E0.2344
G1 X127.580 Y105.322 E0.3354
G1 X129.116 Y106.300 E0.4263
G1 X130.222 Y108.536 E0.5507
G1 X130.347 Y110.955 E0.6716
G1 X131.859 Y111.578 E0.7531
G1 X135.843 Y114.546 E1.0010
G1 X138.319 Y117.967 E1.2117
G1 X139.060 Y119.702 E1.3058
G1 X141.825 Y119.885 E1.4441
G1 X143.933 Y121.109 E1.5657
G1 X144.775 Y122.693 E1.6552
G1 X145.044 Y125.394 E1.7906
G1 X144.741 Y127.426 E1.8931
G1 X143.689 Y129.134 E1.9932
G1 X141.761 Y130.137 E2.1016
G1 X139.068 Y130.291 E2.2362
G1 X138.463 Y131.781 E2.3164
G1 X135.534 Y135.763 E2.5630
G1 X132.025 Y138.326 E2.7798
G1 X130.291 Y139.067 E2.8739
G1 X130.108 Y141.816 E3.0113
G1 X128.883 Y143.925 E3.1330
G1 X127.304 Y144.764 E3.2222
G1 X124.596 Y145.035 E3.3580
G1 X122.584 Y144.732 E3.4595
G1 X120.862 Y143.645 E3.5611
G1 X119.753 Y141.391 E3.6864
G1 X119.687 Y139.058 E3.8029
G1 X118.215 Y138.469 E3.8820
G1 X114.235 Y135.548 E4.1283
G1 X111.672 Y132.038 E4.3451
G1 X110.927 Y130.297 E4.4396
G1 X108.176 Y130.114 E4.5771
G1 X106.067 Y128.888 E4.6988
G1 X105.228 Y127.313 E4.7879
G1 X104.954 Y124.811 E4.9134
G1 X105.254 Y122.612 E5.0242
G1 X106.326 Y120.889 E5.1254
G1 X108.589 Y119.763 E5.2515
G1 X110.937 Y119.697 E5.3687
G1 X111.574 Y118.133 E5.4529
G1 X114.453 Y114.234 E5.6948
G1 X117.956 Y111.677 E5.9111
G1 X119.695 Y110.932 E6.0055
G1 X119.878 Y108.183 E6.1430
G1 X121.105 Y106.074 E6.2647
G0 F3900 X121.298 Y106.424
G1 F900 X122.732 Y105.632 E6.3464
G1 X125.517 Y105.376 E6.4860
G1 X127.513 Y105.716 E6.5870
G1 X128.895 Y106.633 E6.6697
G1 X129.859 Y108.705 E6.7837
G1 X129.957 Y111.229 E6.9097
G1 X131.621 Y111.900 E6.9993
G1 X135.519 Y114.781 E7.2411
G1 X137.995 Y118.202 E7.4518
G1 X138.788 Y120.088 E7.5538
G1 X141.633 Y120.236 E7.6960
G1 X143.583 Y121.303 E7.8069
G1 X144.377 Y122.734 E7.8885
G1 X144.648 Y125.335 E8.0190
G1 X144.345 Y127.367 E8.1215
G1 X143.352 Y128.918 E8.2134
G1 X141.738 Y129.738 E8.3037
G1 X138.792 Y129.907 E8.4509
G1 X138.092 Y131.630 E8.5437
G1 X135.212 Y135.525 E8.7854
G1 X131.790 Y138.002 E8.9961
G1 X129.905 Y138.795 E9.0981
G1 X129.757 Y141.624 E9.2395
G1 X128.689 Y143.575 E9.3504
G1 X127.262 Y144.366 E9.4318
G1 X124.656 Y144.639 E9.5626
G1 X122.644 Y144.336 E9.6641
G1 X121.081 Y143.311 E9.7573
G1 X120.116 Y141.223 E9.8721
G1 X120.083 Y138.786 E9.9937
G1 X118.364 Y138.098 E10.0860
G1 X114.558 Y135.312 E10.3214
G1 X111.995 Y131.802 E10.5382
G1 X111.199 Y129.911 E10.6406
G1 X108.368 Y129.763 E10.7820
G1 X106.417 Y128.694 E10.8930
G1 X105.626 Y127.269 E10.9743
G1 X105.352 Y124.767 E11.0999
G1 X105.600 Y122.813 E11.1981
G1 X106.510 Y121.244 E11.2886
G1 X108.600 Y120.163 E11.4060
G1 X111.209 Y120.090 E11.5362
G1 X111.944 Y118.284 E11.6335
G1 X114.689 Y114.557 E11.8644
G1 X118.192 Y112.000 E12.0808
G1 X120.081 Y111.204 E12.1831
G1 X120.229 Y108.375 E12.3244
G1 X121.298 Y106.424 E12.4354
G0 F3900 X121.499 Y106.770
G1 F900 X122.771 Y106.030 E12.5088
G1 X125.450 Y105.770 E12.6431
G1 X127.446 Y106.110 E12.7441
G1 X128.666 Y106.961 E12.8183
G1 X129.492 Y108.864 E12.9218
G1 X129.564 Y111.502 E13.0535
G1 X131.471 Y112.271 E13.1561
G1 X135.195 Y115.016 E13.3869
G1 X137.671 Y118.437 E13.5976
G1 X138.514 Y120.474 E13.7075
G1 X141.612 Y120.635 E13.8623
G1 X143.237 Y121.504 E13.9542
G1 X143.979 Y122.777 E14.0278
G1 X144.252 Y125.276 E14.1532
G1 X143.949 Y127.308 E14.2557
G1 X143.020 Y128.696 E14.3390
G1 X141.715 Y129.339 E14.4116
G1 X138.516 Y129.522 E14.5714
G1 X137.721 Y131.480 E14.6769
G1 X134.977 Y135.201 E14.9075
G1 X131.555 Y137.678 E15.1183
G1 X129.519 Y138.523 E15.2283
G1 X129.358 Y141.603 E15.3821
G1 X128.487 Y143.229 E15.4742
G1 X127.220 Y143.968 E15.5473
G1 X124.614 Y144.241 E15.6781
G1 X122.852 Y143.994 E15.7668
G1 X121.441 Y143.137 E15.8492
G1 X120.516 Y141.218 E15.9555
G1 X120.479 Y138.514 E16.0904
G1 X118.513 Y137.727 E16.1960
G1 X114.881 Y135.076 E16.4204
G1 X112.318 Y131.566 E16.6372
G1 X111.471 Y129.525 E16.7475
G1 X108.389 Y129.364 E16.9014
G1 X106.763 Y128.493 E16.9935
G1 X106.024 Y127.225 E17.0667
G1 X105.750 Y124.723 E17.1922
G1 X105.997 Y122.866 E17.2857
G1 X106.852 Y121.451 E17.3682
G1 X108.774 Y120.523 E17.4747
G1 X111.481 Y120.486 E17.6097
G1 X112.267 Y118.520 E17.7154
G1 X114.925 Y114.880 E17.9402
G1 X118.428 Y112.323 E18.1566
G1 X120.467 Y111.476 E18.2668
G1 X120.628 Y108.396 E18.4206
G1 X121.499 Y106.770 E18.5127
G0 F3900 X121.709 Y107.110
G1 F900 X122.812 Y106.428 E18.5774
G1 X125.383 Y106.164 E18.7063
G1 X127.379 Y106.504 E18.8073
G1 X128.428 Y107.282 E18.8725
G1 X129.092 Y108.875 E18.9586
G1 X129.171 Y111.775 E19.1033
G1 X131.321 Y112.642 E19.2190
G1 X134.871 Y115.251 E19.4388
G1 X137.347 Y118.672 E19.6494
G1 X138.240 Y120.860 E19.7673
G1 X141.591 Y121.034 E19.9348
G1 X142.897 Y121.715 E20.0082
G1 X143.581 Y122.820 E20.0731
G1 X143.854 Y125.319 E20.1985
G1 X143.609 Y127.097 E20.2880
G1 X142.835 Y128.342 E20.3612
G1 X141.692 Y128.940 E20.4255
G1 X138.240 Y129.138 E20.5980
G1 X137.350 Y131.329 E20.7160
G1 X134.742 Y134.877 E20.9357
G1 X131.320 Y137.354 E21.1465
G1 X129.133 Y138.249 E21.2644
G1 X128.959 Y141.582 E21.4309
G1 X128.277 Y142.889 E21.5044
G1 X127.176 Y143.570 E21.5690
G1 X124.670 Y143.845 E21.6948
G1 X122.908 Y143.598 E21.7835
G1 X121.656 Y142.800 E21.8576
G1 X120.916 Y141.212 E21.9450
G1 X120.875 Y138.242 E22.0932
G1 X118.662 Y137.356 E22.2121
G1 X115.204 Y134.840 E22.4255
G1 X112.641 Y131.330 E22.6423
G1 X111.745 Y129.139 E22.7604
G1 X108.410 Y128.965 E22.9270
G1 X107.103 Y128.283 E23.0006
G1 X106.422 Y127.181 E23.0652
G1 X106.148 Y124.679 E23.1908
G1 X106.393 Y122.921 E23.2793
G1 X107.190 Y121.665 E23.3535
G1 X108.780 Y120.923 E23.4411
G1 X111.753 Y120.882 E23.5894
G1 X112.638 Y118.668 E23.7084
G1 X115.161 Y115.203 E23.9222
G1 X118.664 Y112.646 E24.1386
G1 X120.853 Y111.750 E24.2566
G1 X121.027 Y108.417 E24.4231
G1 X121.709 Y107.110 E24.4967
G0 F3900 X121.931 Y107.443
G1 F900 X122.855 Y106.826 E24.5521
G1 X125.316 Y106.558 E24.6756
G1 X127.312 Y106.898 E24.7766
G1 X128.177 Y107.594 E24.8320
G1 X128.692 Y108.886 E24.9014
G1 X128.778 Y112.048 E25.0592
G1 X131.171 Y113.013 E25.1879
G1 X134.547 Y115.486 E25.3967
G1 X137.023 Y118.907 E25.6074
G1 X137.964 Y121.246 E25.7332
G1 X141.570 Y121.433 E25.9133
G1 X142.564 Y121.937 E25.9689
G1 X143.184 Y122.865 E26.0246
G1 X143.458 Y125.264 E26.1451
G1 X143.213 Y127.042 E26.2346
G1 X142.638 Y127.994 E26.2901
G1 X141.669 Y128.541 E26.3456
G1 X137.964 Y128.753 E26.5308
G1 X136.979 Y131.178 E26.6613
G1 X134.507 Y134.553 E26.8701
G1 X131.085 Y137.030 E27.0808
G1 X128.747 Y137.973 E27.2066
G1 X128.560 Y141.561 E27.3858
G1 X128.055 Y142.556 E27.4415
G1 X127.130 Y143.173 E27.4970
G1 X124.726 Y143.449 E27.6177
G1 X122.964 Y143.202 E27.7065
G1 X122.015 Y142.623 E27.7619
G1 X121.316 Y141.206 E27.8408
G1 X121.271 Y137.970 E28.0022
G1 X118.811 Y136.985 E28.1344
G1 X115.440 Y134.517 E28.3429
G1 X112.965 Y131.096 E28.5535
G1 X112.021 Y128.753 E28.6795
G1 X108.431 Y128.566 E28.8589
G1 X107.436 Y128.061 E28.9146
G1 X106.819 Y127.135 E28.9701
G1 X106.544 Y124.734 E29.0906
G1 X106.789 Y122.976 E29.1792
G1 X107.367 Y122.024 E29.2348
G1 X108.786 Y121.323 E29.3137
G1 X112.025 Y121.278 E29.4753
G1 X113.009 Y118.817 E29.6076
G1 X115.484 Y115.439 E29.8165
G1 X118.898 Y112.970 E30.0267
G1 X121.239 Y112.026 E30.1526
G1 X121.426 Y108.438 E30.3319
G1 X121.931 Y107.443 E30.3875
;PRINTING: GROHEAeratorKey.stl
;PRINTING_ID: 0
G1 F2400 E27.3875
G0 F3900 X123.670 Y136.511
;TYPE:WALL-OUTER
;WIDTH:0.400
G1 F1500 E30.3875
G1 F2400 X121.618 Y135.446 E30.5029
G1 X119.964 Y134.876 E30.5902
G1 X117.156 Y132.836 E30.7633
G1 X115.117 Y130.028 E30.9364
G1 X114.546 Y128.373 E31.0238
G1 X113.482 Y126.415 E31.1350
G1 X109.076 Y126.222 E31.3550
G1 X108.930 Y125.000 E31.4164
G1 X109.081 Y123.748 E31.4793
G1 X109.258 Y123.680 E31.4888
G1 X113.481 Y123.676 E31.6995
G1 X114.546 Y121.624 E31.8148
G1 X115.117 Y119.971 E31.9020
G1 X117.156 Y117.163 E32.0752
G1 X119.964 Y115.123 E32.2483
G1 X121.620 Y114.553 E32.3357
G1 X123.577 Y113.488 E32.4469
G1 X123.770 Y109.083 E32.6668
G1 X124.991 Y108.936 E32.7282
G1 X125.794 Y109.056 E32.7687
G1 X126.262 Y109.093 E32.7921
G1 X126.320 Y109.260 E32.8009
G1 X126.406 Y113.486 E33.0118
G1 X128.366 Y114.553 E33.1232
G1 X130.021 Y115.123 E33.2105
G1 X132.830 Y117.163 E33.3837
G1 X134.869 Y119.971 E33.5568
G1 X135.439 Y121.626 E33.6441
G1 X136.504 Y123.584 E33.7553
G1 X140.926 Y123.777 E33.9762
G1 X141.072 Y125.000 E34.0376
G1 X140.926 Y126.222 E34.0990
G1 X136.504 Y126.415 E34.3198
G1 X135.439 Y128.373 E34.4310
G1 X134.869 Y130.028 E34.5184
G1 X132.830 Y132.836 E34.6915
G1 X130.021 Y134.876 E34.8647
G1 X128.366 Y135.446 E34.9520
G1 X126.409 Y136.511 E35.0632
G1 X126.216 Y140.916 E35.2832
G1 X124.993 Y141.063 E35.3446
G1 X123.741 Y140.911 E35.4075
G1 X123.673 Y140.734 E35.4170
G1 X123.670 Y136.511 E35.6277
G0 F3900 X124.070 Y136.268
;TYPE:WALL-INNER
;WIDTH:0.400
G1 F2400 X121.776 Y135.077 E35.7566
G1 X120.151 Y134.517 E35.8424
G1 X117.442 Y132.550 E36.0094
G1 X115.476 Y129.841 E36.1764
G1 X114.913 Y128.211 E36.2624
G1 X113.725 Y126.025 E36.3866
G1 X109.433 Y125.837 E36.6009
G1 X109.333 Y125.000 E36.6430
G1 X109.444 Y124.080 E36.6892
G1 X113.724 Y124.076 E36.9027
G1 X114.915 Y121.782 E37.0317
G1 X115.476 Y120.158 E37.1174
G1 X117.442 Y117.449 E37.2844
G1 X120.151 Y115.482 E37.4514
G1 X121.782 Y114.920 E37.5375
G1 X123.967 Y113.731 E37.6616
G1 X124.155 Y109.440 E37.8759
G1 X124.985 Y109.340 E37.9176
G1 X125.749 Y109.454 E37.9561
G1 X125.924 Y109.468 E37.9649
G1 X126.011 Y113.726 E38.1773
G1 X128.204 Y114.920 E38.3019
G1 X129.834 Y115.482 E38.3879
G1 X132.544 Y117.449 E38.5550
G1 X134.510 Y120.158 E38.7220
G1 X135.072 Y121.788 E38.8080
G1 X136.261 Y123.974 E38.9322
G1 X140.569 Y124.162 E39.1473
G1 X140.669 Y125.000 E39.1894
G1 X140.569 Y125.837 E39.2314
G1 X136.261 Y126.025 E39.4466
G1 X135.072 Y128.211 E39.5707
G1 X134.510 Y129.841 E39.6567
G1 X132.544 Y132.550 E39.8237
G1 X129.834 Y134.517 E39.9908
G1 X128.204 Y135.079 E40.0768
G1 X126.019 Y136.268 E40.2009
G1 X125.831 Y140.559 E40.4152
G1 X124.993 Y140.660 E40.4573
G1 X124.073 Y140.548 E40.5036
G1 X124.070 Y136.268 E40.7171
G0 F3900 X124.470 Y136.025
G1 F2400 X121.934 Y134.708 E40.8597
G1 X120.338 Y134.158 E40.9439
G1 X117.728 Y132.264 E41.1048
G1 X115.835 Y129.654 E41.2656
G1 X115.280 Y128.049 E41.3503
G1 X113.968 Y125.635 E41.4874
G1 X109.790 Y125.452 E41.6961
G1 X109.736 Y125.000 E41.7188
G1 X109.799 Y124.480 E41.7449
G1 X113.967 Y124.476 E41.9528
G1 X115.284 Y121.940 E42.0954
G1 X115.835 Y120.345 E42.1796
G1 X117.728 Y117.735 E42.3405
G1 X120.338 Y115.841 E42.5013
G1 X121.944 Y115.287 E42.5861
G1 X124.357 Y113.974 E42.7232
G1 X124.540 Y109.797 E42.9317
G1 X125.531 Y109.826 E42.9812
G1 X125.616 Y113.966 E43.1878
G1 X128.042 Y115.287 E43.3256
G1 X129.647 Y115.841 E43.4103
G1 X132.258 Y117.735 E43.5712
G1 X134.151 Y120.345 E43.7321
G1 X134.705 Y121.950 E43.8168
G1 X136.018 Y124.364 E43.9539
G1 X140.212 Y124.547 E44.1633
G1 X140.266 Y125.000 E44.1861
G1 X140.212 Y125.452 E44.2088
G1 X136.018 Y125.635 E44.4183
G1 X134.705 Y128.049 E44.5554
G1 X134.151 Y129.654 E44.6401
G1 X132.258 Y132.264 E44.8009
G1 X129.647 Y134.158 E44.9618
G1 X128.042 Y134.712 E45.0466
G1 X125.629 Y136.025 E45.1836
G1 X125.446 Y140.202 E45.3922
G1 X124.993 Y140.257 E45.4150
G1 X124.473 Y140.194 E45.4411
G1 X124.470 Y136.025 E45.6491
G0 F3900 X124.870 Y135.782
G1 F2400 X122.092 Y134.339 E45.8053
G1 X120.525 Y133.799 E45.8880
G1 X118.014 Y131.978 E46.0427
G1 X116.194 Y129.467 E46.1974
G1 X115.647 Y127.887 E46.2808
G1 X114.211 Y125.245 E46.4309
G1 X110.281 Y125.073 E46.6271
G1 X110.285 Y124.880 E46.6368
G1 X114.210 Y124.876 E46.8326
G1 X115.653 Y122.098 E46.9887
G1 X116.194 Y120.532 E47.0714
G1 X118.014 Y118.021 E47.2261
G1 X120.525 Y116.200 E47.3809
G1 X122.106 Y115.654 E47.4643
G1 X124.747 Y114.217 E47.6143
G1 X124.922 Y110.208 E47.8145
G1 X125.139 Y110.215 E47.8254
G1 X125.221 Y114.206 E48.0245
G1 X127.880 Y115.654 E48.1756
G1 X129.460 Y116.200 E48.2590
G1 X131.972 Y118.021 E48.4138
G1 X133.792 Y120.532 E48.5685
G1 X134.338 Y122.112 E48.6519
G1 X135.775 Y124.754 E48.8019
G1 X139.234 Y124.905 E48.9747
G1 X139.234 Y125.094 E48.9841
G1 X135.775 Y125.245 E49.1568
G1 X134.338 Y127.887 E49.3069
G1 X133.792 Y129.467 E49.3903
G1 X131.972 Y131.978 E49.5450
G1 X129.460 Y133.799 E49.6998
G1 X127.880 Y134.345 E49.7832
G1 X125.239 Y135.782 E49.9332
G1 X125.066 Y139.731 E50.1304
G1 X124.873 Y139.727 E50.1400
G1 X124.870 Y135.782 E50.3368
G1 F2400 E47.3368
G0 F3900 X119.622 Y132.916
;TYPE:SOLID-FILL
;WIDTH:0.400
G1 F1500 E50.3368
G1 F2400 X117.077 Y130.371 E50.5164
G0 F3900 X116.203 Y128.931
G1 F2400 X121.059 Y133.787 E50.8590
G0 F2400 X121.923 Y134.085
G1 F2400 X115.903 Y128.066 E51.2837
G0 F2400 X115.339 Y126.936
G1 F2400 X123.012 Y134.609 E51.8251
G0 F2400 X124.189 Y135.220
G1 F2400 X114.665 Y125.696 E52.4971
G0 F2400 X114.414 Y124.880
G1 F2400 X125.152 Y135.618 E53.2547
G0 F2400 X125.519 Y135.418
G1 F2400 X114.607 Y124.507 E54.0245
G0 F2400 X114.801 Y124.135
G1 F2400 X125.886 Y135.220 E54.8067
G0 F2400 X126.252 Y135.020
G1 F2400 X114.994 Y123.762 E55.6010
G0 F2400 X115.188 Y123.390
G1 F2400 X126.618 Y134.821 E56.4075
G0 F2400 X126.985 Y134.621
G1 F2400 X115.381 Y123.018 E57.2261
G0 F2400 X115.574 Y122.645
G1 F2400 X127.351 Y134.422 E58.0571
G0 F2400 X127.717 Y134.223
G1 F2400 X115.768 Y122.273 E58.9002
G0 F2400 X115.926 Y121.866
G1 F2400 X128.124 Y134.063 E59.7608
G0 F2400 X128.544 Y133.918
G1 F2400 X116.072 Y121.446 E60.6407
G0 F2400 X116.217 Y121.026
G1 F2400 X128.965 Y133.773 E61.5401
G0 F2400 X129.382 Y133.625
G1 F2400 X116.365 Y120.608 E62.4586
G0 F2400 X116.603 Y120.280
G1 F2400 X129.710 Y133.387 E63.3833
G0 F2400 X130.039 Y133.150
G1 F2400 X116.840 Y119.952 E64.3146
G0 F2400 X117.078 Y119.624
G1 F2400 X130.367 Y132.912 E65.2521
G0 F2400 X130.695 Y132.675
G1 F2400 X117.316 Y119.295 E66.1961
G0 F2400 X117.553 Y118.967
G1 F2400 X131.023 Y132.437 E67.1465
G0 F2400 X131.350 Y132.199
G1 F2400 X117.791 Y118.640 E68.1032
G0 F2400 X118.029 Y118.312
G1 F2400 X131.678 Y131.961 E69.0662
G0 F2400 X131.961 Y131.678
G1 F2400 X118.313 Y118.030 E70.0291
G0 F2400 X118.641 Y117.793
G1 F2400 X132.199 Y131.350 E70.9857
G0 F2400 X132.436 Y131.022
G1 F2400 X118.969 Y117.555 E71.9358
G0 F2400 X119.297 Y117.317
G1 F2400 X132.674 Y130.694 E72.8797
G0 F2400 X132.912 Y130.366
G1 F2400 X119.625 Y117.079 E73.8171
G0 F2400 X119.953 Y116.842
G1 F2400 X133.150 Y130.039 E74.7483
G0 F2400 X133.387 Y129.710
G1 F2400 X120.280 Y116.604 E75.6730
G0 F2400 X120.609 Y116.366
G1 F2400 X133.625 Y129.382 E76.5913
G0 F2400 X133.771 Y128.962
G1 F2400 X121.029 Y116.220 E77.4904
