;Sliced by ideaMaker 5.2.4.8581, 2025-06-09 10:29:59 UTC+0200
;Slicer Version: 5.2.3.8580
;Dimension: 250.000 250.000 250.000 0.400
;Plate Shape: 0
;Origin Center: 0
;Extruder Offset #1: 25.000 0.000
;Filament Diameter #1: 1.750
;Filament Diameter #2: 1.750
;Filament Compensation #1: 94.000
;Filament Compensation #2: 90.000
;Filament Density #1: 1240.000
;Filament Density #2: 1240.000
;Filament Type #1: PLA
;Filament Type #2: PLA
;Filament Name #1: [Raise3D] Premium PLA 1.75mm
;Filament Name #2: [Raise3D] Premium PLA 1.75mm
;Filament #1: PLA 1.75mm
;Filament #2: PLA 1.75mm
;Printer Type: floppy
;Firmware: Klipper
;Bounding Box: 100.001 149.999 115.908 134.126 0.000 31.200
;Model Gap: 0.000
M221 T0 S94.00
M140 S50.00
M104 T0 S190.00
M109 T0 S190.00
T0
M190 S50.00
G21 ;metric values
G90 ;absolute positioning
M82 ;set extruder to absolute mode
M107 ;start with the fan off
G28 X0 Y0 ;move X/Y to min endstops
G28 Z0 ;move Z to min endstops
G1 Z15.0 F9000 ;move the platform down 15mm
G92 E0 ;zero the extruded length
G0 X43 Y27 F2000  ;go to the edge of the bed
G92 X0 Y0 E0 ;set zero to edge of the bed
G0 F9000 Z1 ;Z up with 1mm
G1 F200 Z0 ;Z home slowly
G1 Z15.0 F9000 ;move the platform down 15mm
G1 F9000 ;speed setting
G92 E-3 ;retraction
M117 Printing...
M1001
;TOTAL_NUM: 1
;PRINTING_TIME: 0
;REMAINING_TIME: 2572
;LAYER:0
;Z:0.300
;HEIGHT:0.300
;PRINTING: HansaKeyv3.stl
;PRINTING_ID: 0
G1 F2400 E-3.0000
G0 F3900 X106.474 Y120.678
G0 F300 Z0.300
;TYPE:WALL-OUTER
;WIDTH:0.400
G1 F1500 E0.0000
G1 F2400 X108.338 Y120.039 E0.0983
G1 X140.986 Y119.997 E1.7271
G1 X142.629 Y120.267 E1.8102
G1 X144.324 Y121.259 E1.9082
G1 X145.365 Y122.551 E1.9910
G1 X145.971 Y124.420 E2.0890
G1 X145.988 Y125.411 E2.1384
G1 X145.809 Y126.389 E2.1880
G1 X144.899 Y128.139 E2.2864
G1 X143.386 Y129.398 E2.3846
G1 X141.823 Y129.935 E2.4671
G1 X108.510 Y129.980 E4.1291
G1 X106.916 Y129.548 E4.2115
G1 X105.549 Y128.623 E4.2938
G1 X104.560 Y127.307 E4.3759
G1 X104.050 Y125.736 E4.4584
G1 X104.147 Y123.769 E4.5566
G1 X105.001 Y121.988 E4.6551
G1 X106.474 Y120.678 E4.7535
G0 F3900 X106.680 Y121.030
;TYPE:WALL-INNER
;WIDTH:0.400
G1 F2400 X108.405 Y120.439 E4.8445
G1 X140.954 Y120.397 E6.4683
G1 X142.491 Y120.650 E6.5461
G1 X144.059 Y121.567 E6.6367
G1 X145.007 Y122.745 E6.7121
G1 X145.572 Y124.487 E6.8035
G1 X145.587 Y125.378 E6.8479
G1 X145.426 Y126.258 E6.8926
G1 X144.581 Y127.883 E6.9840
G1 X143.187 Y129.044 E7.0745
G1 X141.756 Y129.535 E7.1499
G1 X108.563 Y129.580 E8.8059
G1 X107.085 Y129.179 E8.8823
G1 X105.829 Y128.329 E8.9580
G1 X104.920 Y127.120 E9.0335
G1 X104.453 Y125.682 E9.1089
G1 X104.543 Y123.869 E9.1995
G1 X105.327 Y122.233 E9.2900
G1 X106.680 Y121.030 E9.3803
G0 F3900 X106.886 Y121.382
G1 F2400 X108.472 Y120.839 E9.4639
G1 X140.922 Y120.797 E11.0829
G1 X142.353 Y121.033 E11.1552
G1 X143.794 Y121.875 E11.2385
G1 X144.649 Y122.938 E11.3066
G1 X145.173 Y124.554 E11.3913
G1 X145.186 Y125.345 E11.4308
G1 X145.043 Y126.127 E11.4704
G1 X144.263 Y127.627 E11.5548
G1 X142.988 Y128.690 E11.6376
G1 X141.689 Y129.135 E11.7061
G1 X108.616 Y129.180 E13.3561
G1 X107.254 Y128.810 E13.4265
G1 X106.109 Y128.035 E13.4955
G1 X105.280 Y126.933 E13.5643
G1 X104.856 Y125.628 E13.6328
G1 X104.939 Y123.969 E13.7157
G1 X105.653 Y122.478 E13.7981
G1 X106.886 Y121.382 E13.8804
G0 F3900 X107.092 Y121.734
G1 F2400 X108.539 Y121.239 E13.9567
G1 X140.889 Y121.197 E15.5707
G1 X142.215 Y121.416 E15.6377
G1 X143.529 Y122.183 E15.7136
G1 X144.291 Y123.131 E15.7743
G1 X144.774 Y124.620 E15.8524
G1 X144.785 Y125.312 E15.8869
G1 X144.660 Y125.996 E15.9216
G1 X143.945 Y127.371 E15.9990
G1 X142.789 Y128.336 E16.0741
G1 X141.622 Y128.735 E16.1356
G1 X108.669 Y128.780 E17.7796
G1 X107.423 Y128.441 E17.8441
G1 X106.389 Y127.741 E17.9064
G1 X105.640 Y126.746 E17.9685
G1 X105.259 Y125.574 E18.0300
G1 X105.334 Y124.069 E18.1052
G1 X105.979 Y122.723 E18.1796
G1 X107.092 Y121.734 E18.2539
G0 F3900 X105.706 Y126.354
;TYPE:SOLID-FILL
;WIDTH:0.400
G1 F2400 X107.669 Y128.316 E18.3924
G0 F2400 X108.445 Y128.527
G1 F2400 X105.445 Y125.527 E18.6040
G0 F2400 X105.472 Y124.988
G1 F2400 X109.078 Y128.594 E18.8585
G0 F2400 X109.643 Y128.593
G1 F2400 X105.498 Y124.449 E19.1509
G0 F2400 X105.584 Y123.969
G1 F2400 X110.208 Y128.593 E19.4771
G0 F2400 X110.773 Y128.592
G1 F2400 X105.768 Y123.587 E19.8303
G0 F2400 X105.951 Y123.204
G1 F2400 X111.337 Y128.590 E20.2103
G0 F2400 X111.902 Y128.590
G1 F2400 X106.138 Y122.826 E20.6169
G0 F2400 X106.438 Y122.560
G1 F2400 X112.467 Y128.589 E21.0423
G0 F2400 X113.032 Y128.588
G1 F2400 X106.738 Y122.294 E21.4864
G0 F2400 X107.038 Y122.028
G1 F2400 X113.597 Y128.588 E21.9492
G0 F2400 X114.162 Y128.587
G1 F2400 X107.398 Y121.823 E22.4264
G0 F2400 X107.819 Y121.678
G1 F2400 X114.727 Y128.586 E22.9138
G0 F2400 X115.292 Y128.585
G1 F2400 X108.241 Y121.534 E23.4113
G0 F2400 X108.694 Y121.422
G1 F2400 X115.857 Y128.585 E23.9167
G0 F2400 X116.422 Y128.584
G1 F2400 X109.259 Y121.421 E24.4221
G0 F2400 X109.824 Y121.420
G1 F2400 X116.987 Y128.583 E24.9275
G0 F2400 X117.552 Y128.583
G1 F2400 X110.389 Y121.420 E25.4329
G0 F2400 X110.954 Y121.419
G1 F2400 X118.116 Y128.581 E25.9382
G0 F2400 X118.681 Y128.581
G1 F2400 X111.519 Y121.418 E26.4436
G0 F2400 X112.084 Y121.418
G1 F2400 X119.246 Y128.580 E26.9489
G0 F2400 X119.811 Y128.579
G1 F2400 X112.649 Y121.417 E27.4542
G0 F2400 X113.214 Y121.416
G1 F2400 X120.376 Y128.578 E27.9595
G0 F2400 X120.941 Y128.578
G1 F2400 X113.779 Y121.415 E28.4649
G0 F2400 X114.344 Y121.415
G1 F2400 X121.506 Y128.577 E28.9702
G0 F2400 X122.071 Y128.576
G1 F2400 X114.909 Y121.414 E29.4755
G0 F2400 X115.474 Y121.413
G1 F2400 X122.636 Y128.576 E29.9808
G0 F2400 X123.201 Y128.575
G1 F2400 X116.039 Y121.413 E30.4862
G0 F2400 X116.604 Y121.412
G1 F2400 X123.766 Y128.574 E30.9915
G0 F2400 X124.331 Y128.573
G1 F2400 X117.169 Y121.411 E31.4968
G0 F2400 X117.733 Y121.410
G1 F2400 X124.895 Y128.572 E32.0021
G0 F2400 X125.460 Y128.571
G1 F2400 X118.298 Y121.410 E32.5074
G0 F2400 X118.863 Y121.409
G1 F2400 X126.025 Y128.571 E33.0127
G0 F2400 X126.590 Y128.570
G1 F2400 X119.428 Y121.408 E33.5180
G0 F2400 X119.993 Y121.408
G1 F2400 X127.155 Y128.569 E34.0233
G0 F2400 X127.720 Y128.568
G1 F2400 X120.558 Y121.407 E34.5286
G0 F2400 X121.123 Y121.406
G1 F2400 X128.285 Y128.568 E35.0339
G0 F2400 X128.850 Y128.567
G1 F2400 X121.688 Y121.405 E35.5392
G0 F2400 X122.253 Y121.405
G1 F2400 X129.415 Y128.566 E36.0445
G0 F2400 X129.980 Y128.566
G1 F2400 X122.818 Y121.404 E36.5498
G0 F2400 X123.383 Y121.403
G1 F2400 X130.545 Y128.565 E37.0552
G0 F2400 X131.110 Y128.564
G1 F2400 X123.948 Y121.403 E37.5604
G0 F2400 X124.513 Y121.402
G1 F2400 X131.674 Y128.563 E38.0657
G0 F2400 X132.239 Y128.562
G1 F2400 X125.078 Y121.401 E38.5709
G0 F2400 X125.643 Y121.401
G1 F2400 X132.804 Y128.561 E39.0761
G0 F2400 X133.369 Y128.561
G1 F2400 X126.208 Y121.400 E39.5814
G0 F2400 X126.773 Y121.399
G1 F2400 X133.934 Y128.560 E40.0866
G0 F2400 X134.499 Y128.559
G1 F2400 X127.338 Y121.398 E40.5919
G0 F2400 X127.903 Y121.398
G1 F2400 X135.064 Y128.559 E41.0971
G0 F2400 X135.629 Y128.558
G1 F2400 X128.468 Y121.397 E41.6024
G0 F2400 X129.033 Y121.396
G1 F2400 X136.194 Y128.557 E42.1076
G0 F2400 X136.759 Y128.556
G1 F2400 X129.598 Y121.396 E42.6128
G0 F2400 X130.163 Y121.395
G1 F2400 X137.324 Y128.556 E43.1181
G0 F2400 X137.889 Y128.555
G1 F2400 X130.728 Y121.394 E43.6233
G0 F2400 X131.293 Y121.393
G1 F2400 X138.454 Y128.554 E44.1286
G0 F2400 X139.018 Y128.553
G1 F2400 X131.858 Y121.393 E44.6338
G0 F2400 X132.423 Y121.392
G1 F2400 X139.583 Y128.552 E45.1389
G0 F2400 X140.148 Y128.552
G1 F2400 X132.988 Y121.391 E45.6441
G0 F2400 X133.553 Y121.391
G1 F2400 X140.713 Y128.551 E46.1493
G0 F2400 X141.278 Y128.550
G1 F2400 X134.118 Y121.390 E46.6545
G0 F2400 X134.683 Y121.389
G1 F2400 X141.779 Y128.485 E47.1552
G0 F2400 X142.201 Y128.342
G1 F2400 X135.248 Y121.389 E47.6457
G0 F2400 X135.813 Y121.388
G1 F2400 X142.622 Y128.197 E48.1261
G0 F2400 X142.950 Y127.960
G1 F2400 X136.378 Y121.387 E48.5899
G0 F2400 X136.943 Y121.386
G1 F2400 X143.259 Y127.702 E49.0355
G0 F2400 X143.567 Y127.445
G1 F2400 X137.508 Y121.386 E49.4630
G0 F2400 X138.073 Y121.385
G1 F2400 X143.847 Y127.159 E49.8704
G0 F2400 X144.040 Y126.787
G1 F2400 X138.638 Y121.384 E50.2516
G0 F2400 X139.202 Y121.383
G1 F2400 X144.234 Y126.415 E50.6066
G0 F2400 X144.427 Y126.043
G1 F2400 X139.767 Y121.382 E50.9354
G0 F2400 X140.332 Y121.381
G1 F2400 X144.546 Y125.595 E51.2327
G0 F2400 X144.596 Y125.080
G1 F2400 X140.902 Y121.386 E51.4934
G0 F2400 X141.579 Y121.497
G1 F2400 X144.522 Y124.440 E51.7010
G0 F2400 X144.249 Y123.602
G1 F2400 X142.363 Y121.715 E51.8341
;PRINTING: NON-OBJECT
;PRINTING_ID: -1
G0 F3900 X142.871 Y118.026
;TYPE:SUPPORT
;WIDTH:0.400
G1 F2400 X142.432 Y117.822 E51.8583
G1 X142.216 Y117.225 E51.8899
G1 X142.420 Y116.786 E51.9141
G1 X143.017 Y116.570 E51.9458
G1 X143.456 Y116.774 E51.9699
G1 X143.672 Y117.371 E52.0016
G1 X143.468 Y117.810 E52.0257
G1 X142.871 Y118.026 E52.0574
G1 F2400 E49.0574
G0 F3900 X148.069 Y127.002
G1 F1500 E52.0574
G1 F2400 X148.665 Y126.786 E52.0890
G1 X149.115 Y126.996 E52.1138
G1 X149.445 Y127.675 E52.1515
G1 X149.279 Y128.011 E52.1702
G1 X148.524 Y128.244 E52.2096
G1 X148.081 Y128.038 E52.2340
G1 X147.865 Y127.441 E52.2656
G1 X148.069 Y127.002 E52.2898
G1 F2400 E49.2898
G0 F3900 X144.984 Y131.604
G1 F1500 E52.2898
G1 F2400 X145.200 Y132.201 E52.3215
G1 X144.996 Y132.640 E52.3456
G1 X144.399 Y132.856 E52.3773
G1 X143.960 Y132.652 E52.4014
G1 X143.744 Y132.055 E52.4331
G1 X143.948 Y131.616 E52.4573
G1 X144.545 Y131.400 E52.4889
G1 X144.984 Y131.604 E52.5131
G0 F3900 X143.321 Y132.720
G1 F2400 X143.236 Y133.214 E52.5381
G1 X142.756 Y133.697 E52.5721
G1 X142.382 Y133.653 E52.5909
G1 X141.870 Y132.999 E52.6323
G1 X141.703 Y132.016 E52.6820
G1 X141.872 Y131.778 E52.6966
G1 X142.174 Y131.695 E52.7122
G1 X142.822 Y131.889 E52.7460
G1 X143.321 Y132.720 E52.7943
G0 F3900 X140.112 Y133.037
G1 F2400 X139.561 Y133.832 E52.8426
G1 X139.082 Y133.833 E52.8665
G1 X138.644 Y133.279 E52.9017
G1 X138.697 Y132.642 E52.9336
G1 X139.077 Y132.329 E52.9582
G1 X139.692 Y132.329 E52.9889
G1 X140.226 Y132.094 E53.0180
G1 X140.581 Y132.346 E53.0397
G1 X140.580 Y132.685 E53.0566
G1 X140.112 Y133.037 E53.0858
G0 F3900 X137.932 Y133.079
G1 F2400 X137.583 Y133.700 E53.1214
G1 X137.125 Y133.800 E53.1447
G1 X136.783 Y133.673 E53.1629
G1 X136.477 Y133.014 E53.1992
G1 X136.743 Y132.450 E53.2303
G1 X137.275 Y132.283 E53.2581
G1 X137.718 Y132.489 E53.2825
G1 X137.932 Y133.079 E53.3138
G1 F2400 E50.3138
G0 F3900 X117.625 Y132.711
G1 F1500 E53.3138
G1 F2400 X117.407 Y133.178 E53.3395
G1 X117.054 Y133.306 E53.3583
G1 X116.587 Y133.088 E53.3840
G1 X116.459 Y132.735 E53.4027
G1 X116.675 Y132.275 E53.4281
G1 X117.094 Y132.144 E53.4500
G1 X117.494 Y132.353 E53.4725
G1 X117.625 Y132.711 E53.4915
G0 F3900 X115.898 Y132.774
G1 F2400 X115.680 Y133.241 E53.5172
G1 X115.327 Y133.369 E53.5359
G1 X114.860 Y133.151 E53.5616
G1 X114.732 Y132.797 E53.5804
G1 X114.948 Y132.338 E53.6057
G1 X115.367 Y132.207 E53.6276
G1 X115.767 Y132.416 E53.6502
G1 X115.898 Y132.774 E53.6692
G0 F3900 X114.299 Y132.718
G1 F2400 X114.081 Y133.183 E53.6948
G1 X113.728 Y133.311 E53.7135
G1 X113.261 Y133.093 E53.7392
G1 X113.133 Y132.740 E53.7580
G1 X113.349 Y132.280 E53.7833
G1 X113.768 Y132.149 E53.8052
G1 X114.168 Y132.358 E53.8277
G1 X114.299 Y132.718 E53.8469
G1 F2400 E50.8469
G0 F3900 X107.936 Y132.986
G1 F1500 E53.8469
G1 F2400 X107.732 Y133.425 E53.8710
G1 X107.135 Y133.641 E53.9027
G1 X106.696 Y133.437 E53.9268
G1 X106.480 Y132.840 E53.9585
G1 X106.684 Y132.401 E53.9827
G1 X107.281 Y132.185 E54.0143
G1 X107.720 Y132.389 E54.0385
G1 X107.936 Y132.986 E54.0702
G0 F3900 X106.127 Y131.927
G1 F2400 X105.909 Y132.394 E54.0959
G1 X105.556 Y132.522 E54.1146
G1 X105.089 Y132.304 E54.1403
G1 X104.961 Y131.951 E54.1591
G1 X105.177 Y131.491 E54.1844
G1 X105.596 Y131.360 E54.2063
G1 X105.996 Y131.569 E54.2288
G1 X106.127 Y131.927 E54.2478
G1 F2400 E51.2478
G0 F3900 X101.842 Y127.926
G1 F1500 E54.2478
G1 F2400 X101.248 Y128.141 E54.2794
G1 X100.689 Y127.860 E54.3106
G1 X100.557 Y127.425 E54.3333
G1 X100.797 Y126.901 E54.3620
G1 X101.391 Y126.686 E54.3935
G1 X101.830 Y126.890 E54.4177
G1 X102.046 Y127.487 E54.4493
G1 X101.842 Y127.926 E54.4735
G1 F2400 E51.4735
G0 F3900 X104.379 Y119.129
G1 F1500 E54.4735
G1 F2400 X103.624 Y119.157 E54.5112
G1 X103.233 Y118.830 E54.5366
G1 X103.134 Y118.472 E54.5552
G1 X103.502 Y117.834 E54.5919
G1 X103.939 Y117.739 E54.6142
G1 X104.398 Y117.953 E54.6395
G1 X104.678 Y118.553 E54.6725
G1 X105.276 Y118.859 E54.7060
G1 X105.275 Y119.248 E54.7254
G1 X105.074 Y119.448 E54.7396
G1 X104.698 Y119.447 E54.7583
G1 X104.379 Y119.129 E54.7808
G0 F3900 X105.743 Y118.018
G1 F2400 X105.527 Y117.421 E54.8125
G1 X105.731 Y116.982 E54.8366
G1 X106.328 Y116.766 E54.8683
G1 X106.767 Y116.970 E54.8925
G1 X106.983 Y117.567 E54.9241
G1 X106.779 Y118.006 E54.9483
G1 X106.182 Y118.222 E54.9800
G1 X105.743 Y118.018 E55.0041
G0 F3900 X108.270 Y117.295
G1 F2400 X108.217 Y116.660 E55.0359
G1 X108.519 Y116.231 E55.0621
G1 X109.189 Y116.152 E55.0957
G1 X109.618 Y116.421 E55.1210
G1 X109.591 Y117.172 E55.1585
G1 X109.276 Y117.555 E55.1832
G1 X108.644 Y117.606 E55.2149
G1 X108.270 Y117.295 E55.2391
;PRINTING_TIME: 44
;REMAINING_TIME: 2529
;LAYER:1
;Z:0.600
;HEIGHT:0.300
M106 S64
;PRINTING: HansaKeyv3.stl
;PRINTING_ID: 0
G1 F2400 E52.2391
G0 F300 Z0.600
G0 F3900 X108.446 Y119.296
G0 X105.030 Y129.180
G0 X104.957 Y129.247
;TYPE:WALL-OUTER
;WIDTH:0.400
G1 F300 Z0.300
G1 F1500 E55.2391
G1 F2100 X103.795 Y127.702 Z0.329 E55.2484
G1 X103.269 Y126.249 Z0.352 E55.2619
G1 X103.135 Y125.093 Z0.370 E55.2753
G1 X103.230 Y123.940 Z0.387 E55.2921
G1 X103.554 Y122.820 Z0.404 E55.3123
G1 X104.088 Y121.794 Z0.422 E55.3358
G1 X104.817 Y120.888 Z0.439 E55.3627
G1 X105.712 Y120.143 Z0.457 E55.3930
G1 X106.733 Y119.590 Z0.474 E55.4267
G1 X107.843 Y119.249 Z0.492 E55.4637
G1 X109.194 Y119.129 Z0.512 E55.5115
G1 X110.662 Y119.129 Z0.534 E55.5686
G1 X112.130 Y119.129 Z0.556 E55.6311
G1 X113.598 Y119.129 Z0.578 E55.6989
G1 X115.066 Y119.129 Z0.600 E55.7722
G1 X140.989 Y119.131 Z0.600 E57.0655
G1 X142.156 Y119.249 Z0.600 E57.1240
G1 X143.266 Y119.590 Z0.600 E57.1819
G1 X144.287 Y120.143 Z0.600 E57.2398
G1 X145.182 Y120.888 Z0.600 E57.2979
G1 X145.911 Y121.794 Z0.600 E57.3560
G1 X146.442 Y122.816 Z0.600 E57.4134
G1 X146.857 Y124.714 Z0.600 E57.5103
G1 X146.800 Y125.870 Z0.600 E57.5681
G1 X146.516 Y126.990 Z0.600 E57.6257
G1 X145.564 Y128.682 Z0.600 E57.7226
G1 X144.754 Y129.506 Z0.600 E57.7802
G1 X143.796 Y130.155 Z0.600 E57.8380
G1 X141.965 Y130.783 Z0.600 E57.9345
G1 X108.425 Y130.836 Z0.600 E59.6079
G1 X106.557 Y130.330 Z0.600 E59.7044
G1 X104.957 Y129.247 Z0.600 E59.8008
G1 X103.795 Y127.702 Z0.600 E59.8879
G1 X103.269 Y126.249 Z0.600 E59.9516
G1 X103.135 Y125.093 Z0.600 E59.9962
G1 X103.230 Y123.940 Z0.600 E60.0372
G1 X103.554 Y122.820 Z0.600 E60.0751
G1 X104.088 Y121.794 Z0.600 E60.1094
G1 X104.817 Y120.888 Z0.600 E60.1404
G1 X105.712 Y120.143 Z0.600 E60.1682
G1 X106.733 Y119.590 Z0.600 E60.1925
G1 X107.843 Y119.249 Z0.600 E60.2134
G1 X109.194 Y119.129 Z0.600 E60.2333
G1 X110.662 Y119.129 Z0.600 E60.2494
G1 X112.130 Y119.129 Z0.600 E60.2602
G1 X113.598 Y119.129 Z0.600 E60.2656
G1 X115.066 Y119.129 Z0.600 E60.2656
G1 F2400 E57.2656
G0 F3900 X115.065 Y119.629
G0 X105.310 Y128.886
G0 X105.237 Y128.953
;TYPE:WALL-INNER
;WIDTH:0.400
;FLOW:90.0
G1 F300 Z0.300
G1 F1500 E60.2656
G1 F2400 X104.151 Y127.509 Z0.327 E60.2729
G1 X103.661 Y126.157 Z0.349 E60.2834
G1 X103.537 Y125.086 Z0.365 E60.2938
G1 X103.625 Y124.013 Z0.381 E60.3069
G1 X103.927 Y122.969 Z0.397 E60.3227
G1 X104.425 Y122.014 Z0.413 E60.3410
G1 X105.104 Y121.170 Z0.430 E60.3620
G1 X105.937 Y120.476 Z0.446 E60.3857
G1 X106.889 Y119.961 Z0.462 E60.4120
G1 X107.920 Y119.644 Z0.478 E60.4408
G1 X109.212 Y119.529 Z0.498 E60.4792
G1 X110.914 Y119.529 Z0.523 E60.5361
G1 X112.617 Y119.529 Z0.549 E60.5995
G1 X114.319 Y119.529 Z0.574 E60.6694
G1 X116.022 Y119.529 Z0.600 E60.7459
G1 X140.969 Y119.531 Z0.600 E61.8661
G1 X142.076 Y119.643 Z0.600 E61.9160
