;Sliced by ideaMaker 5.2.4.8581, 2025-06-22 20:16:25 UTC+0200
;Slicer Version: 5.2.3.8580
;Dimension: 250.000 250.000 250.000 0.400
;Plate Shape: 0
;Origin Center: 0
;Extruder Offset #1: 25.000 0.000
;Filament Diameter #1: 1.750
;Filament Diameter #2: 1.750
;Filament Compensation #1: 94.000
;Filament Compensation #2: 90.000
;Filament Density #1: 1240.000
;Filament Density #2: 1240.000
;Filament Type #1: PLA
;Filament Type #2: PLA
;Filament Name #1: [Raise3D] Premium PLA 1.75mm
;Filament Name #2: [Raise3D] Premium PLA 1.75mm
;Filament #1: PLA 1.75mm
;Filament #2: PLA 1.75mm
;Printer Type: floppy
;Firmware: Klipper
;Bounding Box: 105.769 144.080 80.829 169.109 0.000 49.800
;Model Gap: 0.000
M221 T0 S94.00
M140 S50.00
M104 T0 S190.00
M109 T0 S190.00
T0
M190 S50.00
G21 ;metric values
G90 ;absolute positioning
M82 ;set extruder to absolute mode
M107 ;start with the fan off
G28 X0 Y0 ;move X/Y to min endstops
G28 Z0 ;move Z to min endstops
G1 Z15.0 F9000 ;move the platform down 15mm
G92 E0 ;zero the extruded length
G0 X43 Y27 F2000  ;go to the edge of the bed
G92 X0 Y0 E0 ;set zero to edge of the bed
G0 F9000 Z1 ;Z up with 1mm
G1 F200 Z0 ;Z home slowly
G1 Z15.0 F9000 ;move the platform down 15mm
G1 F9000 ;speed setting
G92 E-3 ;retraction
M117 Printing...
M1001
;TOTAL_NUM: 1
;PRINTING_TIME: 0
;REMAINING_TIME: 7837
;LAYER:0
;Z:0.300
;HEIGHT:0.300
;PRINTING: NON-OBJECT
;PRINTING_ID: -1
G1 F2400 E-3.0000
G0 F3900 X108.224 Y94.671
G0 F300 Z0.300
;TYPE:SKIRT
;WIDTH:0.400
G1 F1500 E0.0000
G1 F900 X110.060 Y93.493 E0.1088
G1 X113.028 Y92.785 E0.2611
G1 X115.753 Y92.613 E0.3973
G1 X116.868 Y92.098 E0.4586
G1 X119.169 Y92.044 E0.5734
G1 X120.014 Y92.376 E0.6187
G1 X124.542 Y92.123 E0.8449
G1 X122.894 Y91.522 E0.9325
G1 X122.417 Y90.814 E0.9750
G1 X122.284 Y90.233 E1.0048
G1 X121.022 Y89.719 E1.0728
G1 X120.640 Y87.970 E1.1621
G1 X120.164 Y87.084 E1.2123
G1 X120.493 Y85.907 E1.2732
G1 X121.263 Y85.155 E1.3269
G1 X122.306 Y82.987 E1.4469
G1 X124.384 Y81.002 E1.5903
G1 X124.838 Y80.829 E1.6146
G1 X128.367 Y80.853 E1.7906
G1 X129.992 Y81.842 E1.8855
G1 X130.273 Y82.702 E1.9307
G1 X131.104 Y83.738 E1.9969
G1 X132.342 Y86.555 E2.1504
G1 X132.595 Y87.547 E2.2015
G1 X132.693 Y89.116 E2.2799
G1 X134.440 Y91.573 E2.4304
G1 X137.026 Y91.447 E2.5595
G1 X139.697 Y91.772 E2.6938
G1 X141.164 Y92.325 E2.7720
G1 X142.475 Y93.454 E2.8583
G1 X143.775 Y96.136 E3.0070
G1 X144.080 Y97.988 E3.1006
G1 X143.843 Y146.554 E5.5236
G1 X143.699 Y148.608 E5.6264
G1 X143.165 Y150.968 E5.7471
G1 X142.188 Y152.840 E5.8524
G1 X140.708 Y154.127 E5.9503
G1 X139.462 Y154.699 E6.0187
G1 X136.822 Y155.243 E6.1532
G1 X129.385 Y155.657 E6.5248
G1 X129.648 Y156.830 E6.5847
G1 X129.643 Y157.713 E6.6288
G1 X130.056 Y158.911 E6.6920
G1 X130.093 Y163.774 E6.9346
G1 X129.886 Y164.539 E6.9742
G1 X129.691 Y166.761 E7.0855
G1 X128.617 Y168.456 E7.1856
G1 X124.672 Y169.109 E7.3851
G1 X123.277 Y168.656 E7.4582
G1 X122.514 Y167.858 E7.5133
G1 X121.908 Y166.291 E7.5971
G1 X121.808 Y164.632 E7.6801
G1 X121.422 Y163.679 E7.7313
G1 X121.393 Y161.511 E7.8395
G1 X121.593 Y160.761 E7.8782
G1 X121.593 Y159.089 E7.9617
G1 X122.209 Y157.690 E8.0379
G1 X122.355 Y156.039 E8.1206
G1 X113.304 Y156.525 E8.5728
G1 X111.015 Y156.365 E8.6873
G1 X109.248 Y155.850 E8.7791
G1 X107.831 Y154.944 E8.8630
G1 X107.325 Y154.317 E8.9032
G1 X106.174 Y151.847 E9.0392
G1 X105.875 Y150.123 E9.1265
G1 X105.769 Y148.138 E9.2256
G1 X106.120 Y101.409 E11.5570
G1 X106.264 Y99.364 E11.6593
G1 X107.015 Y96.543 E11.8050
G1 X108.224 Y94.671 E11.9161
G0 F3900 X108.560 Y94.888
G1 F900 X110.270 Y93.833 E12.0164
G1 X113.118 Y93.175 E12.1622
G1 X115.956 Y93.001 E12.3041
G1 X116.121 Y92.793 E12.3173
G1 X116.877 Y92.498 E12.3578
G1 X119.178 Y92.444 E12.4726
G1 X119.940 Y92.780 E12.5142
G1 X127.748 Y92.345 E12.9043
G1 X127.602 Y91.876 E12.9288
G1 X126.091 Y91.247 E13.0105
G1 X125.097 Y91.892 E13.0696
G1 X123.161 Y91.225 E13.1718
G1 X122.752 Y90.596 E13.2092
G1 X122.637 Y89.923 E13.2432
G1 X121.378 Y89.537 E13.3089
G1 X121.018 Y87.825 E13.3962
G1 X120.561 Y87.035 E13.4418
G1 X120.875 Y86.026 E13.4945
G1 X121.590 Y85.400 E13.5419
G1 X122.559 Y83.297 E13.6574
G1 X123.579 Y82.463 E13.7231
G1 X124.554 Y81.364 E13.7964
G1 X124.842 Y81.229 E13.8123
G1 X128.165 Y81.198 E13.9781
G1 X129.671 Y82.081 E14.0652
G1 X129.913 Y82.894 E14.1075
G1 X130.738 Y83.899 E14.1724
G1 X131.976 Y86.716 E14.3259
G1 X132.207 Y87.644 E14.3736
G1 X132.301 Y89.255 E14.4541
G1 X134.241 Y91.984 E14.6212
G1 X137.046 Y91.847 E14.7613
G1 X139.648 Y92.169 E14.8921
G1 X141.020 Y92.698 E14.9654
G1 X142.116 Y93.631 E15.0373
G1 X143.380 Y96.201 E15.1801
G1 X143.685 Y98.053 E15.2738
G1 X143.443 Y146.552 E17.6934
G1 X143.300 Y148.580 E17.7949
G1 X142.775 Y150.879 E17.9125
G1 X141.923 Y152.540 E18.0056
G1 X140.541 Y153.763 E18.0977
G1 X139.295 Y154.335 E18.1661
G1 X136.743 Y154.851 E18.2960
G1 X128.891 Y155.284 E18.6883
G1 X129.258 Y156.918 E18.7719
G1 X129.242 Y157.781 E18.8150
G1 X129.656 Y158.914 E18.8751
G1 X129.693 Y163.777 E19.1178
G1 X129.490 Y164.468 E19.1537
G1 X129.350 Y166.552 E19.2579
G1 X128.384 Y168.131 E19.3503
G1 X124.611 Y168.714 E19.5407
G1 X123.413 Y168.280 E19.6043
G1 X122.816 Y167.595 E19.6496
G1 X122.283 Y166.152 E19.7264
G1 X122.204 Y164.539 E19.8069
G1 X121.822 Y163.674 E19.8541
G1 X121.793 Y161.506 E19.9623
G1 X121.993 Y160.818 E19.9980
G1 X121.993 Y159.089 E20.0843
G1 X122.601 Y157.797 E20.1555
G1 X122.793 Y155.615 E20.2648
G1 X113.283 Y156.126 E20.7400
G1 X111.043 Y155.966 E20.8520
G1 X109.362 Y155.467 E20.9395
G1 X108.142 Y154.693 E21.0116
G1 X107.636 Y154.066 E21.0518
G1 X106.568 Y151.779 E21.1777
G1 X106.269 Y150.055 E21.2650
G1 X106.168 Y148.117 E21.3618
G1 X106.520 Y101.412 E23.6920
G1 X106.663 Y99.392 E23.7930
G1 X107.351 Y96.760 E23.9287
G1 X108.560 Y94.888 E24.0399
G0 F3900 X108.774 Y95.226
G1 F900 X110.360 Y94.223 E24.1335
G1 X113.208 Y93.565 E24.2794
G1 X116.188 Y93.388 E24.4283
G1 X116.353 Y93.119 E24.4440
G1 X116.886 Y92.898 E24.4728
G1 X119.187 Y92.844 E24.5877
G1 X119.854 Y93.185 E24.6250
G1 X128.283 Y92.715 E25.0462
G1 X127.905 Y91.503 E25.1095
G1 X127.400 Y91.456 E25.1349
G1 X126.059 Y90.783 E25.2097
G1 X125.017 Y91.500 E25.2728
G1 X123.432 Y90.931 E25.3568
G1 X123.091 Y90.384 E25.3890
G1 X123.001 Y89.590 E25.4289
G1 X121.716 Y89.323 E25.4943
G1 X121.397 Y87.677 E25.5780
G1 X120.956 Y86.972 E25.6195
G1 X121.251 Y86.163 E25.6624
G1 X121.911 Y85.659 E25.7039
G1 X122.922 Y83.464 E25.8244
G1 X123.849 Y82.761 E25.8825
G1 X124.853 Y81.629 E25.9580
G1 X127.969 Y81.547 E26.1135
G1 X129.355 Y82.326 E26.1928
G1 X129.548 Y83.083 E26.2318
G1 X130.358 Y84.023 E26.2937
G1 X130.637 Y84.877 E26.3385
G1 X131.119 Y85.681 E26.3853
G1 X131.270 Y86.342 E26.4191
G1 X131.588 Y86.813 E26.4474
G1 X131.819 Y87.741 E26.4951
G1 X131.910 Y89.423 E26.5792
G1 X132.479 Y90.029 E26.6207
G1 X132.737 Y90.730 E26.6579
G1 X134.055 Y92.394 E26.7638
G1 X137.066 Y92.247 E26.9142
G1 X139.598 Y92.566 E27.0415
G1 X140.873 Y93.070 E27.1099
G1 X141.758 Y93.810 E27.1675
G1 X142.985 Y96.266 E27.3045
G1 X143.290 Y98.118 E27.3981
G1 X143.043 Y146.550 E29.8144
G1 X142.901 Y148.552 E29.9146
G1 X142.419 Y150.696 E30.0242
G1 X141.567 Y152.357 E30.1173
G1 X140.374 Y153.399 E30.1964
G1 X139.128 Y153.971 E30.2648
G1 X136.665 Y154.459 E30.3900
G1 X128.489 Y154.906 E30.7985
G1 X128.493 Y155.543 E30.8303
G1 X128.871 Y157.017 E30.9062
G1 X128.839 Y157.849 E30.9478
G1 X129.256 Y158.917 E31.0050
G1 X129.293 Y163.780 E31.2476
G1 X129.092 Y164.398 E31.2800
G1 X129.005 Y166.349 E31.3774
G1 X128.146 Y167.810 E31.4620
G1 X124.555 Y168.318 E31.6429
G1 X123.565 Y167.910 E31.6964
G1 X123.191 Y167.456 E31.7257
G1 X122.658 Y166.013 E31.8025
G1 X122.601 Y164.439 E31.8810
G1 X122.222 Y163.669 E31.9238
G1 X122.193 Y161.501 E32.0320
G1 X122.393 Y160.882 E32.0645
G1 X122.393 Y159.089 E32.1539
G1 X122.984 Y157.926 E32.2190
G1 X123.193 Y156.679 E32.2821
G1 X123.193 Y155.193 E32.3562
G1 X113.262 Y155.727 E32.8524
G1 X111.072 Y155.567 E32.9620
G1 X109.478 Y155.084 E33.0451
G1 X108.453 Y154.442 E33.1054
G1 X107.947 Y153.815 E33.1456
G1 X106.962 Y151.711 E33.2615
G1 X106.663 Y149.987 E33.3488
G1 X106.567 Y148.097 E33.4432
G1 X106.920 Y101.415 E35.7722
G1 X107.062 Y99.420 E35.8720
G1 X107.691 Y96.971 E35.9982
G1 X108.774 Y95.226 E36.1006
G0 F3900 X109.114 Y95.437
G1 F900 X110.566 Y94.566 E36.1851
G1 X113.295 Y93.955 E36.3246
G1 X116.446 Y93.774 E36.4821
G1 X116.617 Y93.420 E36.5017
G1 X116.895 Y93.298 E36.5169
G1 X119.196 Y93.244 E36.6317
G1 X119.748 Y93.591 E36.6642
G1 X128.817 Y93.085 E37.1174
G1 X128.204 Y91.116 E37.2203
G1 X127.551 Y91.086 E37.2529
G1 X126.608 Y90.701 E37.3037
G1 X126.047 Y90.270 E37.3390
G1 X125.058 Y91.102 E37.4035
G1 X123.700 Y90.634 E37.4751
G1 X123.436 Y90.182 E37.5012
G1 X123.380 Y89.229 E37.5489
G1 X122.033 Y89.078 E37.6165
G1 X121.778 Y87.525 E37.6950
G1 X121.348 Y86.894 E37.7331
G1 X121.494 Y86.481 E37.7549
G1 X122.232 Y85.918 E37.8013
G1 X123.285 Y83.631 E37.9269
G1 X124.119 Y83.061 E37.9773
G1 X125.033 Y81.986 E38.0477
G1 X127.780 Y81.900 E38.1848
G1 X129.043 Y82.577 E38.2563
G1 X129.176 Y83.269 E38.2914
G1 X129.978 Y84.147 E38.3508
G1 X130.272 Y85.046 E38.3979
G1 X130.776 Y85.887 E38.4469
G1 X130.895 Y86.510 E38.4785
G1 X131.200 Y86.910 E38.5036
G1 X131.431 Y87.838 E38.5513
G1 X131.517 Y89.589 E38.6388
G1 X132.188 Y90.303 E38.6877
G1 X132.379 Y90.929 E38.7203
G1 X133.520 Y92.222 E38.8063
G1 X133.815 Y92.807 E38.8390
G1 X137.086 Y92.647 E39.0024
G1 X139.547 Y92.963 E39.1262
G1 X140.722 Y93.441 E39.1895
G1 X141.401 Y93.991 E39.2331
G1 X142.590 Y96.331 E39.3640
G1 X142.895 Y98.183 E39.4577
G1 X142.643 Y146.548 E41.8706
G1 X142.502 Y148.524 E41.9695
G1 X142.063 Y150.513 E42.0711
G1 X141.211 Y152.174 E42.1642
G1 X140.207 Y153.035 E42.2302
G1 X138.961 Y153.607 E42.2986
G1 X136.589 Y154.066 E42.4192
G1 X128.087 Y154.528 E42.8439
G1 X128.093 Y155.596 E42.8972
G1 X128.471 Y157.002 E42.9699
G1 X128.436 Y157.922 E43.0158
G1 X128.856 Y158.920 E43.0698
G1 X128.893 Y163.783 E43.3124
G1 X128.693 Y164.323 E43.3412
G1 X128.656 Y166.153 E43.4325
G1 X127.902 Y167.493 E43.5092
G1 X124.505 Y167.921 E43.6800
G1 X123.740 Y167.550 E43.7224
G1 X123.564 Y167.312 E43.7372
G1 X123.058 Y165.999 E43.8074
G1 X122.998 Y164.328 E43.8908
G1 X122.622 Y163.664 E43.9289
G1 X122.593 Y161.496 E44.0371
G1 X122.793 Y160.952 E44.0660
G1 X122.793 Y159.089 E44.1589
G1 X123.383 Y158.032 E44.2193
G1 X123.393 Y157.282 E44.2567
G1 X123.593 Y156.751 E44.2850
G1 X123.593 Y154.771 E44.3838
G1 X113.241 Y155.328 E44.9010
G1 X111.102 Y155.168 E45.0081
G1 X109.596 Y154.702 E45.0867
G1 X108.764 Y154.191 E45.1354
G1 X108.258 Y153.564 E45.1756
G1 X107.356 Y151.643 E45.2815
G1 X107.057 Y149.919 E45.3688
G1 X106.967 Y148.077 E45.4608
G1 X107.320 Y101.418 E47.7887
G1 X107.461 Y99.449 E47.8872
G1 X108.031 Y97.182 E48.0038
G1 X109.114 Y95.437 E48.1063
G0 F3900 X109.454 Y95.648
G1 F900 X110.762 Y94.915 E48.1811
G1 X113.380 Y94.346 E48.3147
G1 X116.726 Y94.159 E48.4819
G1 X116.904 Y93.698 E48.5066
G1 X119.205 Y93.644 E48.6214
G1 X119.606 Y93.999 E48.6481
G1 X129.351 Y93.455 E49.1351
G1 X128.499 Y90.716 E49.2782
G1 X127.702 Y90.716 E49.3179
G1 X126.759 Y90.331 E49.3687
G1 X126.016 Y89.731 E49.4164
G1 X125.061 Y90.702 E49.4843
G1 X123.965 Y90.334 E49.5420
G1 X123.835 Y90.159 E49.5529
G1 X123.758 Y88.837 E49.6190
G1 X122.326 Y88.806 E49.6904
G1 X122.163 Y87.372 E49.7624
G1 X121.737 Y86.799 E49.7980
G1 X122.579 Y86.157 E49.8509
G1 X122.791 Y85.431 E49.8886
G1 X123.366 Y84.619 E49.9382
G1 X123.591 Y83.888 E49.9764
G1 X124.392 Y83.360 E50.0243
G1 X125.221 Y82.339 E50.0899
G1 X127.599 Y82.257 E50.2086
G1 X128.737 Y82.835 E50.2723
G1 X128.789 Y83.446 E50.3029
G1 X129.598 Y84.271 E50.3605
G1 X129.907 Y85.215 E50.4101
G1 X130.433 Y86.093 E50.4611
G1 X130.516 Y86.691 E50.4912
G1 X130.812 Y87.007 E50.5128
G1 X131.043 Y87.935 E50.5606
G1 X131.123 Y89.754 E50.6514
G1 X131.897 Y90.577 E50.7078
G1 X132.010 Y91.116 E50.7352
G1 X133.220 Y92.487 E50.8265
G1 X133.568 Y93.220 E50.8669
G1 X137.106 Y93.047 E51.0437
G1 X139.396 Y93.334 E51.1588
G1 X140.571 Y93.812 E51.2221
G1 X141.143 Y94.296 E51.2595
G1 X142.195 Y96.396 E51.3767
G1 X142.500 Y98.248 E51.4703
G1 X142.243 Y146.546 E53.8799
G1 X142.103 Y148.495 E53.9774
G1 X141.707 Y150.330 E54.0711
G1 X140.855 Y151.991 E54.1642
G1 X140.040 Y152.671 E54.2172
G1 X138.794 Y153.243 E54.2856
G1 X136.515 Y153.673 E54.4013
G1 X127.685 Y154.149 E54.8424
G1 X127.693 Y155.653 E54.9175
G1 X128.071 Y156.987 E54.9866
G1 X128.032 Y158.001 E55.0373
G1 X128.456 Y158.923 E55.0879
G1 X128.493 Y163.786 E55.3305
G1 X128.293 Y164.238 E55.3552
G1 X128.293 Y165.985 E55.4423
G1 X127.770 Y167.115 E55.5045
G1 X124.456 Y167.524 E55.6711
G1 X123.951 Y167.210 E55.7007
G1 X123.738 Y166.406 E55.7422
G1 X123.458 Y165.985 E55.7674
G1 X123.394 Y164.198 E55.8567
G1 X123.022 Y163.659 E55.8893
G1 X122.993 Y161.491 E55.9975
G1 X123.193 Y161.036 E56.0223
G1 X123.193 Y159.089 E56.1194
G1 X123.782 Y158.149 E56.1748
G1 X123.793 Y157.287 E56.2178
G1 X123.993 Y156.836 E56.2424
G1 X123.993 Y154.349 E56.3665
G1 X113.219 Y154.929 E56.9048
G1 X111.133 Y154.769 E57.0091
G1 X109.717 Y154.321 E57.0832
G1 X109.075 Y153.940 E57.1205
G1 X108.569 Y153.313 E57.1607
G1 X107.750 Y151.575 E57.2565
G1 X107.451 Y149.851 E57.3438
G1 X107.367 Y148.058 E57.4334
G1 X107.720 Y101.421 E59.7602
G1 X107.860 Y99.478 E59.8574
G1 X108.371 Y97.393 E59.9645
G1 X109.454 Y95.648 E60.0669
;PRINTING: p1_ImageToStl.com_Lion.stl
;PRINTING_ID: 0
G1 F2400 E57.0669
G0 F3900 X139.316 Y95.869
;TYPE:WALL-OUTER
;WIDTH:0.400
G1 F1500 E60.0669
G1 F2400 X139.839 Y96.860 E60.1228
G1 X140.100 Y98.252 E60.1935
G1 X139.848 Y146.383 E62.5948
G1 X139.744 Y148.054 E62.6783
G1 X139.462 Y149.479 E62.7508
G1 X138.931 Y150.543 E62.8101
G1 X138.118 Y150.937 E62.8552
G1 X136.385 Y151.275 E62.9433
G1 X113.102 Y152.531 E64.1066
G1 X111.368 Y152.380 E64.1934
G1 X110.643 Y152.104 E64.2321
G1 X110.108 Y151.114 E64.2882
G1 X109.846 Y149.718 E64.3591
G1 X109.767 Y148.062 E64.4418
G1 X110.115 Y101.593 E66.7602
G1 X110.220 Y99.919 E66.8439
G1 X110.501 Y98.499 E66.9161
G1 X111.076 Y97.430 E66.9767
G1 X111.779 Y97.088 E67.0157
G1 X113.522 Y96.743 E67.1043
G1 X136.910 Y95.438 E68.2730
G1 X138.560 Y95.585 E68.3556
G1 X139.316 Y95.869 E68.3959
G0 F3900 X139.033 Y96.190
;TYPE:WALL-INNER
;WIDTH:0.400
G1 F2400 X139.457 Y96.993 E68.4412
G1 X139.700 Y98.288 E68.5070
G1 X139.448 Y146.370 E70.9058
G1 X139.080 Y149.349 E71.0556
G1 X138.634 Y150.242 E71.1054
G1 X137.990 Y150.554 E71.1411
G1 X136.336 Y150.877 E71.2251
G1 X113.109 Y152.130 E72.3856
G1 X111.458 Y151.986 E72.4683
G1 X110.924 Y151.783 E72.4968
G1 X110.490 Y150.979 E72.5424
G1 X110.244 Y149.671 E72.6088
G1 X110.167 Y148.054 E72.6896
G1 X110.515 Y101.607 E75.0069
G1 X110.882 Y98.636 E75.1562
G1 X111.367 Y97.733 E75.2074
G1 X111.907 Y97.470 E75.2373
G1 X113.572 Y97.141 E75.3220
G1 X136.903 Y95.839 E76.4878
G1 X138.470 Y95.979 E76.5663
G1 X139.033 Y96.190 E76.5963
G1 F2400 E73.5963
G0 F3900 X138.949 Y96.244
G0 X111.205 Y151.462
G1 F1500 E76.5963
G1 F2400 X110.872 Y150.844 E76.6313
G1 X110.642 Y149.624 E76.6932
G1 X110.567 Y148.046 E76.7721
G1 X110.915 Y101.633 E79.0877
G1 X111.270 Y98.759 E79.2322
G1 X111.658 Y98.036 E79.2731
G1 X113.622 Y97.539 E79.3742
G1 X136.896 Y96.240 E80.5371
G1 X138.380 Y96.373 E80.6114
G1 X138.750 Y96.511 E80.6311
G1 X139.075 Y97.126 E80.6659
G1 X139.300 Y98.324 E80.7267
G1 X139.048 Y146.344 E83.1224
G1 X138.691 Y149.232 E83.2676
G1 X138.337 Y149.941 E83.3071
G1 X137.862 Y150.171 E83.3335
G1 X136.287 Y150.479 E83.4135
G1 X113.116 Y151.729 E84.5712
G1 X111.205 Y151.462 E84.6675
G0 F3900 X111.461 Y151.094
G1 F2400 X111.040 Y149.577 E84.7460
G1 X110.967 Y148.038 E84.8229
G1 X111.315 Y101.659 E87.1368
G1 X111.658 Y98.882 E87.2764
G1 X111.927 Y98.381 E87.3048
G1 X113.683 Y97.936 E87.3952
G1 X136.889 Y96.641 E88.5547
G1 X138.291 Y96.767 E88.6249
G1 X138.693 Y97.259 E88.6566
G1 X138.900 Y98.360 E88.7125
G1 X138.648 Y146.318 E91.1052
G1 X138.302 Y149.115 E91.2458
G1 X138.040 Y149.640 E91.2751
G1 X137.734 Y149.788 E91.2920
G1 X136.238 Y150.081 E91.3681
G1 X113.133 Y151.327 E92.5225
G1 X111.461 Y151.094 E92.6067
G0 F3900 X112.270 Y151.019
