;Sliced by ideaMaker 5.2.4.8581, 2025-06-08 19:53:57 UTC+0200
;Slicer Version: 5.2.3.8580
;Dimension: 250.000 250.000 250.000 0.400
;Plate Shape: 0
;Origin Center: 0
;Extruder Offset #1: 25.000 0.000
;Filament Diameter #1: 1.750
;Filament Diameter #2: 1.750
;Filament Compensation #1: 94.000
;Filament Compensation #2: 90.000
;Filament Density #1: 1240.000
;Filament Density #2: 1240.000
;Filament Type #1: PLA
;Filament Type #2: PLA
;Filament Name #1: [Raise3D] Premium PLA 1.75mm
;Filament Name #2: [Raise3D] Premium PLA 1.75mm
;Filament #1: PLA 1.75mm
;Filament #2: PLA 1.75mm
;Printer Type: floppy
;Firmware: Klipper
;Bounding Box: 103.495 146.505 103.496 146.504 0.000 11.400
;Model Gap: 0.000
M221 T0 S94.00
M140 S50.00
M104 T0 S190.00
M109 T0 S190.00
T0
M190 S50.00
G21 ;metric values
G90 ;absolute positioning
M82 ;set extruder to absolute mode
M107 ;start with the fan off
G28 X0 Y0 ;move X/Y to min endstops
G28 Z0 ;move Z to min endstops
G1 Z15.0 F9000 ;move the platform down 15mm
G92 E0 ;zero the extruded length
G0 X43 Y27 F2000  ;go to the edge of the bed
G92 X0 Y0 E0 ;set zero to edge of the bed
G0 F9000 Z1 ;Z up with 1mm
G1 F200 Z0 ;Z home slowly
G1 Z15.0 F9000 ;move the platform down 15mm
G1 F9000 ;speed setting
G92 E-3 ;retraction
M117 Printing...
M1001
;TOTAL_NUM: 1
;PRINTING_TIME: 0
;REMAINING_TIME: 1472
;LAYER:0
;Z:0.300
;HEIGHT:0.300
;PRINTING: NON-OBJECT
;PRINTING_ID: -1
G1 F2400 E-3.0000
G0 F3900 X106.170 Y113.418
G0 F300 Z0.300
;TYPE:SKIRT
;WIDTH:0.400
G1 F1500 E0.0000
G1 F900 X107.857 Y112.374 E0.0990
G1 X110.576 Y112.073 E0.2355
G1 X111.648 Y111.289 E0.3017
G1 X112.183 Y110.205 E0.3620
G1 X112.514 Y107.458 E0.5001
G1 X113.447 Y106.195 E0.5784
G1 X114.000 Y105.730 E0.6145
G1 X117.057 Y104.275 E0.7834
G1 X120.103 Y103.496 E0.9402
G1 X121.819 Y103.954 E1.0288
G1 X123.937 Y105.660 E1.1645
G1 X125.354 Y105.857 E1.2359
G1 X126.305 Y105.530 E1.2861
G1 X128.155 Y103.966 E1.4069
G1 X129.413 Y103.554 E1.4730
G1 X130.310 Y103.505 E1.5178
G1 X133.542 Y104.517 E1.6867
G1 X136.554 Y106.152 E1.8577
G1 X137.620 Y107.848 E1.9577
G1 X137.759 Y109.901 E2.0603
G1 X138.256 Y111.172 E2.1284
G1 X138.789 Y111.705 E2.1660
G1 X139.853 Y112.190 E2.2243
G1 X142.716 Y112.572 E2.3685
G1 X144.275 Y114.031 E2.4750
G1 X145.723 Y117.055 E2.6422
G1 X146.505 Y120.082 E2.7982
G1 X146.049 Y121.805 E2.8871
G1 X144.695 Y123.351 E2.9897
G1 X144.144 Y124.619 E3.0586
G1 X144.127 Y125.245 E3.0899
G1 X144.530 Y126.404 E3.1511
G1 X146.148 Y128.382 E3.2786
G1 X146.451 Y130.417 E3.3812
G1 X145.269 Y134.037 E3.5712
G1 X143.829 Y136.581 E3.7171
G1 X142.142 Y137.625 E3.8161
G1 X140.095 Y137.759 E3.9184
G1 X138.801 Y138.269 E3.9878
G1 X138.362 Y138.686 E4.0180
G1 X137.816 Y139.794 E4.0796
G1 X137.561 Y142.343 E4.2074
G1 X136.334 Y144.001 E4.3103
G1 X132.952 Y145.719 E4.4996
G1 X130.125 Y146.504 E4.6460
G1 X128.194 Y146.049 E4.7449
G1 X126.648 Y144.695 E4.8475
G1 X125.380 Y144.144 E4.9164
G1 X124.754 Y144.127 E4.9477
G1 X123.595 Y144.530 E5.0089
G1 X121.617 Y146.148 E5.1364
G1 X119.582 Y146.451 E5.2390
G1 X115.962 Y145.269 E5.4290
G1 X113.418 Y143.829 E5.5749
G1 X112.374 Y142.142 E5.6738
G1 X112.240 Y140.095 E5.7762
G1 X111.730 Y138.801 E5.8456
G1 X111.313 Y138.362 E5.8758
G1 X110.205 Y137.816 E5.9374
G1 X107.656 Y137.561 E6.0652
G1 X105.998 Y136.334 E6.1681
G1 X104.280 Y132.952 E6.3574
G1 X103.495 Y130.125 E6.5038
G1 X103.950 Y128.194 E6.6027
G1 X105.304 Y126.648 E6.7053
G1 X105.855 Y125.380 E6.7742
G1 X105.872 Y124.754 E6.8055
G1 X105.469 Y123.595 E6.8667
G1 X103.851 Y121.617 E6.9942
G1 X103.548 Y119.582 E7.0968
G1 X104.730 Y115.962 E7.2868
G1 X106.170 Y113.418 E7.4327
G0 F3900 X106.518 Y113.616
G1 F900 X108.058 Y112.720 E7.5216
G1 X109.987 Y112.637 E7.6179
G1 X110.749 Y112.442 E7.6571
G1 X111.964 Y111.554 E7.7322
G1 X112.574 Y110.318 E7.8010
G1 X112.836 Y107.696 E7.9324
G1 X113.769 Y106.433 E8.0108
G1 X114.252 Y106.041 E8.0418
G1 X117.228 Y104.637 E8.2060
G1 X120.201 Y103.884 E8.3590
G1 X121.703 Y104.337 E8.4372
G1 X123.129 Y105.646 E8.5338
G1 X123.782 Y106.033 E8.5717
G1 X124.707 Y106.274 E8.6194
G1 X125.424 Y106.255 E8.6552
G1 X126.508 Y105.883 E8.7123
G1 X128.279 Y104.346 E8.8293
G1 X129.537 Y103.934 E8.8954
G1 X130.190 Y103.887 E8.9280
G1 X133.422 Y104.899 E9.0970
G1 X136.362 Y106.503 E9.2641
G1 X137.276 Y108.051 E9.3538
G1 X137.362 Y109.985 E9.4504
G1 X137.913 Y111.395 E9.5259
G1 X138.557 Y112.039 E9.5713
G1 X139.743 Y112.580 E9.6364
G1 X142.516 Y112.919 E9.7757
G1 X143.914 Y114.204 E9.8705
G1 X145.362 Y117.228 E10.0377
G1 X146.118 Y119.980 E10.1801
G1 X145.662 Y121.703 E10.2690
G1 X144.355 Y123.130 E10.3656
G1 X143.746 Y124.531 E10.4418
G1 X143.725 Y125.307 E10.4805
G1 X144.175 Y126.603 E10.5490
G1 X145.838 Y128.635 E10.6800
G1 X146.071 Y130.293 E10.7635
G1 X144.889 Y133.913 E10.9535
G1 X143.481 Y136.383 E11.0953
G1 X141.941 Y137.279 E11.1842
G1 X140.012 Y137.362 E11.2805
G1 X138.581 Y137.926 E11.3573
G1 X138.035 Y138.445 E11.3949
G1 X137.425 Y139.681 E11.4636
G1 X137.163 Y142.303 E11.5951
G1 X136.153 Y143.644 E11.6789
G1 X132.771 Y145.362 E11.8681
G1 X130.019 Y146.118 E12.0105
G1 X128.296 Y145.662 E12.0994
G1 X126.869 Y144.355 E12.1960
G1 X125.468 Y143.746 E12.2722
G1 X124.692 Y143.725 E12.3109
G1 X123.396 Y144.175 E12.3793
G1 X121.364 Y145.838 E12.5103
G1 X119.706 Y146.071 E12.5939
G1 X116.086 Y144.889 E12.7839
G1 X113.616 Y143.481 E12.9257
G1 X112.720 Y141.941 E13.0146
G1 X112.637 Y140.012 E13.1109
G1 X112.073 Y138.581 E13.1877
G1 X111.554 Y138.035 E13.2252
G1 X110.318 Y137.425 E13.2940
G1 X107.696 Y137.163 E13.4255
G1 X106.355 Y136.153 E13.5092
G1 X104.637 Y132.771 E13.6985
G1 X103.881 Y130.019 E13.8409
G1 X104.337 Y128.296 E13.9298
G1 X105.644 Y126.869 E14.0263
G1 X106.253 Y125.468 E14.1025
G1 X106.274 Y124.692 E14.1413
G1 X105.824 Y123.396 E14.2097
G1 X104.161 Y121.364 E14.3407
G1 X103.928 Y119.706 E14.4242
G1 X105.110 Y116.086 E14.6142
G1 X106.518 Y113.616 E14.7561
G0 F3900 X106.865 Y113.815
G1 F900 X108.247 Y113.072 E14.8343
G1 X110.039 Y113.036 E14.9238
G1 X110.898 Y112.816 E14.9680
G1 X111.656 Y112.398 E15.0112
G1 X112.292 Y111.794 E15.0550
G1 X112.967 Y110.426 E15.1311
G1 X113.158 Y107.934 E15.2557
G1 X114.091 Y106.671 E15.3341
G1 X114.497 Y106.357 E15.3597
G1 X117.398 Y104.999 E15.5195
G1 X120.085 Y104.267 E15.6584
G1 X121.587 Y104.720 E15.7367
G1 X122.884 Y105.965 E15.8264
G1 X123.626 Y106.406 E15.8695
G1 X124.662 Y106.676 E15.9229
G1 X125.495 Y106.653 E15.9645
G1 X126.713 Y106.235 E16.0287
G1 X128.403 Y104.726 E16.1417
G1 X129.661 Y104.314 E16.2078
G1 X130.210 Y104.286 E16.2352
G1 X133.299 Y105.280 E16.3971
G1 X136.170 Y106.854 E16.5604
G1 X136.925 Y108.242 E16.6393
G1 X136.963 Y110.041 E16.7290
G1 X137.182 Y110.897 E16.7731
G1 X137.591 Y111.639 E16.8154
G1 X138.325 Y112.373 E16.8672
G1 X139.636 Y112.971 E16.9391
G1 X142.320 Y113.268 E17.0738
G1 X143.642 Y114.497 E17.1638
G1 X145.000 Y117.398 E17.3237
G1 X145.732 Y120.085 E17.4626
G1 X145.279 Y121.587 E17.5409
G1 X144.035 Y122.885 E17.6306
G1 X143.586 Y123.640 E17.6744
G1 X143.347 Y124.471 E17.7175
G1 X143.323 Y125.369 E17.7623
G1 X143.822 Y126.806 E17.8382
G1 X145.442 Y128.694 E17.9623
G1 X145.674 Y130.243 E18.0405
G1 X145.611 Y130.745 E18.0657
G1 X144.513 Y133.777 E18.2266
G1 X143.134 Y136.184 E18.3650
G1 X141.752 Y136.927 E18.4433
G1 X139.960 Y136.963 E18.5327
G1 X139.101 Y137.183 E18.5769
G1 X138.343 Y137.601 E18.6201
G1 X137.707 Y138.205 E18.6639
G1 X137.032 Y139.573 E18.7400
G1 X136.841 Y142.065 E18.8647
G1 X135.908 Y143.328 E18.9430
G1 X135.502 Y143.642 E18.9686
G1 X132.601 Y145.000 E19.1284
G1 X129.914 Y145.732 E19.2674
G1 X128.412 Y145.279 E19.3456
G1 X127.114 Y144.035 E19.4353
G1 X126.359 Y143.586 E19.4792
G1 X125.528 Y143.347 E19.5223
G1 X124.630 Y143.323 E19.5671
G1 X123.193 Y143.822 E19.6430
G1 X121.305 Y145.442 E19.7671
G1 X119.756 Y145.674 E19.8453
G1 X119.254 Y145.611 E19.8705
G1 X116.222 Y144.513 E20.0314
G1 X113.815 Y143.134 E20.1698
G1 X113.072 Y141.752 E20.2481
G1 X113.036 Y139.960 E20.3375
G1 X112.816 Y139.101 E20.3817
G1 X112.398 Y138.343 E20.4249
G1 X111.794 Y137.707 E20.4687
G1 X110.426 Y137.032 E20.5448
G1 X107.934 Y136.841 E20.6695
G1 X106.671 Y135.908 E20.7478
G1 X106.357 Y135.502 E20.7734
G1 X104.999 Y132.601 E20.9332
G1 X104.267 Y129.914 E21.0722
G1 X104.720 Y128.412 E21.1504
G1 X105.964 Y127.114 E21.2401
G1 X106.413 Y126.359 E21.2840
G1 X106.652 Y125.528 E21.3271
G1 X106.676 Y124.630 E21.3719
G1 X106.177 Y123.193 E21.4478
G1 X104.557 Y121.305 E21.5719
G1 X104.325 Y119.756 E21.6501
G1 X104.388 Y119.254 E21.6753
G1 X105.486 Y116.222 E21.8362
G1 X106.865 Y113.815 E21.9746
;PRINTING: Tool.STL
;PRINTING_ID: 0
G1 F2400 E18.9746
G0 F3900 X114.502 Y108.358
;TYPE:WALL-OUTER
;WIDTH:0.400
G1 F1500 E21.9746
G1 F2400 X115.132 Y107.605 E22.0236
G1 X117.811 Y106.335 E22.1715
G1 X120.135 Y105.675 E22.2920
G1 X120.848 Y105.915 E22.3295
G1 X122.020 Y107.079 E22.4119
G1 X123.080 Y107.709 E22.4735
G1 X124.504 Y108.081 E22.5469
G1 X125.743 Y108.048 E22.6087
G1 X127.357 Y107.493 E22.6939
G1 X128.168 Y106.923 E22.7433
G1 X129.151 Y105.917 E22.8135
G1 X129.991 Y105.675 E22.8571
G1 X132.657 Y106.523 E22.9967
G1 X135.225 Y107.898 E23.1420
G1 X135.558 Y108.568 E23.1793
G1 X135.564 Y110.221 E23.2618
G1 X135.869 Y111.413 E23.3232
G1 X136.465 Y112.493 E23.3847
G1 X137.511 Y113.540 E23.4586
G1 X139.287 Y114.351 E23.5560
G1 X141.641 Y114.502 E23.6737
G1 X142.394 Y115.132 E23.7227
G1 X143.664 Y117.811 E23.8706
G1 X144.324 Y120.135 E23.9911
G1 X144.084 Y120.848 E24.0286
G1 X142.920 Y122.020 E24.1110
G1 X142.291 Y123.078 E24.1724
G1 X141.951 Y124.261 E24.2339
G1 X141.918 Y125.490 E24.2952
G1 X142.120 Y126.461 E24.3447
G1 X142.638 Y127.578 E24.4061
G1 X144.190 Y129.342 E24.5233
G1 X144.276 Y130.325 E24.5725
G1 X143.283 Y133.107 E24.7199
G1 X142.102 Y135.225 E24.8409
G1 X141.431 Y135.558 E24.8783
G1 X139.778 Y135.564 E24.9607
G1 X138.586 Y135.869 E25.0221
G1 X137.508 Y136.463 E25.0835
G1 X136.615 Y137.312 E25.1450
G1 X135.966 Y138.356 E25.2063
G1 X135.647 Y139.298 E25.2560
G1 X135.497 Y141.641 E25.3731
G1 X134.867 Y142.394 E25.4221
G1 X132.188 Y143.664 E25.5700
G1 X129.864 Y144.324 E25.6905
G1 X129.151 Y144.084 E25.7280
G1 X127.979 Y142.920 E25.8105
G1 X126.921 Y142.291 E25.8719
G1 X125.738 Y141.951 E25.9333
G1 X124.509 Y141.918 E25.9946
G1 X123.538 Y142.120 E26.0441
G1 X122.421 Y142.638 E26.1055
G1 X120.657 Y144.190 E26.2227
G1 X119.674 Y144.276 E26.2720
G1 X116.892 Y143.283 E26.4193
G1 X114.774 Y142.102 E26.5403
G1 X114.441 Y141.431 E26.5777
G1 X114.435 Y139.778 E26.6602
G1 X114.130 Y138.586 E26.7215
G1 X113.536 Y137.508 E26.7830
G1 X112.687 Y136.615 E26.8444
G1 X111.643 Y135.966 E26.9058
G1 X110.701 Y135.647 E26.9554
G1 X108.358 Y135.497 E27.0725
G1 X107.605 Y134.867 E27.1215
G1 X106.335 Y132.188 E27.2694
G1 X105.675 Y129.864 E27.3899
G1 X105.915 Y129.151 E27.4275
G1 X107.079 Y127.979 E27.5099
G1 X107.708 Y126.921 E27.5713
G1 X108.048 Y125.738 E27.6327
G1 X108.081 Y124.509 E27.6940
G1 X107.879 Y123.538 E27.7435
G1 X107.361 Y122.421 E27.8049
G1 X105.809 Y120.657 E27.9222
G1 X105.723 Y119.674 E27.9714
G1 X106.716 Y116.892 E28.1188
G1 X107.897 Y114.774 E28.2397
G1 X108.568 Y114.441 E28.2771
G1 X110.221 Y114.435 E28.3596
G1 X111.413 Y114.130 E28.4210
G1 X112.491 Y113.536 E28.4824
G1 X113.384 Y112.687 E28.5438
G1 X114.033 Y111.643 E28.6052
G1 X114.352 Y110.701 E28.6548
G1 X114.502 Y108.358 E28.7719
G1 F2400 E25.7719
G0 F3900 X114.991 Y108.530
G0 X118.101 Y118.502
G0 X118.499 Y118.804
G1 F1500 E28.7719
G1 F2400 X117.267 Y120.434 E28.8739
G1 X116.542 Y121.981 E28.9591
G1 X116.123 Y123.637 E29.0443
G1 X116.026 Y125.342 E29.1295
G1 X116.252 Y127.033 E29.2146
G1 X116.795 Y128.652 E29.2998
G1 X117.635 Y130.139 E29.3850
G1 X118.770 Y131.466 E29.4722
G1 X120.361 Y132.689 E29.5723
G1 X121.902 Y133.429 E29.6576
G1 X123.553 Y133.862 E29.7427
G1 X125.256 Y133.976 E29.8279
G1 X126.950 Y133.765 E29.9130
G1 X128.574 Y133.237 E29.9982
G1 X130.069 Y132.412 E30.0834
G1 X131.407 Y131.291 E30.1705
G1 X132.644 Y129.711 E30.2706
G1 X133.398 Y128.178 E30.3558
G1 X133.848 Y126.531 E30.4410
G1 X133.978 Y124.828 E30.5262
G1 X133.783 Y123.132 E30.6114
G1 X133.255 Y121.469 E30.6985
G1 X132.266 Y119.722 E30.7986
G1 X131.134 Y118.441 E30.8839
G1 X129.782 Y117.399 E30.9691
G1 X128.258 Y116.632 E31.0542
G1 X126.615 Y116.166 E31.1394
G1 X124.876 Y116.021 E31.2264
G1 X122.884 Y116.272 E31.3266
G1 X121.270 Y116.831 E31.4118
G1 X119.790 Y117.684 E31.4970
G1 X118.499 Y118.804 E31.5823
G1 F2400 E28.5823
G0 F3900 X118.101 Y118.502
G0 X114.975 Y108.571
G0 X114.893 Y108.514
;TYPE:WALL-INNER
;WIDTH:0.400
G1 F1500 E31.5823
G1 F2400 X115.383 Y107.929 E31.6204
G1 X117.952 Y106.711 E31.7622
G1 X120.125 Y106.094 E31.8749
G1 X120.632 Y106.264 E31.9016
G1 X121.773 Y107.398 E31.9819
G1 X122.924 Y108.082 E32.0487
G1 X124.458 Y108.482 E32.1277
G1 X125.815 Y108.446 E32.1955
G1 X127.541 Y107.853 E32.2865
G1 X128.428 Y107.229 E32.3406
G1 X129.363 Y106.272 E32.4074
G1 X129.985 Y106.093 E32.4397
G1 X132.501 Y106.893 E32.5714
G1 X134.924 Y108.190 E32.7085
G1 X135.158 Y108.663 E32.7348
G1 X135.164 Y110.272 E32.8151
G1 X135.494 Y111.562 E32.8815
G1 X136.142 Y112.736 E32.9484
G1 X137.279 Y113.874 E33.0287
G1 X139.188 Y114.745 E33.1334
G1 X141.485 Y114.893 E33.2482
G1 X142.070 Y115.383 E33.2863
G1 X143.288 Y117.952 E33.4281
G1 X143.905 Y120.125 E33.5408
G1 X143.735 Y120.632 E33.5675
G1 X142.601 Y121.773 E33.6478
G1 X141.921 Y122.918 E33.7142
G1 X141.553 Y124.199 E33.7807
G1 X141.517 Y125.526 E33.8469
G1 X141.738 Y126.588 E33.9010
G1 X142.299 Y127.799 E33.9676
G1 X143.803 Y129.508 E34.0812
G1 X143.870 Y130.273 E34.1195
G1 X142.917 Y132.941 E34.2609
G1 X141.813 Y134.922 E34.3740
G1 X141.337 Y135.158 E34.4005
G1 X139.727 Y135.164 E34.4808
G1 X138.438 Y135.494 E34.5472
G1 X137.270 Y136.138 E34.6138
G1 X136.302 Y137.057 E34.6803
G1 X135.602 Y138.184 E34.7465
G1 X135.251 Y139.220 E34.8011
G1 X135.106 Y141.485 E34.9143
G1 X134.616 Y142.070 E34.9524
G1 X132.047 Y143.288 E35.0943
G1 X129.874 Y143.905 E35.2070
G1 X129.367 Y143.735 E35.2336
G1 X128.226 Y142.601 E35.3139
G1 X127.081 Y141.921 E35.3803
G1 X125.800 Y141.553 E35.4468
G1 X124.473 Y141.517 E35.5130
G1 X123.411 Y141.738 E35.5672
G1 X122.200 Y142.299 E35.6338
G1 X120.491 Y143.803 E35.7473
G1 X119.726 Y143.870 E35.7856
G1 X117.058 Y142.917 E35.9270
G1 X115.077 Y141.813 E36.0401
G1 X114.841 Y141.337 E36.0666
G1 X114.835 Y139.727 E36.1470
G1 X114.505 Y138.438 E36.2133
G1 X113.861 Y137.270 E36.2799
G1 X112.942 Y136.302 E36.3465
G1 X111.815 Y135.602 E36.4127
G1 X110.779 Y135.251 E36.4672
G1 X108.514 Y135.106 E36.5805
G1 X107.929 Y134.616 E36.6185
G1 X106.711 Y132.047 E36.7604
G1 X106.094 Y129.874 E36.8731
G1 X106.264 Y129.367 E36.8998
G1 X107.398 Y128.226 E36.9800
G1 X108.078 Y127.081 E37.0465
G1 X108.446 Y125.800 E37.1130
G1 X108.482 Y124.473 E37.1792
G1 X108.261 Y123.411 E37.2333
G1 X107.700 Y122.200 E37.2999
G1 X106.196 Y120.491 E37.4135
G1 X106.129 Y119.726 E37.4518
G1 X107.082 Y117.058 E37.5931
G1 X108.186 Y115.077 E37.7063
G1 X108.662 Y114.841 E37.7328
G1 X110.272 Y114.835 E37.8131
G1 X111.561 Y114.505 E37.8795
G1 X112.729 Y113.861 E37.9460
G1 X113.697 Y112.942 E38.0126
G1 X114.397 Y111.815 E38.0788
G1 X114.748 Y110.779 E38.1334
G1 X114.893 Y108.514 E38.2466
G1 F2400 E35.2466
G0 F3900 X114.975 Y108.571
G0 X118.120 Y118.476
G0 X118.205 Y118.529
G1 F1500 E38.2466
G1 F2400 X116.923 Y120.226 E38.3527
G1 X116.164 Y121.846 E38.4420
G1 X115.726 Y123.576 E38.5310
G1 X115.624 Y125.357 E38.6200
G1 X115.861 Y127.124 E38.7089
G1 X116.428 Y128.815 E38.7979
G1 X117.306 Y130.370 E38.8870
G1 X118.493 Y131.758 E38.9781
G1 X120.150 Y133.032 E39.0824
G1 X121.763 Y133.806 E39.1717
G1 X123.488 Y134.259 E39.2606
G1 X125.267 Y134.378 E39.3496
G1 X127.037 Y134.157 E39.4386
G1 X128.734 Y133.606 E39.5276
G1 X130.296 Y132.743 E39.6166
G1 X131.696 Y131.571 E39.7077
G1 X132.985 Y129.925 E39.8120
G1 X133.774 Y128.320 E39.9013
G1 X134.244 Y126.600 E39.9902
G1 X134.380 Y124.820 E40.0793
G1 X134.176 Y123.048 E40.1683
G1 X133.624 Y121.308 E40.2593
G1 X132.593 Y119.489 E40.3636
G1 X131.408 Y118.147 E40.4530
G1 X129.996 Y117.059 E40.5419
G1 X128.404 Y116.258 E40.6308
G1 X126.687 Y115.771 E40.7199
