;Sliced by ideaMaker 5.2.4.8581, 2025-08-29 12:44:17 UTC+0200
;Slicer Version: 5.2.3.8580
;Dimension: 250.000 250.000 250.000 0.400
;Plate Shape: 0
;Origin Center: 0
;Extruder Offset #1: 25.000 0.000
;Filament Diameter #1: 1.750
;Filament Diameter #2: 1.750
;Filament Compensation #1: 94.000
;Filament Compensation #2: 90.000
;Filament Density #1: 1240.000
;Filament Density #2: 1240.000
;Filament Type #1: PLA
;Filament Type #2: PLA
;Filament Name #1: [Raise3D] Premium PLA 1.75mm
;Filament Name #2: [Raise3D] Premium PLA 1.75mm
;Filament #1: PLA 1.75mm
;Filament #2: PLA 1.75mm
;Printer Type: floppy
;Firmware: Klipper
;Bounding Box: 79.296 202.172 53.845 188.093 0.000 36.300
;Model Gap: 0.000
M221 T0 S94.00
M140 S45.00
M104 T0 S200.00
M109 T0 S200.00
T0
M190 S45.00
G21 ;metric values
G90 ;absolute positioning
M82 ;set extruder to absolute mode
M107 ;start with the fan off
G28 X0 Y0 ;move X/Y to min endstops
G28 Z0 ;move Z to min endstops
G1 Z15.0 F9000 ;move the platform down 15mm
G92 E0 ;zero the extruded length
G0 X43 Y27 F2000  ;go to the edge of the bed
G92 X0 Y0 E0 ;set zero to edge of the bed
G0 F9000 Z1 ;Z up with 1mm
G1 F200 Z0 ;Z home slowly
G1 Z15.0 F9000 ;move the platform down 15mm
G1 F9000 ;speed setting
G92 E-3 ;retraction
M117 Printing...
M1001
;TOTAL_NUM: 3
;PRINTING_TIME: 0
;REMAINING_TIME: 9552
;LAYER:0
;Z:0.300
;HEIGHT:0.300
;PRINTING: NON-OBJECT
;PRINTING_ID: -1
G1 F2400 E-3.0000
G0 F3900 X109.994 Y63.000
G0 F300 Z0.300
;TYPE:SKIRT
;WIDTH:0.400
G1 F1500 E0.0000
G1 F900 X111.186 Y61.489 E0.0960
G1 X112.760 Y60.494 E0.1889
G1 X115.623 Y60.046 E0.3335
G1 X117.782 Y60.689 E0.4459
G1 X119.269 Y59.471 E0.5418
G1 X120.963 Y58.798 E0.6327
G1 X121.457 Y56.872 E0.7319
G1 X122.743 Y55.199 E0.8372
G1 X124.464 Y54.165 E0.9374
G1 X127.152 Y53.853 E1.0724
G1 X128.457 Y54.275 E1.1408
G1 X129.530 Y53.864 E1.1981
G1 X131.823 Y53.845 E1.3125
G1 X133.357 Y54.403 E1.3940
G1 X134.831 Y55.610 E1.4890
G1 X135.839 Y57.256 E1.5853
G1 X136.068 Y58.369 E1.6420
G1 X138.543 Y58.832 E1.7676
G1 X139.969 Y59.495 E1.8461
G1 X141.434 Y60.604 E1.9377
G1 X142.758 Y62.218 E2.0419
G1 X143.665 Y64.187 E2.1500
G1 X144.025 Y66.076 E2.2460
G1 X144.069 Y73.224 E2.6026
G1 X146.770 Y74.471 E2.7510
G1 X148.195 Y76.205 E2.8630
G1 X148.796 Y78.349 E2.9741
G1 X148.412 Y80.409 E3.0786
G1 X148.669 Y81.091 E3.1150
G1 X148.795 Y82.945 E3.2077
G1 X148.201 Y84.950 E3.3120
G1 X147.020 Y86.501 E3.4093
G1 X145.625 Y87.428 E3.4928
G1 X144.126 Y87.835 E3.5703
G1 X143.942 Y96.191 E3.9873
G1 X143.157 Y98.647 E4.1160
G1 X141.799 Y100.601 E4.2347
G1 X139.970 Y102.083 E4.3521
G1 X138.171 Y102.885 E4.4504
G1 X137.069 Y103.034 E4.5059
G1 X136.735 Y104.536 E4.5826
G1 X135.582 Y106.227 E4.6847
G1 X133.899 Y107.385 E4.7867
G1 X131.096 Y107.881 E4.9287
G1 X129.636 Y107.571 E5.0031
G1 X129.087 Y107.277 E5.0342
G1 X128.048 Y107.717 E5.0905
G1 X126.272 Y107.842 E5.1793
G1 X124.304 Y107.284 E5.2814
G1 X122.854 Y106.219 E5.3711
G1 X121.736 Y104.581 E5.4701
G1 X121.375 Y102.881 E5.5568
G1 X118.734 Y101.773 E5.6997
G1 X117.188 Y100.397 E5.8029
G1 X116.761 Y99.765 E5.8410
G1 X115.503 Y99.849 E5.9039
G1 X113.465 Y99.258 E6.0097
G1 X111.792 Y97.983 E6.1147
G1 X110.684 Y96.145 E6.2218
G1 X110.349 Y93.886 E6.3357
G1 X110.774 Y92.306 E6.4173
G1 X110.378 Y91.220 E6.4750
G1 X110.346 Y89.889 E6.5414
G1 X110.984 Y87.791 E6.6508
G1 X112.424 Y86.051 E6.7635
G1 X114.007 Y85.152 E6.8543
G1 X114.973 Y84.965 E6.9034
G1 X115.060 Y77.843 E7.2588
G1 X112.681 Y77.452 E7.3790
G1 X110.887 Y76.221 E7.4876
G1 X109.643 Y74.334 E7.6003
G1 X109.230 Y71.353 E7.7505
G1 X109.679 Y69.787 E7.8318
G1 X110.255 Y68.813 E7.8882
G1 X109.529 Y67.460 E7.9648
G1 X109.307 Y65.269 E8.0747
G1 X109.994 Y63.000 E8.1930
G0 F3900 X110.375 Y63.121
G1 F900 X111.406 Y61.823 E8.2757
G1 X112.822 Y60.889 E8.3603
G1 X115.685 Y60.441 E8.5049
G1 X117.407 Y60.922 E8.5941
G1 X117.813 Y61.185 E8.6182
G1 X119.417 Y59.843 E8.7225
G1 X121.304 Y59.094 E8.8238
G1 X121.777 Y57.112 E8.9255
G1 X122.955 Y55.538 E9.0236
G1 X124.516 Y54.562 E9.1154
G1 X127.029 Y54.234 E9.2419
G1 X128.474 Y54.701 E9.3176
G1 X129.533 Y54.264 E9.3748
G1 X131.826 Y54.245 E9.4892
G1 X133.214 Y54.777 E9.5633
G1 X134.490 Y55.819 E9.6455
G1 X135.498 Y57.465 E9.7418
G1 X135.724 Y58.713 E9.8051
G1 X138.374 Y59.195 E9.9395
G1 X139.800 Y59.858 E10.0179
G1 X141.191 Y60.922 E10.1053
G1 X142.447 Y62.470 E10.2048
G1 X143.301 Y64.352 E10.3079
G1 X143.632 Y66.148 E10.3990
G1 X143.671 Y73.575 E10.7695
G1 X144.101 Y73.632 E10.7912
G1 X146.461 Y74.725 E10.9209
G1 X147.886 Y76.459 E11.0329
G1 X148.409 Y78.451 E11.1356
G1 X147.995 Y80.447 E11.2373
G1 X148.270 Y81.118 E11.2735
G1 X148.396 Y82.972 E11.3662
G1 X147.819 Y84.831 E11.4633
G1 X146.799 Y86.168 E11.5472
G1 X145.404 Y87.095 E11.6308
G1 X143.733 Y87.524 E11.7169
G1 X143.542 Y96.182 E12.1489
G1 X142.827 Y98.421 E12.2662
G1 X141.547 Y100.290 E12.3792
G1 X139.718 Y101.772 E12.4966
G1 X138.011 Y102.519 E12.5896
G1 X136.734 Y102.671 E12.6538
G1 X136.402 Y104.315 E12.7374
G1 X135.349 Y105.902 E12.8325
G1 X133.829 Y106.991 E12.9257
G1 X131.026 Y107.487 E13.0678
G1 X129.727 Y107.182 E13.1343
G1 X129.108 Y106.828 E13.1699
G1 X128.020 Y107.318 E13.2294
G1 X126.244 Y107.443 E13.3183
G1 X124.536 Y106.958 E13.4068
G1 X123.184 Y105.994 E13.4897
G1 X122.066 Y104.356 E13.5886
G1 X121.727 Y102.593 E13.6782
G1 X119.000 Y101.474 E13.8252
G1 X117.454 Y100.098 E13.9285
G1 X116.966 Y99.346 E13.9732
G1 X115.614 Y99.465 E14.0409
G1 X113.576 Y98.874 E14.1468
G1 X112.039 Y97.668 E14.2443
G1 X111.080 Y96.086 E14.3366
G1 X110.745 Y93.827 E14.4505
G1 X111.196 Y92.289 E14.5305
G1 X110.778 Y91.210 E14.5882
G1 X110.746 Y89.879 E14.6546
G1 X111.366 Y87.911 E14.7576
G1 X112.622 Y86.399 E14.8556
G1 X114.205 Y85.500 E14.9464
G1 X115.369 Y85.303 E15.0053
G1 X115.464 Y77.498 E15.3948
G1 X112.903 Y77.119 E15.5239
G1 X111.217 Y75.995 E15.6250
G1 X110.039 Y74.274 E15.7291
G1 X109.615 Y71.463 E15.8709
G1 X110.064 Y69.897 E15.9522
G1 X110.719 Y68.821 E16.0150
G1 X109.927 Y67.420 E16.0953
G1 X109.705 Y65.229 E16.2052
G1 X110.375 Y63.121 E16.3155
G0 F3900 X110.688 Y63.370
G1 F900 X111.719 Y62.072 E16.3982
G1 X113.038 Y61.226 E16.4764
G1 X115.742 Y60.837 E16.6127
G1 X117.291 Y61.305 E16.6934
G1 X117.833 Y61.690 E16.7266
G1 X119.674 Y60.150 E16.8463
G1 X121.649 Y59.390 E16.9519
G1 X122.097 Y57.352 E17.0560
G1 X123.275 Y55.778 E17.1541
G1 X124.723 Y54.905 E17.2385
G1 X127.075 Y54.631 E17.3566
G1 X128.491 Y55.131 E17.4315
G1 X129.541 Y54.664 E17.4889
G1 X131.688 Y54.620 E17.5960
G1 X132.966 Y55.091 E17.6639
G1 X134.149 Y56.028 E17.7392
G1 X135.157 Y57.674 E17.8355
G1 X135.382 Y59.110 E17.9080
G1 X136.038 Y59.115 E17.9408
G1 X138.292 Y59.587 E18.0557
G1 X139.629 Y60.220 E18.1295
G1 X140.946 Y61.238 E18.2125
G1 X142.083 Y62.635 E18.3024
G1 X142.937 Y64.517 E18.4055
G1 X143.238 Y66.218 E18.4917
G1 X143.273 Y73.947 E18.8773
G1 X143.933 Y73.995 E18.9103
G1 X146.293 Y75.088 E19.0400
G1 X147.572 Y76.707 E19.1430
G1 X148.020 Y78.546 E19.2374
G1 X147.575 Y80.487 E19.3368
G1 X147.871 Y81.152 E19.3731
G1 X148.014 Y82.853 E19.4582
G1 X147.437 Y84.712 E19.5553
G1 X146.485 Y85.920 E19.6321
G1 X145.304 Y86.708 E19.7029
G1 X143.339 Y87.213 E19.8041
G1 X143.161 Y96.060 E20.2456
G1 X142.446 Y98.299 E20.3629
G1 X141.219 Y100.062 E20.4700
G1 X139.558 Y101.406 E20.5766
G1 X137.851 Y102.153 E20.6696
G1 X136.394 Y102.304 E20.7427
G1 X136.069 Y104.094 E20.8334
G1 X135.016 Y105.681 E20.9284
G1 X133.601 Y106.662 E21.0143
G1 X131.117 Y107.098 E21.1402
G1 X129.818 Y106.793 E21.2067
G1 X129.130 Y106.373 E21.2469
G1 X127.992 Y106.919 E21.3099
G1 X126.216 Y107.044 E21.3987
G1 X124.651 Y106.575 E21.4803
G1 X123.510 Y105.763 E21.5501
G1 X122.459 Y104.280 E21.6408
G1 X122.079 Y102.303 E21.7412
G1 X119.266 Y101.175 E21.8924
G1 X117.720 Y99.799 E21.9957
G1 X117.172 Y98.921 E22.0473
G1 X115.720 Y99.079 E22.1202
G1 X113.818 Y98.556 E22.2186
G1 X112.381 Y97.461 E22.3088
G1 X111.422 Y95.879 E22.4010
G1 X111.142 Y93.774 E22.5070
G1 X111.621 Y92.271 E22.5857
G1 X111.178 Y91.194 E22.6438
G1 X111.129 Y89.993 E22.7038
G1 X111.674 Y88.167 E22.7988
G1 X112.930 Y86.655 E22.8969
G1 X114.397 Y85.851 E22.9804
G1 X115.765 Y85.649 E23.0493
G1 X115.870 Y76.996 E23.4811
G1 X115.284 Y77.129 E23.5111
G1 X113.125 Y76.786 E23.6201
G1 X111.439 Y75.662 E23.7212
G1 X110.372 Y74.053 E23.8175
G1 X110.000 Y71.573 E23.9426
G1 X110.449 Y70.007 E24.0239
G1 X111.188 Y68.825 E24.0935
G1 X110.324 Y67.374 E24.1777
G1 X110.088 Y65.345 E24.2796
G1 X110.688 Y63.370 E24.3826
G0 F3900 X111.069 Y63.493
G1 F900 X111.943 Y62.403 E24.4523
G1 X113.101 Y61.621 E24.5220
G1 X115.626 Y61.220 E24.6496
G1 X117.175 Y61.688 E24.7303
G1 X117.917 Y62.259 E24.7770
G1 X118.292 Y61.737 E24.8091
G1 X119.834 Y60.517 E24.9072
G1 X121.401 Y59.833 E24.9925
G1 X122.089 Y59.727 E25.0272
G1 X122.032 Y59.214 E25.0530
G1 X122.484 Y57.451 E25.1438
G1 X123.489 Y56.116 E25.2271
G1 X124.777 Y55.301 E25.3032
G1 X126.942 Y55.008 E25.4122
G1 X128.515 Y55.563 E25.4954
G1 X129.549 Y55.064 E25.5527
G1 X131.696 Y55.020 E25.6598
G1 X132.819 Y55.463 E25.7200
G1 X133.808 Y56.237 E25.7827
G1 X134.816 Y57.883 E25.8790
G1 X135.031 Y59.508 E25.9608
G1 X136.035 Y59.515 E26.0109
G1 X138.209 Y59.978 E26.1217
G1 X139.455 Y60.580 E26.1908
G1 X140.700 Y61.553 E26.2696
G1 X141.720 Y62.802 E26.3501
G1 X142.543 Y64.587 E26.4481
G1 X142.844 Y66.288 E26.5343
G1 X142.874 Y74.337 E26.9359
G1 X143.771 Y74.361 E26.9807
G1 X145.984 Y75.342 E27.1014
G1 X147.183 Y76.802 E27.1957
G1 X147.631 Y78.641 E27.2901
G1 X147.151 Y80.530 E27.3873
G1 X147.472 Y81.186 E27.4238
G1 X147.615 Y82.887 E27.5089
G1 X147.123 Y84.464 E27.5914
G1 X146.171 Y85.672 E27.6681
G1 X145.087 Y86.372 E27.7325
G1 X143.367 Y86.814 E27.8211
G1 X142.918 Y86.783 E27.8435
G1 X142.761 Y96.053 E28.3061
G1 X142.116 Y98.073 E28.4119
G1 X140.967 Y99.751 E28.5133
G1 X139.306 Y101.095 E28.6199
G1 X137.694 Y101.785 E28.7074
G1 X135.955 Y101.943 E28.7945
G1 X136.017 Y102.547 E28.8248
G1 X135.679 Y104.004 E28.8994
G1 X134.780 Y105.358 E28.9805
G1 X133.532 Y106.268 E29.0576
G1 X131.048 Y106.704 E29.1834
G1 X129.920 Y106.406 E29.2416
G1 X129.152 Y105.912 E29.2872
G1 X127.964 Y106.520 E29.3537
G1 X126.188 Y106.645 E29.4426
G1 X124.877 Y106.245 E29.5109
G1 X123.836 Y105.532 E29.5739
G1 X122.785 Y104.049 E29.6646
G1 X122.424 Y101.947 E29.7710
G1 X121.808 Y101.862 E29.8020
G1 X119.532 Y100.876 E29.9258
G1 X117.986 Y99.500 E30.0290
G1 X117.380 Y98.490 E30.0878
G1 X115.826 Y98.693 E30.1660
G1 X113.924 Y98.170 E30.2644
G1 X112.629 Y97.147 E30.3467
G1 X111.819 Y95.826 E30.4240
G1 X111.539 Y93.721 E30.5300
G1 X112.050 Y92.256 E30.6074
G1 X111.578 Y91.178 E30.6661
G1 X111.529 Y89.977 E30.7261
G1 X111.986 Y88.418 E30.8071
G1 X113.122 Y87.006 E30.8975
G1 X114.589 Y86.202 E30.9810
G1 X116.161 Y86.002 E31.0600
G1 X116.277 Y76.462 E31.5360
G1 X115.340 Y76.733 E31.5847
G1 X113.342 Y76.450 E31.6854
G1 X111.768 Y75.434 E31.7788
G1 X110.767 Y73.988 E31.8666
G1 X110.385 Y71.683 E31.9831
G1 X110.834 Y70.117 E32.0644
G1 X111.575 Y69.130 E32.1260
G1 X111.594 Y68.718 E32.1466
G1 X110.721 Y67.328 E32.2285
G1 X110.485 Y65.299 E32.3304
G1 X111.069 Y63.493 E32.4251
G0 F3900 X111.381 Y63.743
G1 F900 X112.255 Y62.653 E32.4948
G1 X113.320 Y61.956 E32.5583
G1 X115.510 Y61.603 E32.6689
G1 X117.059 Y62.071 E32.7497
G1 X118.001 Y62.847 E32.8105
G1 X118.542 Y62.049 E32.8586
G1 X119.994 Y60.884 E32.9515
G1 X121.561 Y60.200 E33.0368
G1 X122.557 Y60.070 E33.0869
G1 X122.421 Y59.307 E33.1256
G1 X122.807 Y57.686 E33.2087
G1 X123.703 Y56.454 E33.2847
G1 X124.991 Y55.639 E33.3608
G1 X126.989 Y55.405 E33.4611
G1 X128.541 Y56.001 E33.5441
G1 X129.563 Y55.464 E33.6017
G1 X131.554 Y55.394 E33.7011
G1 X132.579 Y55.783 E33.7558
G1 X133.470 Y56.451 E33.8113
G1 X134.423 Y57.959 E33.9003
G1 X134.672 Y59.241 E33.9655
G1 X134.556 Y59.905 E33.9991
G1 X136.032 Y59.915 E34.0728
G1 X138.124 Y60.369 E34.1795
G1 X139.278 Y60.939 E34.2438
G1 X140.452 Y61.867 E34.3184
G1 X141.409 Y63.053 E34.3945
G1 X142.149 Y64.657 E34.4826
G1 X142.450 Y66.358 E34.5688
G1 X142.475 Y74.743 E34.9871
G1 X143.609 Y74.727 E35.0437
G1 X145.822 Y75.708 E35.1644
G1 X146.868 Y77.048 E35.2493
G1 X147.241 Y78.728 E35.3351
G1 X146.722 Y80.578 E35.4310
G1 X147.074 Y81.226 E35.4678
G1 X147.231 Y82.774 E35.5454
G1 X146.805 Y84.221 E35.6206
G1 X145.948 Y85.340 E35.6910
G1 X144.987 Y85.985 E35.7487
G1 X143.267 Y86.427 E35.8373
G1 X142.526 Y86.326 E35.8746
G1 X142.361 Y96.046 E36.3596
G1 X141.736 Y97.948 E36.4595
G1 X140.639 Y99.522 E36.5552
G1 X139.149 Y100.727 E36.6508
G1 X137.537 Y101.417 E36.7383
G1 X135.497 Y101.577 E36.8404
G1 X135.626 Y102.463 E36.8851
G1 X135.342 Y103.788 E36.9527
G1 X134.544 Y105.035 E37.0265
G1 X133.296 Y105.945 E37.1036
G1 X131.150 Y106.317 E37.2122
G1 X130.022 Y106.019 E37.2705
G1 X129.175 Y105.444 E37.3215
G1 X127.936 Y106.121 E37.3920
G1 X126.160 Y106.246 E37.4808
G1 X125.097 Y105.911 E37.5364
G1 X124.158 Y105.294 E37.5924
G1 X123.177 Y103.968 E37.6747
G1 X122.798 Y102.141 E37.7678
G1 X122.885 Y101.595 E37.7954
G1 X121.964 Y101.494 E37.8416
G1 X119.798 Y100.577 E37.9590
G1 X118.252 Y99.201 E38.0622
G1 X117.549 Y97.981 E38.1325
G1 X117.099 Y98.176 E38.1570
G1 X115.926 Y98.306 E38.2158
G1 X114.167 Y97.852 E38.3065
G1 X112.970 Y96.938 E38.3816
G1 X112.160 Y95.617 E38.4589
G1 X111.927 Y93.818 E38.5494
G1 X112.182 Y92.797 E38.6019
G1 X112.505 Y92.284 E38.6322
G1 X111.978 Y91.162 E38.6940
G1 X111.929 Y89.961 E38.7540
G1 X112.368 Y88.536 E38.8284
G1 X113.314 Y87.357 E38.9038
G1 X114.781 Y86.553 E38.9872
G1 X116.557 Y86.362 E39.0764
G1 X116.684 Y75.905 E39.5981
G1 X115.389 Y76.336 E39.6662
G1 X113.553 Y76.110 E39.7585
G1 X112.097 Y75.206 E39.8440
G1 X111.096 Y73.760 E39.9317
G1 X110.770 Y71.793 E40.0312
G1 X111.219 Y70.227 E40.1125
G1 X111.969 Y69.277 E40.1729
G1 X112.000 Y68.607 E40.2063
G1 X111.117 Y67.275 E40.2860
G1 X110.867 Y65.416 E40.3796
G1 X111.381 Y63.743 E40.4669
G0 F3900 X111.693 Y63.993
G1 F900 X112.567 Y62.903 E40.5366
G1 X113.533 Y62.295 E40.5936
G1 X115.394 Y61.986 E40.6877
G1 X116.943 Y62.454 E40.7684
G1 X118.085 Y63.451 E40.8441
G1 X118.795 Y62.359 E40.9091
G1 X120.154 Y61.251 E40.9965
G1 X121.721 Y60.567 E41.0818
G1 X123.047 Y60.416 E41.1484
G1 X122.812 Y59.392 E41.2008
G1 X123.130 Y57.921 E41.2759
G1 X124.026 Y56.689 E41.3519
G1 X125.198 Y55.981 E41.4202
G1 X127.028 Y55.803 E41.5120
G1 X128.056 Y56.138 E41.5659
G1 X128.514 Y56.478 E41.5944
G1 X129.583 Y55.863 E41.6559
G1 X131.417 Y55.770 E41.7475
G1 X132.347 Y56.109 E41.7969
G1 X133.135 Y56.670 E41.8451
G1 X134.030 Y58.035 E41.9266
G1 X134.279 Y59.317 E41.9917
G1 X134.056 Y60.302 E42.0421
G1 X136.029 Y60.315 E42.1406
G1 X138.037 Y60.760 E42.2432
G1 X139.097 Y61.296 E42.3024
G1 X140.202 Y62.179 E42.3730
G1 X141.096 Y63.302 E42.4446
G1 X141.785 Y64.822 E42.5279
G1 X142.056 Y66.425 E42.6090
G1 X142.076 Y75.163 E43.0449
G1 X143.447 Y75.093 E43.1134
G1 X145.660 Y76.074 E43.2342
G1 X146.545 Y77.284 E43.3090
G1 X146.850 Y78.644 E43.3785
G1 X146.530 Y80.135 E43.4546
G1 X146.251 Y80.573 E43.4805
G1 X146.677 Y81.275 E43.5215
G1 X146.847 Y82.661 E43.5911
G1 X146.421 Y84.108 E43.6664
G1 X145.718 Y85.013 E43.7236
G1 X144.887 Y85.598 E43.7743
G1 X143.167 Y86.040 E43.8629
G1 X142.134 Y85.844 E43.9153
G1 X141.961 Y96.039 E44.4240
G1 X141.357 Y97.819 E44.5178
G1 X140.313 Y99.291 E44.6078
G1 X138.992 Y100.359 E44.6926
G1 X137.380 Y101.049 E44.7801
G1 X135.026 Y101.208 E44.8978
G1 X135.233 Y102.387 E44.9575
G1 X135.005 Y103.572 E45.0177
G1 X134.207 Y104.819 E45.0915
G1 X133.067 Y105.617 E45.1610
G1 X131.252 Y105.930 E45.2529
G1 X130.124 Y105.632 E45.3111
G1 X129.197 Y104.968 E45.3680
G1 X127.901 Y105.723 E45.4428
G1 X126.280 Y105.864 E45.5240
G1 X125.217 Y105.529 E45.5796
G1 X124.382 Y104.963 E45.6299
G1 X123.502 Y103.735 E45.7053
G1 X123.191 Y102.068 E45.7899
G1 X123.374 Y101.238 E45.8323
G1 X122.116 Y101.124 E45.8953
G1 X120.064 Y100.278 E46.0060
G1 X118.518 Y98.902 E46.1093
G1 X117.715 Y97.454 E46.1919
G1 X117.055 Y97.778 E46.2286
G1 X115.882 Y97.908 E46.2874
G1 X114.403 Y97.529 E46.3636
G1 X113.311 Y96.729 E46.4312
G1 X112.501 Y95.408 E46.5085
G1 X112.315 Y93.915 E46.5835
G1 X112.570 Y92.894 E46.6360
G1 X112.970 Y92.316 E46.6711
G1 X112.378 Y91.146 E46.7365
