;Sliced by ideaMaker 5.2.4.8581, 2025-06-09 14:21:42 UTC+0200
;Slicer Version: 5.2.3.8580
;Dimension: 250.000 250.000 250.000 0.400
;Plate Shape: 0
;Origin Center: 0
;Extruder Offset #1: 25.000 0.000
;Filament Diameter #1: 1.750
;Filament Diameter #2: 1.750
;Filament Compensation #1: 94.000
;Filament Compensation #2: 90.000
;Filament Density #1: 1240.000
;Filament Density #2: 1240.000
;Filament Type #1: PLA
;Filament Type #2: PLA
;Filament Name #1: [Raise3D] Premium PLA 1.75mm
;Filament Name #2: [Raise3D] Premium PLA 1.75mm
;Filament #1: PLA 1.75mm
;Filament #2: PLA 1.75mm
;Printer Type: floppy
;Firmware: Klipper
;Bounding Box: 100.710 149.295 98.364 151.664 0.000 10.500
;Model Gap: 0.000
M221 T0 S94.00
M140 S50.00
M104 T0 S190.00
M109 T0 S190.00
T0
M190 S50.00
G21 ;metric values
G90 ;absolute positioning
M82 ;set extruder to absolute mode
M107 ;start with the fan off
G28 X0 Y0 ;move X/Y to min endstops
G28 Z0 ;move Z to min endstops
G1 Z15.0 F9000 ;move the platform down 15mm
G92 E0 ;zero the extruded length
G0 X43 Y27 F2000  ;go to the edge of the bed
G92 X0 Y0 E0 ;set zero to edge of the bed
G0 F9000 Z1 ;Z up with 1mm
G1 F200 Z0 ;Z home slowly
G1 Z15.0 F9000 ;move the platform down 15mm
G1 F9000 ;speed setting
G92 E-3 ;retraction
M117 Printing...
M1001
;TOTAL_NUM: 1
;PRINTING_TIME: 0
;REMAINING_TIME: 1842
;LAYER:0
;Z:0.300
;HEIGHT:0.300
;PRINTING: NON-OBJECT
;PRINTING_ID: -1
G1 F2400 E-3.0000
G0 F3900 X104.326 Y108.949
G0 F300 Z0.300
;TYPE:SKIRT
;WIDTH:0.400
G1 F1500 E0.0000
G1 F900 X106.477 Y107.781 E0.1221
G1 X108.319 Y107.310 E0.2170
G1 X110.510 Y107.270 E0.3263
G1 X113.951 Y107.993 E0.5017
G1 X115.074 Y107.659 E0.5602
G1 X115.877 Y106.791 E0.6192
G1 X116.891 Y103.574 E0.7874
G1 X118.720 Y100.905 E0.9489
G1 X119.870 Y99.950 E1.0234
G1 X121.667 Y98.976 E1.1254
G1 X125.820 Y98.364 E1.3349
G1 X127.460 Y98.674 E1.4181
G1 X128.881 Y99.214 E1.4940
G1 X131.499 Y101.164 E1.6568
G1 X133.250 Y103.915 E1.8195
G1 X134.129 Y106.798 E1.9699
G1 X134.922 Y107.655 E2.0281
G1 X136.083 Y107.998 E2.0885
G1 X139.399 Y107.271 E2.2579
G1 X142.157 Y107.403 E2.3957
G1 X145.129 Y108.580 E2.5551
G1 X146.498 Y109.638 E2.6414
G1 X147.749 Y111.089 E2.7370
G1 X149.155 Y114.555 E2.9236
G1 X149.291 Y116.242 E3.0081
G1 X149.062 Y118.141 E3.1035
G1 X147.718 Y121.151 E3.2680
G1 X145.262 Y123.898 E3.4518
G1 X144.992 Y124.999 E3.5084
G1 X145.261 Y126.101 E3.5649
G1 X147.622 Y128.702 E3.7402
G1 X148.573 Y130.397 E3.8372
G1 X149.295 Y134.102 E4.0255
G1 X148.975 Y136.247 E4.1337
G1 X148.125 Y138.257 E4.2426
G1 X147.566 Y139.143 E4.2948
G1 X145.412 Y141.244 E4.4449
G1 X143.648 Y142.165 E4.5442
G1 X141.608 Y142.695 E4.6494
G1 X139.447 Y142.732 E4.7572
G1 X136.022 Y141.998 E4.9320
G1 X134.948 Y142.345 E4.9883
G1 X134.145 Y143.167 E5.0456
G1 X133.204 Y146.191 E5.2036
G1 X131.385 Y148.966 E5.3691
G1 X130.084 Y150.076 E5.4545
G1 X128.764 Y150.840 E5.5306
G1 X124.945 Y151.664 E5.7255
G1 X121.640 Y151.009 E5.8936
G1 X120.145 Y150.227 E5.9777
G1 X118.657 Y149.021 E6.0733
G1 X116.838 Y146.321 E6.2357
G1 X115.848 Y143.143 E6.4018
G1 X115.079 Y142.359 E6.4566
G1 X113.962 Y141.990 E6.5153
G1 X110.615 Y142.723 E6.6862
G1 X107.605 Y142.566 E6.8366
G1 X106.199 Y142.107 E6.9104
G1 X104.406 Y141.102 E7.0129
G1 X101.998 Y138.504 E7.1896
G1 X101.251 Y136.952 E7.2756
G1 X100.771 Y134.934 E7.3791
G1 X101.008 Y131.637 E7.5440
G1 X102.415 Y128.662 E7.7082
G1 X104.697 Y126.152 E7.8774
G1 X105.011 Y125.026 E7.9357
G1 X104.728 Y123.877 E7.9948
G1 X102.606 Y121.607 E8.1498
G1 X101.666 Y120.125 E8.2373
G1 X100.954 Y118.176 E8.3409
G1 X100.710 Y116.096 E8.4453
G1 X101.545 Y112.319 E8.6383
G1 X102.601 Y110.624 E8.7380
G1 X104.326 Y108.949 E8.8579
G0 F3900 X104.517 Y109.301
G1 F900 X106.668 Y108.133 E8.9800
G1 X108.416 Y107.698 E9.0699
G1 X110.515 Y107.670 E9.1746
G1 X113.967 Y108.405 E9.3507
G1 X115.295 Y108.010 E9.4198
G1 X116.232 Y106.997 E9.4887
G1 X117.222 Y103.799 E9.6557
G1 X118.976 Y101.213 E9.8116
G1 X120.126 Y100.258 E9.8862
G1 X121.856 Y99.328 E9.9842
G1 X125.746 Y98.757 E10.1803
G1 X127.386 Y99.067 E10.2636
G1 X128.737 Y99.587 E10.3358
G1 X131.259 Y101.484 E10.4932
G1 X132.911 Y104.127 E10.6487
G1 X133.773 Y107.003 E10.7985
G1 X134.702 Y108.008 E10.8668
G1 X136.068 Y108.411 E10.9379
G1 X139.485 Y107.662 E11.1124
G1 X142.012 Y107.776 E11.2386
G1 X144.884 Y108.896 E11.3924
G1 X146.253 Y109.954 E11.4787
G1 X147.445 Y111.349 E11.5702
G1 X148.756 Y114.587 E11.7445
G1 X148.892 Y116.274 E11.8290
G1 X148.665 Y118.091 E11.9203
G1 X147.354 Y120.986 E12.0789
G1 X144.897 Y123.705 E12.2617
G1 X144.580 Y124.999 E12.3282
G1 X144.896 Y126.294 E12.3947
G1 X147.326 Y128.971 E12.5750
G1 X148.223 Y130.591 E12.6674
G1 X148.899 Y134.045 E12.8430
G1 X148.607 Y136.091 E12.9461
G1 X147.757 Y138.101 E13.0550
G1 X147.229 Y138.928 E13.1040
G1 X145.227 Y140.889 E13.2438
G1 X143.463 Y141.810 E13.3431
G1 X141.509 Y142.307 E13.4436
G1 X139.442 Y142.332 E13.5468
G1 X136.001 Y141.584 E13.7225
G1 X134.731 Y141.994 E13.7890
G1 X133.790 Y142.957 E13.8562
G1 X132.868 Y145.973 E14.0135
G1 X131.125 Y148.662 E14.1734
G1 X129.824 Y149.772 E14.2587
G1 X128.565 Y150.493 E14.3311
G1 X125.021 Y151.271 E14.5121
G1 X121.825 Y150.655 E14.6745
G1 X120.330 Y149.873 E14.7587
G1 X118.910 Y148.711 E14.8502
G1 X117.171 Y146.099 E15.0068
G1 X116.203 Y142.934 E15.1719
G1 X115.295 Y142.009 E15.2366
G1 X113.983 Y141.576 E15.3055
G1 X110.529 Y142.332 E15.4819
G1 X107.729 Y142.186 E15.6218
G1 X106.323 Y141.727 E15.6956
G1 X104.603 Y140.754 E15.7942
G1 X102.358 Y138.331 E15.9590
G1 X101.611 Y136.779 E16.0449
G1 X101.161 Y134.843 E16.1441
G1 X101.407 Y131.668 E16.3029
G1 X102.775 Y128.836 E16.4599
G1 X105.056 Y126.354 E16.6280
G1 X105.424 Y125.032 E16.6965
G1 X105.091 Y123.680 E16.7660
G1 X102.898 Y121.334 E16.9262
G1 X102.005 Y119.912 E17.0099
G1 X101.330 Y118.040 E17.1092
G1 X101.108 Y116.052 E17.2090
G1 X101.885 Y112.531 E17.3889
G1 X102.941 Y110.836 E17.4885
G1 X104.517 Y109.301 E17.5983
G0 F3900 X104.708 Y109.653
G1 F900 X106.859 Y108.485 E17.7204
G1 X108.510 Y108.087 E17.8052
G1 X110.518 Y108.070 E17.9053
G1 X113.982 Y108.817 E18.0821
G1 X115.516 Y108.361 E18.1620
G1 X116.588 Y107.202 E18.2407
G1 X117.554 Y104.022 E18.4065
G1 X119.232 Y101.521 E18.5568
G1 X120.382 Y100.566 E18.6314
G1 X122.044 Y99.681 E18.7253
G1 X125.672 Y99.150 E18.9082
G1 X127.312 Y99.460 E18.9915
G1 X128.591 Y99.960 E19.0600
G1 X131.017 Y101.803 E19.2120
G1 X132.570 Y104.336 E19.3603
G1 X133.416 Y107.207 E19.5096
G1 X134.483 Y108.361 E19.5880
G1 X136.054 Y108.824 E19.6697
G1 X139.571 Y108.053 E19.8493
G1 X141.869 Y108.149 E19.9641
G1 X144.639 Y109.212 E20.1121
G1 X146.008 Y110.270 E20.1984
G1 X147.140 Y111.607 E20.2858
G1 X148.357 Y114.619 E20.4479
G1 X148.493 Y116.306 E20.5323
G1 X148.268 Y118.040 E20.6196
G1 X147.057 Y120.718 E20.7662
G1 X144.532 Y123.512 E20.9541
G1 X144.168 Y124.999 E21.0305
G1 X144.531 Y126.487 E21.1069
G1 X147.030 Y129.240 E21.2924
G1 X147.872 Y130.783 E21.3801
G1 X148.503 Y133.988 E21.5430
G1 X148.211 Y136.034 E21.6461
G1 X147.390 Y137.943 E21.7498
G1 X146.893 Y138.711 E21.7955
G1 X145.042 Y140.534 E21.9251
G1 X143.278 Y141.455 E22.0243
G1 X141.412 Y141.919 E22.1203
G1 X139.439 Y141.932 E22.2187
G1 X135.981 Y141.170 E22.3954
G1 X134.515 Y141.643 E22.4722
G1 X133.435 Y142.749 E22.5493
G1 X132.531 Y145.757 E22.7060
G1 X130.865 Y148.358 E22.8602
G1 X129.564 Y149.468 E22.9455
G1 X128.368 Y150.145 E23.0140
G1 X125.095 Y150.878 E23.1814
G1 X122.010 Y150.301 E23.3380
G1 X120.515 Y149.519 E23.4221
G1 X119.165 Y148.403 E23.5095
G1 X117.554 Y145.982 E23.6546
G1 X116.558 Y142.725 E23.8245
G1 X115.511 Y141.659 E23.8991
G1 X114.037 Y141.172 E23.9765
G1 X113.424 Y141.202 E24.0071
G1 X110.548 Y141.932 E24.1552
G1 X107.853 Y141.806 E24.2898
G1 X106.447 Y141.347 E24.3635
G1 X104.801 Y140.407 E24.4581
G1 X102.653 Y138.061 E24.6168
G1 X101.973 Y136.609 E24.6968
G1 X101.551 Y134.754 E24.7917
G1 X101.806 Y131.701 E24.9446
G1 X103.134 Y129.013 E25.0941
G1 X105.415 Y126.555 E25.2614
G1 X105.837 Y125.038 E25.3400
G1 X105.454 Y123.483 E25.4199
G1 X103.190 Y121.061 E25.5853
G1 X102.345 Y119.701 E25.6652
G1 X101.707 Y117.906 E25.7602
G1 X101.506 Y116.010 E25.8553
G1 X102.225 Y112.743 E26.0222
G1 X103.281 Y111.048 E26.1219
G1 X104.708 Y109.653 E26.2214
G0 F3900 X104.899 Y110.005
G1 F900 X107.050 Y108.837 E26.3435
G1 X108.600 Y108.477 E26.4229
G1 X110.519 Y108.470 E26.5187
G1 X113.979 Y109.226 E26.6954
G1 X115.153 Y108.985 E26.7551
G1 X115.729 Y108.702 E26.7872
G1 X116.236 Y108.309 E26.8192
G1 X116.950 Y107.388 E26.8773
G1 X117.937 Y104.138 E27.0468
G1 X119.488 Y101.829 E27.1855
G1 X120.638 Y100.874 E27.2601
G1 X122.230 Y100.035 E27.3499
G1 X125.598 Y99.543 E27.5197
G1 X127.238 Y99.853 E27.6030
G1 X128.443 Y100.332 E27.6677
G1 X130.774 Y102.120 E27.8142
G1 X132.227 Y104.542 E27.9551
G1 X133.053 Y107.392 E28.1032
G1 X133.763 Y108.309 E28.1610
G1 X134.270 Y108.702 E28.1930
G1 X134.846 Y108.985 E28.2251
G1 X136.021 Y109.226 E28.2849
G1 X136.653 Y109.194 E28.3165
G1 X139.668 Y108.441 E28.4715
G1 X141.728 Y108.523 E28.5744
G1 X144.394 Y109.528 E28.7165
G1 X145.763 Y110.586 E28.8028
G1 X146.833 Y111.864 E28.8860
G1 X147.958 Y114.651 E29.0359
G1 X148.094 Y116.338 E29.1204
G1 X147.872 Y117.987 E29.2034
G1 X146.760 Y120.450 E29.3382
G1 X144.190 Y123.294 E29.5294
G1 X143.927 Y123.911 E29.5629
G1 X143.763 Y124.997 E29.6177
G1 X143.934 Y126.109 E29.6738
G1 X144.191 Y126.707 E29.7063
G1 X146.734 Y129.509 E29.8951
G1 X147.520 Y130.972 E29.9779
G1 X148.107 Y133.934 E30.1286
G1 X147.844 Y135.876 E30.2264
G1 X147.023 Y137.785 E30.3300
G1 X146.559 Y138.492 E30.3722
G1 X144.857 Y140.179 E30.4918
G1 X143.093 Y141.100 E30.5911
G1 X141.318 Y141.530 E30.6822
G1 X139.538 Y141.544 E30.7710
G1 X136.649 Y140.805 E30.9198
G1 X135.958 Y140.769 E30.9543
G1 X135.285 Y140.876 E30.9883
G1 X134.284 Y141.307 E31.0427
G1 X133.079 Y142.542 E31.1287
G1 X132.193 Y145.543 E31.2848
G1 X130.605 Y148.054 E31.4331
G1 X129.304 Y149.164 E31.5184
G1 X128.173 Y149.796 E31.5830
G1 X125.166 Y150.484 E31.7369
G1 X122.195 Y149.947 E31.8876
G1 X120.700 Y149.165 E31.9717
G1 X119.422 Y148.096 E32.0548
G1 X117.937 Y145.865 E32.1886
G1 X116.923 Y142.549 E32.3616
G1 X116.554 Y142.024 E32.3936
G1 X115.723 Y141.314 E32.4481
G1 X114.679 Y140.866 E32.5048
G1 X114.054 Y140.770 E32.5363
G1 X113.366 Y140.804 E32.5707
G1 X110.564 Y141.532 E32.7151
G1 X107.977 Y141.426 E32.8443
G1 X106.571 Y140.967 E32.9181
G1 X105.001 Y140.061 E33.0085
G1 X103.015 Y137.891 E33.1553
G1 X102.335 Y136.439 E33.2353
G1 X101.942 Y134.667 E33.3258
G1 X102.204 Y131.737 E33.4726
G1 X103.427 Y129.285 E33.6093
G1 X105.774 Y126.756 E33.7814
G1 X106.245 Y125.062 E33.8691
G1 X106.065 Y123.891 E33.9282
G1 X105.808 Y123.292 E33.9608
G1 X105.400 Y122.705 E33.9964
G1 X103.473 Y120.778 E34.1324
G1 X102.686 Y119.492 E34.2076
G1 X102.085 Y117.774 E34.2984
G1 X101.904 Y115.970 E34.3889
G1 X102.565 Y112.955 E34.5429
G1 X103.621 Y111.260 E34.6425
G1 X104.899 Y110.005 E34.7319
G0 F3900 X105.090 Y110.357
G1 F900 X107.241 Y109.189 E34.8540
G1 X108.687 Y108.867 E34.9279
G1 X110.420 Y108.858 E35.0143
G1 X113.303 Y109.591 E35.1628
G1 X114.012 Y109.628 E35.1982
G1 X115.282 Y109.367 E35.2629
G1 X115.942 Y109.043 E35.2995
G1 X116.521 Y108.594 E35.3361
G1 X117.312 Y107.574 E35.4005
G1 X118.320 Y104.254 E35.5736
G1 X119.744 Y102.137 E35.7009
G1 X120.894 Y101.182 E35.7755
G1 X122.415 Y100.390 E35.8610
G1 X125.524 Y99.936 E36.0178
G1 X127.164 Y100.246 E36.1010
G1 X128.293 Y100.703 E36.1618
G1 X130.529 Y102.436 E36.3029
G1 X131.843 Y104.653 E36.4315
G1 X132.690 Y107.577 E36.5834
G1 X133.478 Y108.594 E36.6476
G1 X134.057 Y109.043 E36.6841
G1 X134.717 Y109.367 E36.7208
G1 X135.987 Y109.628 E36.7855
G1 X136.714 Y109.591 E36.8218
G1 X139.765 Y108.829 E36.9787
G1 X141.589 Y108.898 E37.0698
G1 X144.149 Y109.844 E37.2059
G1 X145.518 Y110.902 E37.2922
G1 X146.525 Y112.119 E37.3710
G1 X147.559 Y114.683 E37.5090
G1 X147.695 Y116.370 E37.5934
G1 X147.476 Y117.931 E37.6721
G1 X146.472 Y120.173 E37.7946
G1 X144.304 Y122.428 E37.9507
G1 X143.838 Y123.099 E37.9914
G1 X143.538 Y123.803 E38.0296
G1 X143.358 Y124.995 E38.0898
G1 X143.547 Y126.223 E38.1517
G1 X143.837 Y126.898 E38.1884
G1 X144.306 Y127.573 E38.2294
G1 X146.446 Y129.787 E38.3830
G1 X147.166 Y131.158 E38.4603
G1 X147.710 Y133.884 E38.5990
G1 X147.477 Y135.718 E38.6912
G1 X146.656 Y137.627 E38.7949
G1 X146.226 Y138.270 E38.8335
G1 X144.672 Y139.824 E38.9431
G1 X142.908 Y140.745 E39.0424
G1 X141.226 Y141.141 E39.1286
G1 X139.637 Y141.156 E39.2079
G1 X136.714 Y140.408 E39.3584
G1 X135.934 Y140.368 E39.3974
G1 X135.174 Y140.489 E39.4358
G1 X134.069 Y140.965 E39.4958
G1 X133.124 Y141.777 E39.5580
G1 X132.713 Y142.367 E39.5938
G1 X131.809 Y145.430 E39.7532
G1 X130.345 Y147.750 E39.8900
G1 X129.044 Y148.860 E39.9753
G1 X127.980 Y149.446 E40.0359
G1 X125.235 Y150.090 E40.1766
G1 X122.380 Y149.593 E40.3212
G1 X120.885 Y148.811 E40.4054
G1 X119.680 Y147.791 E40.4841
G1 X118.320 Y145.748 E40.6066
G1 X117.288 Y142.373 E40.7826
G1 X116.851 Y141.752 E40.8205
G1 X115.935 Y140.969 E40.8806
G1 X114.793 Y140.479 E40.9426
G1 X114.071 Y140.368 E40.9791
G1 X113.304 Y140.406 E41.0174
G1 X110.578 Y141.132 E41.1581
G1 X108.101 Y141.046 E41.2818
G1 X106.695 Y140.587 E41.3556
G1 X105.203 Y139.716 E41.4418
G1 X103.312 Y137.623 E41.5825
G1 X102.699 Y136.274 E41.6564
G1 X102.333 Y134.582 E41.7428
G1 X102.602 Y131.775 E41.8835
G1 X103.783 Y129.467 E42.0128
G1 X105.705 Y127.555 E42.1481
G1 X106.131 Y126.943 E42.1853
G1 X106.578 Y125.733 E42.2496
G1 X106.648 Y125.054 E42.2837
G1 X106.452 Y123.777 E42.3481
G1 X106.162 Y123.101 E42.3848
G1 X105.705 Y122.444 E42.4248
G1 X103.756 Y120.495 E42.5623
G1 X103.029 Y119.286 E42.6327
G1 X102.463 Y117.644 E42.7193
G1 X102.302 Y115.933 E42.8051
G1 X102.905 Y113.167 E42.9463
G1 X103.961 Y111.472 E43.0459
G1 X105.090 Y110.357 E43.1251
;PRINTING: Perlator_Tap_filter_Tool.stl
;PRINTING_ID: 0
G1 F2400 E40.1251
G0 F3900 X120.513 Y105.236
;TYPE:WALL-OUTER
;WIDTH:0.400
G1 F1500 E43.1251
G1 F2400 X121.486 Y103.790 E43.2120
G1 X122.379 Y103.066 E43.2694
G1 X123.424 Y102.569 E43.3271
G1 X125.190 Y102.313 E43.4162
G1 X126.294 Y102.481 E43.4719
G1 X127.362 Y102.914 E43.5294
G1 X128.713 Y104.010 E43.6162
G1 X129.598 Y105.508 E43.7030
G1 X130.097 Y107.623 E43.8114
G1 X130.602 Y108.800 E43.8753
G1 X131.767 Y110.306 E43.9703
G1 X132.783 Y111.092 E44.0343
G1 X133.936 Y111.657 E44.0984
G1 X135.801 Y112.040 E44.1934
G1 X137.083 Y111.975 E44.2574
G1 X139.975 Y111.221 E44.4065
G1 X141.124 Y111.254 E44.4639
G1 X142.773 Y111.812 E44.5507
G1 X143.715 Y112.487 E44.6086
G1 X144.469 Y113.363 E44.6662
G1 X145.179 Y114.997 E44.7551
G1 X145.308 Y116.105 E44.8108
G1 X145.171 Y117.253 E44.8684
G1 X144.471 Y118.844 E44.9552
G1 X142.455 Y120.886 E45.0983
G1 X141.726 Y121.933 E45.1620
G1 X141.210 Y123.150 E45.2279
G1 X140.931 Y125.000 E45.3213
G1 X141.220 Y126.886 E45.4164
G1 X141.726 Y128.067 E45.4805
G1 X142.455 Y129.113 E45.5442
G1 X144.476 Y131.161 E45.6877
G1 X145.011 Y132.216 E45.7467
G1 X145.308 Y133.897 E45.8319
G1 X145.171 Y135.041 E45.8894
G1 X144.470 Y136.632 E45.9761
G1 X143.258 Y137.881 E46.0629
G1 X142.247 Y138.438 E46.1205
G1 X141.128 Y138.745 E46.1784
G1 X139.975 Y138.778 E46.2360
G1 X137.083 Y138.024 E46.3851
G1 X135.805 Y137.959 E46.4489
G1 X134.499 Y138.165 E46.5149
G1 X132.782 Y138.906 E46.6082
G1 X131.333 Y140.150 E46.7034
G1 X130.600 Y141.203 E46.7675
G1 X130.097 Y142.376 E46.8311
G1 X129.598 Y144.491 E46.9395
G1 X128.711 Y145.993 E47.0266
G1 X127.858 Y146.773 E47.0842
G1 X126.849 Y147.329 E47.1417
G1 X125.146 Y147.687 E47.2285
G1 X123.384 Y147.415 E47.3175
G1 X122.382 Y146.936 E47.3729
G1 X121.486 Y146.209 E47.4304
G1 X120.513 Y144.763 E47.5174
G1 X119.901 Y142.374 E47.6404
G1 X119.399 Y141.203 E47.7040
G1 X118.638 Y140.121 E47.7700
G1 X117.217 Y138.906 E47.8633
G1 X115.462 Y138.153 E47.9585
G1 X114.193 Y137.959 E48.0226
G1 X112.915 Y138.024 E48.0864
G1 X110.325 Y138.743 E48.2205
G1 X108.576 Y138.691 E48.3078
G1 X107.487 Y138.322 E48.3652
G1 X106.510 Y137.705 E48.4229
G1 X105.369 Y136.383 E48.5100
G1 X104.904 Y135.326 E48.5676
G1 X104.700 Y134.191 E48.6251
G1 X104.906 Y132.460 E48.7121
