;Sliced by ideaMaker 5.2.3.8580, 2025-05-12 18:01:35 UTC+0200
;Slicer Version: 5.2.3.8580
;Dimension: 250.000 250.000 250.000 0.400
;Plate Shape: 0
;Origin Center: 0
;Extruder Offset #1: 25.000 0.000
;Filament Diameter #1: 1.750
;Filament Diameter #2: 1.750
;Filament Compensation #1: 94.000
;Filament Compensation #2: 90.000
;Filament Density #1: 1240.000
;Filament Density #2: 1240.000
;Filament Type #1: PLA
;Filament Type #2: PLA
;Filament Name #1: [Raise3D] Premium PLA 1.75mm
;Filament Name #2: [Raise3D] Premium PLA 1.75mm
;Filament #1: PLA 1.75mm
;Filament #2: PLA 1.75mm
;Printer Type: floppy
;Firmware: Klipper
;Bounding Box: 81.140 167.212 88.935 161.938 0.000 60.000
;Model Gap: 0.000
M221 T0 S94.00
M140 S50.00
M104 T0 S190.00
M109 T0 S190.00
T0
M190 S50.00
G21 ;metric values
G90 ;absolute positioning
M82 ;set extruder to absolute mode
M107 ;start with the fan off
G28 X0 Y0 ;move X/Y to min endstops
G28 Z0 ;move Z to min endstops
G1 Z15.0 F9000 ;move the platform down 15mm
G92 E0 ;zero the extruded length
G0 X43 Y27 F2000  ;go to the edge of the bed
G92 X0 Y0 E0 ;set zero to edge of the bed
G0 F9000 Z1 ;Z up with 1mm
G1 F200 Z0 ;Z home slowly
G1 Z15.0 F9000 ;move the platform down 15mm
G1 F9000 ;speed setting
G92 E-3 ;retraction
M117 Printing...
M1001
;TOTAL_NUM: 1
;PRINTING_TIME: 0
;REMAINING_TIME: 12621
;LAYER:0
;Z:0.300
;HEIGHT:0.300
;PRINTING: NON-OBJECT
;PRINTING_ID: -1
G1 F2400 E-3.0000
G0 F3900 X112.700 Y92.923
G0 F300 Z0.300
;TYPE:SKIRT
;WIDTH:0.400
G1 F1500 E0.0000
G1 F900 X114.127 Y91.335 E0.1065
G1 X116.019 Y90.015 E0.2216
G1 X118.444 Y89.128 E0.3504
G1 X121.414 Y88.935 E0.4989
G1 X123.857 Y89.492 E0.6239
G1 X126.166 Y90.736 E0.7548
G1 X128.168 Y92.699 E0.8947
G1 X129.435 Y94.950 E1.0235
G1 X145.867 Y153.931 E4.0782
G1 X156.289 Y151.042 E4.6177
G1 X155.138 Y146.709 E4.8414
G1 X155.270 Y145.782 E4.8881
G1 X156.658 Y144.747 E4.9745
G1 X159.749 Y145.012 E5.1293
G1 X161.964 Y146.087 E5.2521
G1 X163.152 Y147.240 E5.3347
G1 X164.005 Y148.645 E5.4167
G1 X167.212 Y159.834 E5.9974
G1 X166.942 Y161.186 E6.0662
G1 X166.269 Y161.938 E6.1165
G1 X141.475 Y161.460 E7.3537
G1 X139.986 Y160.588 E7.4398
G1 X122.834 Y99.040 E10.6275
G1 X122.403 Y98.079 E10.6800
G1 X121.812 Y97.412 E10.7245
G1 X121.039 Y96.943 E10.7696
G1 X120.176 Y96.731 E10.8139
G1 X119.283 Y96.783 E10.8586
G1 X118.404 Y97.117 E10.9055
G1 X117.270 Y98.248 E10.9854
G1 X88.616 Y144.552 E13.7020
G1 X87.827 Y146.623 E13.8126
G1 X87.846 Y148.424 E13.9025
G1 X88.412 Y150.058 E13.9887
G1 X89.462 Y151.423 E14.0746
G1 X90.932 Y152.409 E14.1630
G1 X92.138 Y152.797 E14.2262
G1 X113.347 Y153.566 E15.2850
G1 X114.268 Y154.318 E15.3443
G1 X114.604 Y155.164 E15.3897
G1 X114.339 Y159.652 E15.6140
G1 X112.857 Y160.568 E15.7009
G1 X93.362 Y160.116 E16.6738
G1 X91.084 Y159.836 E16.7883
G1 X88.733 Y159.088 E16.9114
G1 X86.568 Y157.894 E17.0347
G1 X84.681 Y156.299 E17.1580
G1 X83.139 Y154.365 E17.2814
G1 X81.685 Y151.245 E17.4531
G1 X81.140 Y148.205 E17.6072
G1 X81.248 Y145.704 E17.7321
G1 X81.606 Y144.024 E17.8178
G1 X82.883 Y141.097 E17.9771
G1 X112.700 Y92.923 E20.8037
G0 F3900 X113.040 Y93.134
G1 F900 X114.424 Y91.603 E20.9066
G1 X116.159 Y90.390 E21.0122
G1 X118.472 Y89.527 E21.1354
G1 X121.327 Y89.326 E21.2782
G1 X123.669 Y89.845 E21.3979
G1 X125.886 Y91.022 E21.5231
G1 X127.888 Y92.985 E21.6630
G1 X129.085 Y95.144 E21.7862
G1 X145.589 Y154.423 E24.8561
G1 X156.777 Y151.321 E25.4353
G1 X155.525 Y146.606 E25.6787
G1 X155.613 Y145.988 E25.7098
G1 X156.754 Y145.135 E25.7809
G1 X159.577 Y145.373 E25.9222
G1 X161.688 Y146.376 E26.0388
G1 X162.812 Y147.451 E26.1164
G1 X163.620 Y148.755 E26.1930
G1 X166.827 Y159.944 E26.7737
G1 X166.553 Y161.093 E26.8326
G1 X166.106 Y161.573 E26.8653
G1 X141.483 Y161.060 E28.0940
G1 X140.310 Y160.353 E28.1624
G1 X123.210 Y98.900 E31.3448
G1 X122.743 Y97.859 E31.4017
G1 X122.073 Y97.102 E31.4521
G1 X121.195 Y96.570 E31.5033
G1 X120.212 Y96.329 E31.5538
G1 X119.197 Y96.388 E31.6045
G1 X118.214 Y96.761 E31.6570
G1 X117.704 Y97.121 E31.6881
G1 X116.948 Y98.009 E31.7463
G1 X88.264 Y144.362 E34.4659
G1 X87.622 Y145.755 E34.5424
G1 X87.427 Y146.580 E34.5847
G1 X87.447 Y148.493 E34.6801
G1 X88.055 Y150.250 E34.7729
G1 X89.185 Y151.719 E34.8653
G1 X90.756 Y152.773 E34.9597
G1 X92.069 Y153.195 E35.0285
G1 X113.178 Y153.929 E36.0823
G1 X113.904 Y154.484 E36.1279
G1 X114.205 Y155.143 E36.1640
G1 X113.979 Y159.477 E36.3806
G1 X112.866 Y160.168 E36.4459
G1 X93.371 Y159.716 E37.4188
G1 X91.133 Y159.439 E37.5313
G1 X88.855 Y158.707 E37.6507
G1 X86.762 Y157.544 E37.7701
G1 X84.940 Y155.994 E37.8895
G1 X83.453 Y154.117 E38.0089
G1 X82.079 Y151.174 E38.1710
G1 X81.534 Y148.134 E38.3251
G1 X81.648 Y145.723 E38.4455
G1 X81.997 Y144.108 E38.5279
G1 X83.249 Y141.258 E38.6832
G1 X113.040 Y93.134 E41.5069
G0 F3900 X113.380 Y93.345
G1 F900 X114.720 Y91.872 E41.6063
G1 X116.387 Y90.719 E41.7074
G1 X118.502 Y89.926 E41.8201
G1 X121.240 Y89.717 E41.9571
G1 X123.582 Y90.236 E42.0768
G1 X125.608 Y91.309 E42.1911
G1 X127.538 Y93.179 E42.3252
G1 X128.735 Y95.338 E42.4484
G1 X145.311 Y154.915 E45.5336
G1 X157.266 Y151.600 E46.1525
G1 X155.912 Y146.503 E46.4156
G1 X155.956 Y146.194 E46.4312
G1 X156.850 Y145.523 E46.4870
G1 X159.409 Y145.736 E46.6151
G1 X161.414 Y146.667 E46.7254
G1 X162.474 Y147.665 E46.7980
G1 X163.235 Y148.865 E46.8689
G1 X166.442 Y160.054 E47.4496
G1 X166.169 Y160.980 E47.4978
G1 X165.951 Y161.204 E47.5134
G1 X141.492 Y160.660 E48.7339
G1 X140.638 Y160.124 E48.7842
G1 X123.586 Y98.760 E51.9617
G1 X123.084 Y97.641 E52.0229
G1 X122.331 Y96.791 E52.0795
G1 X121.351 Y96.197 E52.1367
G1 X120.248 Y95.926 E52.1934
G1 X119.111 Y95.993 E52.2502
G1 X118.024 Y96.405 E52.3082
G1 X117.433 Y96.822 E52.3443
G1 X116.626 Y97.770 E52.4064
G1 X87.910 Y144.175 E55.1290
G1 X87.242 Y145.623 E55.2085
G1 X87.027 Y146.537 E55.2554
G1 X87.048 Y148.562 E55.3564
G1 X87.698 Y150.442 E55.4556
G1 X88.908 Y152.015 E55.5547
G1 X90.580 Y153.137 E55.6551
G1 X91.987 Y153.589 E55.7288
G1 X93.016 Y153.704 E55.7805
G1 X113.011 Y154.293 E56.7785
G1 X113.657 Y154.799 E56.8194
G1 X113.805 Y155.125 E56.8373
G1 X113.618 Y159.305 E57.0460
G1 X112.875 Y159.768 E57.0897
G1 X93.380 Y159.316 E58.0626
G1 X91.183 Y159.042 E58.1730
G1 X88.978 Y158.327 E58.2887
G1 X86.958 Y157.195 E58.4042
G1 X85.200 Y155.690 E58.5197
G1 X83.767 Y153.870 E58.6352
G1 X82.442 Y151.006 E58.7927
G1 X81.928 Y148.065 E58.9416
G1 X82.047 Y145.743 E59.0576
G1 X82.388 Y144.194 E59.1367
G1 X83.615 Y141.420 E59.2881
G1 X113.380 Y93.345 E62.1090
G0 F3900 X113.720 Y93.556
G1 F900 X115.015 Y92.142 E62.2047
G1 X116.613 Y91.049 E62.3013
G1 X118.535 Y90.325 E62.4038
G1 X121.153 Y90.108 E62.5348
G1 X123.495 Y90.627 E62.6545
G1 X125.332 Y91.598 E62.7582
G1 X127.188 Y93.373 E62.8863
G1 X128.385 Y95.532 E63.0094
G1 X145.033 Y155.407 E66.1099
G1 X157.755 Y151.879 E66.7686
G1 X156.299 Y146.400 E67.0514
G1 X156.821 Y145.922 E67.0867
G1 X159.244 Y146.100 E67.2080
G1 X161.140 Y146.958 E67.3118
G1 X162.200 Y147.956 E67.3844
G1 X162.850 Y148.975 E67.4447
G1 X166.057 Y160.164 E68.0254
G1 X165.796 Y160.835 E68.0613
G1 X141.501 Y160.260 E69.2738
G1 X140.973 Y159.905 E69.3055
G1 X123.962 Y98.620 E72.4786
G1 X123.424 Y97.421 E72.5442
G1 X122.592 Y96.481 E72.6068
G1 X121.507 Y95.824 E72.6701
G1 X120.284 Y95.524 E72.7329
G1 X119.025 Y95.598 E72.7958
G1 X117.834 Y96.049 E72.8594
G1 X117.162 Y96.523 E72.9004
G1 X116.304 Y97.531 E72.9664
G1 X87.556 Y143.988 E75.6921
G1 X86.862 Y145.491 E75.7747
G1 X86.626 Y146.494 E75.8261
G1 X86.649 Y148.631 E75.9327
G1 X87.341 Y150.634 E76.0384
G1 X88.631 Y152.310 E76.1439
G1 X90.404 Y153.501 E76.2505
G1 X91.905 Y153.983 E76.3291
G1 X92.985 Y154.103 E76.3833
G1 X112.845 Y154.657 E77.3746
G1 X113.405 Y155.110 E77.4105
G1 X113.256 Y159.135 E77.6114
G1 X112.884 Y159.368 E77.6333
G1 X93.389 Y158.916 E78.6062
G1 X91.233 Y158.645 E78.7146
G1 X89.103 Y157.947 E78.8264
G1 X87.155 Y156.847 E78.9381
G1 X85.461 Y155.387 E79.0496
G1 X84.082 Y153.624 E79.1613
G1 X82.806 Y150.839 E79.3141
G1 X82.322 Y147.998 E79.4579
G1 X82.446 Y145.765 E79.5695
G1 X82.778 Y144.281 E79.6453
G1 X83.980 Y141.583 E79.7927
G1 X113.720 Y93.556 E82.6110
G0 F3900 X114.060 Y93.767
G1 F900 X115.309 Y92.413 E82.7029
G1 X116.837 Y91.380 E82.7949
G1 X118.571 Y90.723 E82.8874
G1 X121.066 Y90.499 E83.0124
G1 X123.408 Y91.018 E83.1321
G1 X125.058 Y91.889 E83.2251
G1 X126.838 Y93.567 E83.3472
G1 X128.035 Y95.726 E83.4704
G1 X144.755 Y155.899 E86.5861
G1 X158.245 Y152.158 E87.2846
G1 X156.695 Y146.454 E87.5794
G1 X156.900 Y146.314 E87.5918
G1 X159.083 Y146.466 E87.7010
G1 X160.866 Y147.249 E87.7982
G1 X161.926 Y148.247 E87.8708
G1 X162.465 Y149.085 E87.9205
G1 X165.672 Y160.274 E88.5012
G1 X165.611 Y160.480 E88.5119
G1 X141.511 Y159.860 E89.7147
G1 X141.323 Y159.712 E89.7266
G1 X124.338 Y98.481 E92.8968
G1 X123.765 Y97.203 E92.9667
G1 X122.850 Y96.170 E93.0355
G1 X121.662 Y95.451 E93.1048
G1 X120.321 Y95.121 E93.1737
G1 X118.941 Y95.203 E93.2427
G1 X117.645 Y95.693 E93.3118
G1 X116.889 Y96.226 E93.3579
G1 X115.982 Y97.292 E93.4278
G1 X87.202 Y143.801 E96.1564
G1 X86.483 Y145.358 E96.2420
G1 X86.226 Y146.452 E96.2981
G1 X86.250 Y148.700 E96.4102
G1 X86.984 Y150.826 E96.5224
G1 X88.354 Y152.605 E96.6344
G1 X90.228 Y153.865 E96.7471
G1 X91.823 Y154.377 E96.8307
G1 X92.954 Y154.502 E96.8874
G1 X112.834 Y155.057 E97.8797
G1 X113.011 Y155.178 E97.8903
G1 X112.893 Y158.968 E98.0795
G1 X93.398 Y158.516 E99.0524
G1 X91.283 Y158.248 E99.1588
G1 X89.229 Y157.567 E99.2667
G1 X87.353 Y156.499 E99.3744
G1 X85.723 Y155.085 E99.4821
G1 X84.398 Y153.379 E99.5898
G1 X83.200 Y150.772 E99.7330
G1 X82.716 Y147.931 E99.8768
G1 X82.845 Y145.789 E99.9838
G1 X83.168 Y144.370 E100.0564
G1 X84.345 Y141.747 E100.1999
G1 X114.060 Y93.767 E103.0155
;PRINTING: Phone_Stand_02_tel??tart?? OK design.stl
;PRINTING_ID: 0
G1 F2400 E100.0155
G0 F3900 X144.476 Y156.391
;TYPE:WALL-OUTER
;WIDTH:0.400
G1 F1500 E103.0155
G1 F2400 X158.737 Y152.435 E103.7538
G1 X157.156 Y146.734 E104.0490
G1 X159.019 Y146.864 E104.1422
G1 X160.668 Y147.599 E104.2322
G1 X161.636 Y148.523 E104.2990
G1 X162.113 Y149.277 E104.3435
G1 X165.213 Y160.121 E104.9062
G1 X141.669 Y159.464 E106.0813
G1 X124.716 Y98.345 E109.2456
G1 X124.105 Y96.985 E109.3200
G1 X123.107 Y95.858 E109.3951
G1 X121.817 Y95.078 E109.4703
G1 X120.355 Y94.718 E109.5454
G1 X118.860 Y94.807 E109.6202
G1 X117.456 Y95.337 E109.6950
G1 X116.619 Y95.927 E109.7461
G1 X115.661 Y97.053 E109.8199
G1 X86.846 Y143.621 E112.5520
G1 X86.103 Y145.226 E112.6402
G1 X85.825 Y146.406 E112.7007
G1 X85.850 Y148.769 E112.8186
G1 X86.628 Y151.017 E112.9373
G1 X88.078 Y152.902 E113.0559
G1 X90.048 Y154.228 E113.1744
G1 X91.743 Y154.772 E113.2632
G1 X92.929 Y154.902 E113.3227
G1 X112.621 Y155.451 E114.3055
G1 X112.533 Y158.650 E114.4652
G1 X93.416 Y158.116 E115.4193
G1 X91.357 Y157.855 E115.5229
G1 X89.373 Y157.192 E115.6272
G1 X87.565 Y156.158 E115.7311
G1 X85.996 Y154.792 E115.8349
G1 X84.731 Y153.156 E115.9381
G1 X83.575 Y150.632 E116.0766
G1 X83.115 Y147.892 E116.2152
G1 X83.245 Y145.819 E116.3188
G1 X83.555 Y144.474 E116.3877
G1 X84.699 Y141.933 E116.5267
G1 X114.387 Y93.998 E119.3397
G1 X115.586 Y92.704 E119.4277
G1 X117.046 Y91.723 E119.5155
G1 X118.685 Y91.107 E119.6029
G1 X121.011 Y90.896 E119.7194
G1 X123.295 Y91.403 E119.8361
G1 X124.850 Y92.231 E119.9240
G1 X126.543 Y93.840 E120.0405
G1 X127.670 Y95.892 E120.1573
G1 X144.476 Y156.391 E123.2899
G0 F3900 X144.198 Y156.883
;TYPE:WALL-INNER
;WIDTH:0.400
G1 F2400 X159.229 Y152.714 E124.0681
G1 X157.693 Y147.172 E124.3550
G1 X158.921 Y147.258 E124.4165
G1 X160.442 Y147.936 E124.4995
G1 X161.324 Y148.778 E124.5604
G1 X161.744 Y149.442 E124.5996
G1 X164.678 Y159.706 E125.1321
G1 X141.975 Y159.072 E126.2652
G1 X125.093 Y98.209 E129.4164
G1 X124.445 Y96.765 E129.4953
G1 X123.366 Y95.547 E129.5765
G1 X121.972 Y94.704 E129.6578
G1 X120.392 Y94.315 E129.7390
G1 X118.776 Y94.411 E129.8197
G1 X117.267 Y94.981 E129.9002
G1 X116.347 Y95.629 E129.9563
G1 X115.337 Y96.817 E130.0341
G1 X86.493 Y143.431 E132.7689
G1 X85.723 Y145.095 E132.8604
G1 X85.425 Y146.362 E132.9254
G1 X85.451 Y148.838 E133.0489
G1 X86.271 Y151.209 E133.1741
G1 X87.801 Y153.197 E133.2992
G1 X89.872 Y154.592 E133.4238
G1 X91.659 Y155.165 E133.5174
G1 X92.902 Y155.301 E133.5798
G1 X112.210 Y155.840 E134.5434
G1 X112.144 Y158.239 E134.6632
G1 X93.447 Y157.717 E135.5963
G1 X91.446 Y157.463 E135.6970
G1 X89.537 Y156.825 E135.7974
G1 X87.798 Y155.830 E135.8973
G1 X86.288 Y154.516 E135.9972
G1 X85.076 Y152.948 E136.0961
G1 X83.961 Y150.514 E136.2296
G1 X83.517 Y147.871 E136.3634
G1 X83.642 Y145.877 E136.4630
G1 X83.936 Y144.602 E136.5283
G1 X85.053 Y142.121 E136.6641
G1 X114.707 Y94.241 E139.4738
G1 X115.848 Y93.010 E139.5576
G1 X117.230 Y92.081 E139.6406
G1 X118.775 Y91.500 E139.7230
G1 X120.985 Y91.300 E139.8337
G1 X123.155 Y91.782 E139.9446
G1 X124.614 Y92.558 E140.0271
G1 X126.222 Y94.087 E140.1378
G1 X127.297 Y96.044 E140.2491
G1 X144.198 Y156.883 E143.3994
G0 F3900 X143.920 Y157.375
G1 F2400 X159.721 Y152.993 E144.2174
G1 X158.230 Y147.611 E144.4961
G1 X158.823 Y147.652 E144.5257
G1 X160.216 Y148.273 E144.6018
G1 X161.012 Y149.033 E144.6567
G1 X161.375 Y149.607 E144.6906
G1 X164.143 Y159.291 E145.1931
G1 X142.281 Y158.680 E146.2842
G1 X125.470 Y98.073 E149.4221
G1 X124.785 Y96.545 E149.5056
G1 X123.625 Y95.236 E149.5929
G1 X122.127 Y94.330 E149.6802
G1 X120.429 Y93.912 E149.7674
G1 X118.692 Y94.015 E149.8543
G1 X117.078 Y94.625 E149.9403
G1 X116.075 Y95.331 E150.0015
G1 X115.013 Y96.581 E150.0834
G1 X86.140 Y143.241 E152.8209
G1 X85.343 Y144.964 E152.9156
G1 X85.025 Y146.318 E152.9850
G1 X85.052 Y148.907 E153.1142
G1 X85.914 Y151.401 E153.2458
G1 X87.524 Y153.492 E153.3775
G1 X89.696 Y154.956 E153.5081
G1 X91.575 Y155.558 E153.6066
G1 X92.875 Y155.700 E153.6718
G1 X111.799 Y156.229 E154.6163
G1 X111.755 Y157.828 E154.6961
G1 X93.478 Y157.318 E155.6083
G1 X91.535 Y157.071 E155.7060
G1 X89.701 Y156.458 E155.8025
G1 X88.031 Y155.502 E155.8985
G1 X86.580 Y154.240 E155.9944
G1 X85.421 Y152.740 E156.0890
G1 X84.347 Y150.396 E156.2177
G1 X83.919 Y147.850 E156.3465
G1 X84.039 Y145.935 E156.4422
G1 X84.317 Y144.730 E156.5039
G1 X85.407 Y142.309 E156.6363
G1 X115.027 Y94.485 E159.4428
G1 X116.110 Y93.316 E159.5224
G1 X117.414 Y92.439 E159.6008
G1 X118.865 Y91.893 E159.6781
G1 X120.959 Y91.704 E159.7830
G1 X123.015 Y92.161 E159.8881
G1 X124.378 Y92.886 E159.9651
G1 X125.901 Y94.334 E160.0699
G1 X126.924 Y96.196 E160.1759
G1 X143.920 Y157.375 E163.3438
G1 F2400 E160.3438
G0 F3900 X124.613 Y96.657
G0 X123.494 Y95.394
G0 X122.048 Y94.520
G0 X120.410 Y94.116
G0 X118.735 Y94.216
G0 X116.213 Y95.482
G0 X115.176 Y96.700
G0 X86.317 Y143.337
G0 X85.227 Y146.341
G0 X85.254 Y148.872
G0 X86.095 Y151.303
G0 X87.665 Y153.342
G0 X89.785 Y154.771
G0 X92.298 Y155.361
G0 X111.388 Y156.618
G1 F1500 E163.3438
G1 F2400 X111.366 Y157.417 E163.3836
G1 X93.509 Y156.919 E164.2749
G1 X91.624 Y156.679 E164.3697
G1 X89.865 Y156.091 E164.4622
G1 X88.264 Y155.174 E164.5542
G1 X86.872 Y153.964 E164.6463
G1 X85.766 Y152.532 E164.7365
G1 X84.733 Y150.277 E164.8603
G1 X84.564 Y149.277 E164.9109
G1 X84.741 Y149.232 E164.9200
G1 X85.557 Y151.593 E165.0446
G1 X87.247 Y153.787 E165.1828
G1 X89.520 Y155.320 E165.3196
G1 X91.491 Y155.951 E165.4228
G1 X92.848 Y156.099 E165.4909
G1 X111.388 Y156.618 E166.4162
G1 F2400 E163.4162
G0 F3900 X91.618 Y155.360
G0 X89.785 Y154.771
G0 X87.665 Y153.342
G0 X86.095 Y151.303
G0 X85.254 Y148.872
G0 X85.227 Y146.341
G0 X86.317 Y143.337
G0 X115.176 Y96.700
G0 X117.174 Y94.805
G0 X118.735 Y94.216
G0 X120.410 Y94.116
G0 X122.048 Y94.520
G0 X123.494 Y95.394
G0 X124.613 Y96.657
G0 X143.642 Y157.867
G1 F1500 E166.4162
G1 F2400 X160.213 Y153.272 E167.2742
G1 X158.811 Y148.209 E167.5363
G1 X158.906 Y148.127 E167.5425
G1 X159.990 Y148.610 E167.6017
G1 X161.006 Y149.772 E167.6787
G1 X163.608 Y158.876 E168.1511
G1 X142.587 Y158.288 E169.2003
G1 X125.847 Y97.937 E172.3249
G1 X125.125 Y96.326 E172.4130
G1 X123.884 Y94.925 E172.5063
G1 X122.282 Y93.956 E172.5997
G1 X120.466 Y93.509 E172.6931
G1 X118.608 Y93.619 E172.7859
G1 X116.889 Y94.269 E172.8776
G1 X115.803 Y95.033 E172.9438
