;Sliced by ideaMaker 5.2.4.8581, 2025-06-08 18:00:06 UTC+0200
;Slicer Version: 5.2.3.8580
;Dimension: 250.000 250.000 250.000 0.400
;Plate Shape: 0
;Origin Center: 0
;Extruder Offset #1: 25.000 0.000
;Filament Diameter #1: 1.750
;Filament Diameter #2: 1.750
;Filament Compensation #1: 94.000
;Filament Compensation #2: 90.000
;Filament Density #1: 1240.000
;Filament Density #2: 1240.000
;Filament Type #1: PLA
;Filament Type #2: PLA
;Filament Name #1: [Raise3D] Premium PLA 1.75mm
;Filament Name #2: [Raise3D] Premium PLA 1.75mm
;Filament #1: PLA 1.75mm
;Filament #2: PLA 1.75mm
;Printer Type: floppy
;Firmware: Klipper
;Bounding Box: 102.601 147.398 100.247 149.762 0.000 10.200
;Model Gap: 0.000
M221 T0 S94.00
M140 S50.00
M104 T0 S190.00
M109 T0 S190.00
T0
M190 S50.00
G21 ;metric values
G90 ;absolute positioning
M82 ;set extruder to absolute mode
M107 ;start with the fan off
G28 X0 Y0 ;move X/Y to min endstops
G28 Z0 ;move Z to min endstops
G1 Z15.0 F9000 ;move the platform down 15mm
G92 E0 ;zero the extruded length
G0 X43 Y27 F2000  ;go to the edge of the bed
G92 X0 Y0 E0 ;set zero to edge of the bed
G0 F9000 Z1 ;Z up with 1mm
G1 F200 Z0 ;Z home slowly
G1 Z15.0 F9000 ;move the platform down 15mm
G1 F9000 ;speed setting
G92 E-3 ;retraction
M117 Printing...
M1001
;TOTAL_NUM: 1
;PRINTING_TIME: 0
;REMAINING_TIME: 1766
;LAYER:0
;Z:0.300
;HEIGHT:0.300
;PRINTING: NON-OBJECT
;PRINTING_ID: -1
G1 F2400 E-3.0000
G0 F3900 X104.223 Y111.639
G0 F300 Z0.300
;TYPE:SKIRT
;WIDTH:0.400
G1 F1500 E0.0000
G1 F900 X105.542 Y110.420 E0.0896
G1 X107.178 Y109.541 E0.1823
G1 X108.887 Y109.123 E0.2700
G1 X110.764 Y109.166 E0.3637
G1 X113.329 Y109.853 E0.4962
G1 X114.070 Y109.891 E0.5332
G1 X115.400 Y109.619 E0.6009
G1 X116.072 Y109.289 E0.6383
G1 X116.719 Y108.783 E0.6793
G1 X117.497 Y107.774 E0.7428
G1 X118.522 Y104.505 E0.9137
G1 X120.107 Y102.193 E1.0536
G1 X121.284 Y101.282 E1.1278
G1 X122.505 Y100.679 E1.1958
G1 X125.510 Y100.247 E1.3472
G1 X126.929 Y100.494 E1.4191
G1 X128.203 Y100.991 E1.4873
G1 X130.297 Y102.620 E1.6197
G1 X131.483 Y104.506 E1.7308
G1 X132.502 Y107.772 E1.9015
G1 X133.304 Y108.808 E1.9669
G1 X133.911 Y109.278 E2.0052
G1 X134.641 Y109.632 E2.0457
G1 X135.922 Y109.891 E2.1109
G1 X136.682 Y109.853 E2.1488
G1 X139.374 Y109.151 E2.2876
G1 X141.619 Y109.196 E2.3997
G1 X143.047 Y109.619 E2.4740
G1 X144.258 Y110.268 E2.5425
G1 X146.332 Y112.410 E2.6913
G1 X146.981 Y113.746 E2.7654
G1 X147.319 Y115.076 E2.8338
G1 X147.148 Y118.019 E2.9809
G1 X146.077 Y120.270 E3.1053
G1 X144.065 Y122.321 E3.2486
G1 X143.586 Y123.009 E3.2904
G1 X143.273 Y123.740 E3.3301
G1 X143.079 Y124.999 E3.3937
G1 X143.273 Y126.257 E3.4572
G1 X143.577 Y126.966 E3.4956
G1 X146.381 Y130.216 E3.7098
G1 X147.161 Y132.067 E3.8100
G1 X147.398 Y133.895 E3.9020
G1 X147.115 Y135.799 E3.9980
G1 X146.377 Y137.497 E4.0904
G1 X144.821 Y139.296 E4.2090
G1 X143.097 Y140.346 E4.3097
G1 X141.119 Y140.874 E4.4119
G1 X139.472 Y140.861 E4.4941
G1 X136.682 Y140.146 E4.6377
G1 X135.928 Y140.108 E4.6754
G1 X134.599 Y140.380 E4.7431
G1 X133.927 Y140.710 E4.7804
G1 X133.279 Y141.216 E4.8215
G1 X132.502 Y142.225 E4.8850
G1 X131.521 Y145.405 E5.0510
G1 X130.208 Y147.481 E5.1736
G1 X128.190 Y149.012 E5.2999
G1 X126.795 Y149.540 E5.3744
G1 X125.064 Y149.762 E5.4614
G1 X122.497 Y149.316 E5.5914
G1 X121.170 Y148.645 E5.6656
G1 X120.095 Y147.797 E5.7339
G1 X118.472 Y145.387 E5.8789
G1 X117.500 Y142.229 E6.0437
G1 X116.695 Y141.191 E6.1092
G1 X116.088 Y140.721 E6.1475
G1 X115.359 Y140.367 E6.1880
G1 X114.080 Y140.108 E6.2531
G1 X113.319 Y140.146 E6.2911
G1 X110.469 Y140.861 E6.4377
G1 X107.978 Y140.718 E6.5622
G1 X106.842 Y140.334 E6.6220
G1 X105.419 Y139.501 E6.7043
G1 X103.660 Y137.562 E6.8349
G1 X102.990 Y136.168 E6.9120
G1 X102.631 Y134.531 E6.9956
G1 X102.884 Y131.869 E7.1291
G1 X104.092 Y129.522 E7.2607
G1 X105.938 Y127.672 E7.3911
G1 X106.389 Y127.023 E7.4306
G1 X106.852 Y125.772 E7.4971
G1 X106.932 Y125.004 E7.5356
G1 X106.844 Y124.200 E7.5760
G1 X106.387 Y122.974 E7.6413
G1 X105.938 Y122.327 E7.6806
G1 X104.234 Y120.666 E7.7993
G1 X103.308 Y119.236 E7.8843
G1 X102.760 Y117.647 E7.9681
G1 X102.601 Y115.988 E8.0513
G1 X103.305 Y113.067 E8.2012
G1 X104.223 Y111.639 E8.2859
G0 F3900 X104.497 Y111.931
G1 F900 X105.734 Y110.771 E8.3705
G1 X107.273 Y109.930 E8.4580
G1 X108.982 Y109.512 E8.5457
G1 X110.752 Y109.566 E8.6341
G1 X113.263 Y110.250 E8.7639
G1 X114.103 Y110.293 E8.8059
G1 X115.529 Y110.001 E8.8785
G1 X116.285 Y109.630 E8.9205
G1 X117.006 Y109.066 E8.9662
G1 X117.858 Y107.961 E9.0358
G1 X118.854 Y104.729 E9.2045
G1 X120.352 Y102.509 E9.3381
G1 X121.529 Y101.598 E9.4124
G1 X122.680 Y101.039 E9.4762
G1 X125.441 Y100.641 E9.6154
G1 X126.860 Y100.888 E9.6873
G1 X128.055 Y101.363 E9.7514
G1 X130.050 Y102.934 E9.8781
G1 X131.142 Y104.715 E9.9823
G1 X132.141 Y107.959 E10.1517
G1 X133.019 Y109.093 E10.2232
G1 X133.699 Y109.620 E10.2662
G1 X134.512 Y110.014 E10.3112
G1 X135.890 Y110.293 E10.3814
G1 X136.745 Y110.250 E10.4241
G1 X139.475 Y109.538 E10.5648
G1 X141.505 Y109.580 E10.6661
G1 X142.933 Y110.003 E10.7404
G1 X144.067 Y110.619 E10.8048
G1 X145.972 Y112.585 E10.9414
G1 X146.621 Y113.921 E11.0155
G1 X146.931 Y115.172 E11.0798
G1 X146.785 Y117.850 E11.2136
G1 X145.791 Y119.990 E11.3313
G1 X143.759 Y122.061 E11.4761
G1 X143.233 Y122.817 E11.5220
G1 X142.886 Y123.628 E11.5660
G1 X142.675 Y124.999 E11.6352
G1 X142.886 Y126.371 E11.7045
G1 X143.234 Y127.182 E11.7485
G1 X146.014 Y130.374 E11.9597
G1 X146.764 Y132.118 E12.0544
G1 X147.001 Y133.946 E12.1464
G1 X146.720 Y135.737 E12.2368
G1 X146.011 Y137.335 E12.3240
G1 X144.610 Y138.956 E12.4309
G1 X142.991 Y139.960 E12.5260
G1 X141.122 Y140.474 E12.6227
G1 X139.475 Y140.461 E12.7049
G1 X136.745 Y139.749 E12.8456
G1 X135.895 Y139.706 E12.8881
G1 X134.470 Y139.998 E12.9606
G1 X133.714 Y140.369 E13.0027
G1 X132.992 Y140.933 E13.0484
G1 X132.141 Y142.038 E13.1180
G1 X131.139 Y145.287 E13.2876
G1 X129.964 Y147.164 E13.3981
G1 X128.048 Y148.638 E13.5187
G1 X126.653 Y149.166 E13.5931
G1 X125.016 Y149.365 E13.6753
G1 X122.677 Y148.959 E13.7938
G1 X121.350 Y148.288 E13.8680
G1 X120.345 Y147.485 E13.9321
G1 X118.854 Y145.269 E14.0654
G1 X117.861 Y142.042 E14.2338
G1 X116.980 Y140.906 E14.3056
G1 X116.300 Y140.379 E14.3485
G1 X115.487 Y139.985 E14.3936
G1 X114.112 Y139.706 E14.4636
G1 X113.257 Y139.749 E14.5063
G1 X110.490 Y140.462 E14.6488
G1 X108.106 Y140.339 E14.7679
G1 X106.970 Y139.955 E14.8277
G1 X105.623 Y139.157 E14.9059
G1 X104.021 Y137.389 E15.0249
G1 X103.351 Y135.995 E15.1021
G1 X103.022 Y134.448 E15.1810
G1 X103.282 Y131.910 E15.3082
G1 X104.446 Y129.709 E15.4325
G1 X106.245 Y127.930 E15.5587
G1 X106.747 Y127.208 E15.6026
G1 X107.245 Y125.863 E15.6741
G1 X107.334 Y125.002 E15.7173
G1 X107.237 Y124.107 E15.7622
G1 X106.745 Y122.788 E15.8324
G1 X106.247 Y122.070 E15.8760
G1 X104.513 Y120.380 E15.9968
G1 X103.645 Y119.021 E16.0773
G1 X103.139 Y117.519 E16.1564
G1 X102.999 Y115.952 E16.2348
G1 X103.643 Y113.281 E16.3719
G1 X104.497 Y111.931 E16.4516
G0 F3900 X104.773 Y112.221
G1 F900 X105.926 Y111.122 E16.5311
G1 X107.465 Y110.281 E16.6186
G1 X108.970 Y109.912 E16.6959
G1 X110.740 Y109.966 E16.7842
G1 X113.198 Y110.647 E16.9115
G1 X114.136 Y110.695 E16.9584
G1 X115.658 Y110.383 E17.0359
G1 X116.501 Y109.970 E17.0827
G1 X117.292 Y109.351 E17.1328
G1 X118.206 Y108.165 E17.2075
G1 X118.597 Y107.252 E17.2571
G1 X119.187 Y104.950 E17.3756
G1 X120.597 Y102.825 E17.5029
G1 X121.774 Y101.914 E17.5771
G1 X122.852 Y101.400 E17.6367
G1 X125.372 Y101.035 E17.7637
G1 X126.791 Y101.282 E17.8356
G1 X127.905 Y101.734 E17.8956
G1 X129.801 Y103.247 E18.0166
G1 X130.798 Y104.920 E18.1137
G1 X131.407 Y107.265 E18.2346
G1 X131.794 Y108.165 E18.2835
G1 X132.734 Y109.378 E18.3601
G1 X133.487 Y109.962 E18.4076
G1 X134.384 Y110.396 E18.4573
G1 X135.858 Y110.695 E18.5323
G1 X136.808 Y110.647 E18.5798
G1 X139.576 Y109.925 E18.7225
G1 X141.391 Y109.964 E18.8131
G1 X142.819 Y110.387 E18.8874
G1 X143.874 Y110.969 E18.9475
G1 X145.612 Y112.760 E19.0720
G1 X146.261 Y114.096 E19.1461
G1 X146.542 Y115.265 E19.2061
G1 X146.420 Y117.685 E19.3270
G1 X145.506 Y119.710 E19.4378
G1 X143.447 Y121.808 E19.5845
G1 X142.881 Y122.623 E19.6340
G1 X142.499 Y123.514 E19.6824
G1 X142.271 Y124.999 E19.7573
G1 X142.499 Y126.485 E19.8323
G1 X142.880 Y127.373 E19.8805
G1 X143.450 Y128.193 E19.9303
G1 X145.648 Y130.535 E20.0906
G1 X146.367 Y132.169 E20.1796
G1 X146.604 Y133.997 E20.2716
G1 X146.354 Y135.575 E20.3513
G1 X145.645 Y137.173 E20.4385
G1 X144.396 Y138.618 E20.5338
G1 X142.882 Y139.575 E20.6232
G1 X141.122 Y140.074 E20.7145
G1 X139.576 Y140.074 E20.7916
G1 X136.808 Y139.352 E20.9343
G1 X135.862 Y139.304 E20.9816
G1 X134.341 Y139.616 E21.0590
G1 X133.498 Y140.029 E21.1059
G1 X132.707 Y140.648 E21.1560
G1 X131.792 Y141.835 E21.2307
G1 X131.407 Y142.732 E21.2794
G1 X130.798 Y145.079 E21.4004
G1 X129.718 Y146.849 E21.5039
G1 X127.906 Y148.264 E21.6186
G1 X126.511 Y148.792 E21.6930
G1 X124.971 Y148.968 E21.7703
G1 X122.857 Y148.602 E21.8773
G1 X121.530 Y147.931 E21.9515
G1 X120.597 Y147.174 E22.0115
G1 X119.187 Y145.048 E22.1387
G1 X118.598 Y142.745 E22.2573
G1 X118.207 Y141.836 E22.3067
G1 X117.265 Y140.621 E22.3834
G1 X116.512 Y140.037 E22.4309
G1 X115.615 Y139.603 E22.4807
G1 X114.141 Y139.304 E22.5557
G1 X113.200 Y139.351 E22.6027
G1 X110.390 Y140.075 E22.7475
G1 X108.234 Y139.960 E22.8552
G1 X107.098 Y139.576 E22.9150
G1 X105.829 Y138.814 E22.9889
G1 X104.382 Y137.216 E23.0964
G1 X103.712 Y135.822 E23.1736
G1 X103.414 Y134.368 E23.2476
G1 X103.680 Y131.954 E23.3688
G1 X104.797 Y129.900 E23.4854
G1 X106.551 Y128.190 E23.6076
G1 X107.105 Y127.393 E23.6561
G1 X107.638 Y125.954 E23.7326
G1 X107.736 Y125.000 E23.7805
G1 X107.630 Y124.014 E23.8299
G1 X107.102 Y122.601 E23.9052
G1 X106.556 Y121.813 E23.9530
G1 X104.792 Y120.094 E24.0759
G1 X103.984 Y118.808 E24.1517
G1 X103.519 Y117.394 E24.2259
G1 X103.398 Y115.919 E24.2998
G1 X103.983 Y113.492 E24.4243
G1 X104.773 Y112.221 E24.4990
;PRINTING: Perlator_Tap_filter_Tool.stl
;PRINTING_ID: 0
G1 F2400 E21.4990
G0 F3900 X120.533 Y105.332
;TYPE:WALL-OUTER
;WIDTH:0.400
G1 F1500 E24.4990
G1 F2400 X121.503 Y103.892 E24.5856
G1 X122.391 Y103.172 E24.6427
G1 X123.432 Y102.675 E24.7002
G1 X125.191 Y102.423 E24.7889
G1 X126.288 Y102.589 E24.8442
G1 X127.350 Y103.020 E24.9014
G1 X128.696 Y104.111 E24.9878
G1 X129.576 Y105.602 E25.0742
G1 X130.072 Y107.707 E25.1821
G1 X130.575 Y108.878 E25.2457
G1 X131.735 Y110.377 E25.3402
G1 X132.746 Y111.159 E25.4040
G1 X133.933 Y111.733 E25.4698
G1 X135.749 Y112.102 E25.5622
G1 X137.025 Y112.038 E25.6260
G1 X139.904 Y111.287 E25.7744
G1 X141.050 Y111.321 E25.8316
G1 X142.165 Y111.625 E25.8893
G1 X143.172 Y112.181 E25.9467
G1 X144.381 Y113.425 E26.0332
G1 X144.907 Y114.450 E26.0907
G1 X145.175 Y115.562 E26.1478
G1 X145.072 Y117.295 E26.2344
G1 X144.378 Y118.874 E26.3204
G1 X142.371 Y120.906 E26.4629
G1 X141.646 Y121.947 E26.5262
G1 X141.142 Y123.122 E26.5900
G1 X140.855 Y125.000 E26.6848
G1 X141.142 Y126.877 E26.7795
G1 X141.646 Y128.052 E26.8433
G1 X142.371 Y129.093 E26.9066
G1 X144.378 Y131.125 E27.0491
G1 X145.074 Y132.709 E27.1354
G1 X145.211 Y133.854 E27.1929
G1 X145.064 Y135.030 E27.2520
G1 X144.376 Y136.580 E27.3367
G1 X143.627 Y137.449 E27.3939
G1 X142.159 Y138.376 E27.4805
G1 X141.050 Y138.678 E27.5378
G1 X139.904 Y138.712 E27.5950
G1 X137.025 Y137.961 E27.7435
G1 X135.749 Y137.897 E27.8072
G1 X133.893 Y138.278 E27.9018
G1 X132.745 Y138.841 E27.9655
G1 X131.706 Y139.653 E28.0313
G1 X130.575 Y141.121 E28.1238
G1 X130.072 Y142.292 E28.1874
G1 X129.576 Y144.397 E28.2953
G1 X128.696 Y145.888 E28.3816
G1 X127.350 Y146.979 E28.4681
G1 X126.288 Y147.410 E28.5253
G1 X125.150 Y147.580 E28.5827
G1 X123.432 Y147.324 E28.6693
G1 X122.391 Y146.827 E28.7269
G1 X121.503 Y146.107 E28.7839
G1 X120.533 Y144.667 E28.8705
G1 X119.926 Y142.290 E28.9929
G1 X119.424 Y141.121 E29.0564
G1 X118.264 Y139.622 E29.1510
G1 X117.253 Y138.840 E29.2147
G1 X116.066 Y138.266 E29.2805
G1 X114.250 Y137.897 E29.3730
G1 X112.973 Y137.961 E29.4368
G1 X110.394 Y138.676 E29.5703
G1 X108.655 Y138.625 E29.6571
G1 X107.571 Y138.258 E29.7142
G1 X106.600 Y137.645 E29.7715
G1 X105.463 Y136.325 E29.8584
G1 X105.001 Y135.276 E29.9156
G1 X104.797 Y134.147 E29.9728
G1 X105.003 Y132.424 E30.0594
G1 X105.794 Y130.884 E30.1457
G1 X107.627 Y129.095 E30.2735
G1 X108.356 Y128.047 E30.3372
G1 X109.014 Y126.271 E30.4317
G1 X109.143 Y124.999 E30.4955
G1 X109.003 Y123.688 E30.5613
G1 X108.356 Y121.952 E30.6537
G1 X107.627 Y120.904 E30.7174
G1 X105.789 Y119.111 E30.8455
G1 X105.202 Y118.115 E30.9032
G1 X104.866 Y117.014 E30.9606
G1 X104.797 Y115.862 E31.0182
G1 X105.205 Y114.177 E31.1047
G1 X105.788 Y113.187 E31.1620
G1 X106.625 Y112.337 E31.2215
G1 X108.109 Y111.524 E31.3059
G1 X109.238 Y111.287 E31.3635
G1 X110.389 Y111.321 E31.4209
G1 X112.973 Y112.038 E31.5547
G1 X114.250 Y112.102 E31.6185
G1 X116.106 Y111.721 E31.7130
G1 X117.254 Y111.158 E31.7768
G1 X118.293 Y110.346 E31.8426
G1 X119.424 Y108.878 E31.9351
G1 X119.926 Y107.709 E31.9985
G1 X120.533 Y105.332 E32.1209
G1 F2400 E29.1209
G0 F3900 X120.990 Y105.545
G0 X119.951 Y112.754
G0 X119.951 Y113.254
G1 F1500 E32.1209
G1 F2400 X117.718 Y114.504 E32.2486
G1 X115.810 Y116.115 E32.3732
G1 X114.246 Y118.100 E32.4993
G1 X113.106 Y120.321 E32.6238
G1 X112.420 Y122.755 E32.7500
G1 X112.223 Y125.243 E32.8745
G1 X112.520 Y127.753 E33.0006
G1 X113.296 Y130.127 E33.1252
G1 X114.530 Y132.329 E33.2511
G1 X115.812 Y133.885 E33.3517
G1 X117.718 Y135.495 E33.4762
G1 X119.951 Y136.745 E33.6039
G1 X130.048 Y136.745 E34.1076
G1 X132.281 Y135.495 E34.2353
G1 X134.189 Y133.884 E34.3599
G1 X135.753 Y131.899 E34.4859
G1 X136.893 Y129.678 E34.6105
G1 X137.579 Y127.244 E34.7367
G1 X137.776 Y124.756 E34.8612
G1 X137.479 Y122.246 E34.9873
G1 X136.703 Y119.872 E35.1119
G1 X135.469 Y117.670 E35.2378
G1 X134.187 Y116.114 E35.3384
G1 X132.281 Y114.504 E35.4629
G1 X130.048 Y113.254 E35.5905
G1 X119.951 Y113.254 E36.0943
G1 F2400 E33.0943
G0 F3900 X119.951 Y112.754
G0 X120.990 Y105.545
G0 X120.903 Y105.498
;TYPE:WALL-INNER
;WIDTH:0.400
G1 F1500 E36.0943
G1 F2400 X121.801 Y104.165 E36.1745
G1 X122.606 Y103.513 E36.2261
G1 X123.549 Y103.062 E36.2783
G1 X125.189 Y102.827 E36.3610
G1 X126.181 Y102.977 E36.4110
G1 X127.144 Y103.368 E36.4629
G1 X128.388 Y104.376 E36.5427
G1 X129.201 Y105.753 E36.6225
G1 X129.691 Y107.833 E36.7291
G1 X130.228 Y109.083 E36.7970
G1 X131.450 Y110.662 E36.8966
G1 X132.534 Y111.501 E36.9650
G1 X133.804 Y112.115 E37.0354
G1 X135.719 Y112.504 E37.1329
G1 X137.086 Y112.435 E37.2012
G1 X139.949 Y111.689 E37.3488
G1 X140.991 Y111.719 E37.4008
G1 X142.014 Y111.998 E37.4537
G1 X142.927 Y112.502 E37.5057
G1 X144.052 Y113.661 E37.5863
G1 X144.529 Y114.590 E37.6384
G1 X144.772 Y115.598 E37.6901
G1 X144.677 Y117.200 E37.7702
G1 X144.042 Y118.645 E37.8489
G1 X142.062 Y120.649 E37.9895
G1 X141.294 Y121.752 E38.0565
G1 X140.754 Y123.011 E38.1249
G1 X140.450 Y125.000 E38.2253
G1 X140.754 Y126.988 E38.3256
G1 X141.294 Y128.247 E38.3939
G1 X142.062 Y129.350 E38.4610
G1 X144.042 Y131.354 E38.6015
G1 X144.684 Y132.816 E38.6812
G1 X144.808 Y133.853 E38.7333
G1 X144.674 Y134.922 E38.7871
G1 X144.034 Y136.364 E38.8658
G1 X143.363 Y137.143 E38.9171
G1 X141.996 Y138.006 E38.9977
G1 X140.991 Y138.280 E39.0497
G1 X139.949 Y138.310 E39.1017
G1 X137.086 Y137.564 E39.2493
G1 X135.718 Y137.495 E39.3176
G1 X133.763 Y137.896 E39.4172
G1 X132.531 Y138.500 E39.4857
G1 X131.420 Y139.369 E39.5560
G1 X130.227 Y140.917 E39.6535
G1 X129.691 Y142.166 E39.7213
G1 X129.201 Y144.246 E39.8279
G1 X128.388 Y145.623 E39.9077
G1 X127.144 Y146.631 E39.9876
G1 X126.182 Y147.021 E40.0394
G1 X125.150 Y147.176 E40.0915
G1 X123.550 Y146.937 E40.1722
G1 X122.606 Y146.486 E40.2244
G1 X121.801 Y145.834 E40.2760
G1 X120.903 Y144.501 E40.3562
G1 X120.306 Y142.161 E40.4767
G1 X119.771 Y140.916 E40.5443
G1 X118.549 Y139.337 E40.6439
G1 X117.465 Y138.498 E40.7123
G1 X116.195 Y137.884 E40.7827
G1 X114.280 Y137.495 E40.8802
G1 X112.909 Y137.564 E40.9487
G1 X110.345 Y138.274 E41.0814
G1 X108.727 Y138.227 E41.1622
G1 X107.744 Y137.894 E41.2139
G1 X106.864 Y137.339 E41.2658
