;Sliced by ideaMaker 5.2.4.8581, 2025-06-22 18:19:12 UTC+0200
;Slicer Version: 5.2.3.8580
;Dimension: 250.000 250.000 250.000 0.400
;Plate Shape: 0
;Origin Center: 0
;Extruder Offset #1: 25.000 0.000
;Filament Diameter #1: 1.750
;Filament Diameter #2: 1.750
;Filament Compensation #1: 94.000
;Filament Compensation #2: 90.000
;Filament Density #1: 1240.000
;Filament Density #2: 1240.000
;Filament Type #1: PLA
;Filament Type #2: PLA
;Filament Name #1: [Raise3D] Premium PLA 1.75mm
;Filament Name #2: [Raise3D] Premium PLA 1.75mm
;Filament #1: PLA 1.75mm
;Filament #2: PLA 1.75mm
;Printer Type: floppy
;Firmware: Klipper
;Bounding Box: 68.533 181.413 63.295 186.698 0.000 3.900
;Model Gap: 0.000
M221 T0 S94.00
M140 S50.00
M104 T0 S190.00
M109 T0 S190.00
T0
M190 S50.00
G21 ;metric values
G90 ;absolute positioning
M82 ;set extruder to absolute mode
M107 ;start with the fan off
G28 X0 Y0 ;move X/Y to min endstops
G28 Z0 ;move Z to min endstops
G1 Z15.0 F9000 ;move the platform down 15mm
G92 E0 ;zero the extruded length
G0 X43 Y27 F2000  ;go to the edge of the bed
G92 X0 Y0 E0 ;set zero to edge of the bed
G0 F9000 Z1 ;Z up with 1mm
G1 F200 Z0 ;Z home slowly
G1 Z15.0 F9000 ;move the platform down 15mm
G1 F9000 ;speed setting
G92 E-3 ;retraction
M117 Printing...
M1001
;TOTAL_NUM: 1
;PRINTING_TIME: 0
;REMAINING_TIME: 2780
;LAYER:0
;Z:0.300
;HEIGHT:0.300
;PRINTING: NON-OBJECT
;PRINTING_ID: -1
G1 F2400 E-3.0000
G0 F3900 X104.650 Y96.739
G0 F300 Z0.300
;TYPE:SKIRT
;WIDTH:0.400
G1 F1500 E0.0000
G1 F900 X100.384 Y108.936 E0.6447
G1 X99.232 Y110.332 E0.7350
G1 X98.384 Y110.746 E0.7820
G1 X112.298 Y121.071 E1.6465
G1 X132.839 Y105.938 E2.9193
G1 X133.973 Y105.382 E2.9823
G1 X135.146 Y105.226 E3.0414
G1 X137.200 Y105.870 E3.1488
G1 X137.844 Y106.422 E3.1911
G1 X137.306 Y104.880 E3.2726
G1 X116.860 Y104.814 E4.2926
G1 X114.920 Y103.916 E4.3993
G1 X114.050 Y102.808 E4.4696
G1 X113.640 Y101.293 E4.5479
G1 X113.845 Y99.802 E4.6229
G1 X114.375 Y98.808 E4.6791
G1 X115.004 Y98.149 E4.7246
G1 X117.108 Y96.664 E4.8531
G1 X104.650 Y96.739 E5.4746
G0 F3900 X104.365 Y96.341
G1 F900 X100.006 Y108.804 E6.1333
G1 X98.927 Y110.073 E6.2164
G1 X97.591 Y110.655 E6.2891
G1 X112.297 Y121.568 E7.2028
G1 X133.076 Y106.260 E8.4904
G1 X134.040 Y105.776 E8.5442
G1 X135.026 Y105.608 E8.5941
G1 X137.080 Y106.252 E8.7015
G1 X137.718 Y106.854 E8.7453
G1 X138.224 Y107.701 E8.7945
G1 X138.399 Y109.788 E8.8990
G1 X132.138 Y135.931 E10.2401
G1 X154.240 Y151.402 E11.5861
G1 X155.129 Y152.361 E11.6513
G1 X155.601 Y153.525 E11.7140
G1 X155.586 Y154.924 E11.7838
G1 X154.974 Y156.237 E11.8561
G1 X153.940 Y157.143 E11.9247
G1 X152.605 Y157.569 E11.9946
G1 X124.716 Y157.590 E13.3860
G1 X115.508 Y184.105 E14.7863
G1 X114.984 Y185.049 E14.8402
G1 X114.262 Y185.748 E14.8903
G1 X112.764 Y186.325 E14.9704
G1 X111.536 Y186.285 E15.0317
G1 X110.468 Y185.835 E15.0895
G1 X109.085 Y184.107 E15.1999
G1 X99.876 Y157.590 E16.6004
G1 X72.299 Y157.590 E17.9762
G1 X71.248 Y157.409 E18.0294
G1 X70.345 Y156.953 E18.0799
G1 X69.071 Y155.203 E18.1879
G1 X68.930 Y154.008 E18.2479
G1 X69.174 Y152.919 E18.3036
G1 X70.273 Y151.471 E18.3943
G1 X92.453 Y135.931 E19.7454
G1 X86.127 Y109.286 E21.1117
G1 X86.290 Y107.949 E21.1789
G1 X86.907 Y106.834 E21.2425
G1 X88.428 Y105.796 E21.3343
G1 X89.690 Y105.628 E21.3978
G1 X91.404 Y106.201 E21.4880
G1 X93.559 Y107.764 E21.6208
G1 X89.530 Y96.341 E22.2251
G1 X76.569 Y96.312 E22.8718
G1 X74.633 Y95.415 E22.9782
G1 X73.934 Y94.485 E23.0363
G1 X73.614 Y93.456 E23.0900
G1 X73.784 Y91.789 E23.1736
G1 X74.757 Y90.354 E23.2601
G1 X85.102 Y83.088 E23.8908
G1 X82.240 Y71.136 E24.5040
G1 X82.162 Y70.199 E24.5509
G1 X82.535 Y68.811 E24.6226
G1 X83.402 Y67.743 E24.6912
G1 X84.681 Y67.083 E24.7630
G1 X86.029 Y66.998 E24.8304
G1 X87.136 Y67.363 E24.8885
G1 X96.943 Y74.525 E25.4944
G1 X106.328 Y67.612 E26.0759
G1 X107.517 Y67.074 E26.1410
G1 X108.940 Y67.027 E26.2121
G1 X110.203 Y67.523 E26.2798
G1 X110.970 Y68.206 E26.3310
G1 X111.525 Y69.193 E26.3875
G1 X111.712 Y70.650 E26.4608
G1 X108.787 Y83.085 E27.0981
G1 X119.184 Y90.400 E27.7323
G1 X120.210 Y92.130 E27.8327
G1 X120.229 Y93.741 E27.9131
G1 X119.732 Y94.858 E27.9740
G1 X118.880 Y95.710 E28.0342
G1 X117.571 Y96.261 E28.1050
G1 X104.365 Y96.341 E28.7639
G0 F3900 X104.080 Y95.943
G1 F900 X99.628 Y108.672 E29.4367
G1 X98.756 Y109.711 E29.5043
G1 X97.602 Y110.255 E29.5680
G1 X96.290 Y110.218 E29.6335
G1 X112.296 Y122.065 E30.6269
G1 X133.313 Y106.582 E31.9293
G1 X134.217 Y106.135 E31.9796
G1 X135.086 Y106.004 E32.0235
G1 X136.805 Y106.543 E32.1133
G1 X137.443 Y107.145 E32.1571
G1 X137.877 Y107.900 E32.2005
G1 X138.010 Y109.695 E32.2903
G1 X131.686 Y136.103 E33.6451
G1 X154.011 Y151.730 E35.0046
G1 X154.834 Y152.631 E35.0655
G1 X155.227 Y153.667 E35.1208
G1 X155.186 Y154.911 E35.1829
G1 X154.616 Y156.059 E35.2468
G1 X153.684 Y156.836 E35.3074
G1 X152.605 Y157.169 E35.3637
G1 X124.431 Y157.190 E36.7693
G1 X115.130 Y183.974 E38.1839
G1 X114.635 Y184.853 E38.2342
G1 X113.989 Y185.455 E38.2782
G1 X112.628 Y185.949 E38.3505
G1 X111.560 Y185.886 E38.4039
G1 X110.631 Y185.470 E38.4546
G1 X109.463 Y183.976 E38.5492
G1 X100.161 Y157.190 E39.9639
G1 X72.299 Y157.190 E41.3539
G1 X71.428 Y157.052 E41.3979
G1 X70.525 Y156.596 E41.4484
G1 X69.467 Y155.148 E41.5379
G1 X69.320 Y154.095 E41.5909
G1 X69.564 Y153.006 E41.6466
G1 X70.503 Y151.799 E41.7229
G1 X92.905 Y136.103 E43.0876
G1 X86.525 Y109.325 E44.4609
G1 X86.640 Y108.143 E44.5202
G1 X87.257 Y107.028 E44.5837
G1 X88.496 Y106.190 E44.6584
G1 X89.563 Y106.007 E44.7124
G1 X91.277 Y106.580 E44.8025
G1 X94.368 Y108.856 E44.9940
G1 X89.813 Y95.942 E45.6772
G1 X76.570 Y95.912 E46.3379
G1 X74.947 Y95.167 E46.4270
G1 X74.316 Y94.366 E46.4779
G1 X73.996 Y93.337 E46.5317
G1 X74.181 Y91.838 E46.6070
G1 X74.987 Y90.681 E46.6774
G1 X85.554 Y83.259 E47.3216
G1 X82.629 Y71.043 E47.9483
G1 X82.561 Y70.168 E47.9921
G1 X82.852 Y69.055 E48.0495
G1 X83.594 Y68.094 E48.1100
G1 X84.715 Y67.482 E48.1737
G1 X85.911 Y67.380 E48.2336
G1 X86.900 Y67.686 E48.2853
G1 X96.944 Y75.021 E48.9058
G1 X106.565 Y67.934 E49.5019
G1 X107.679 Y67.440 E49.5627
G1 X108.794 Y67.399 E49.6184
G1 X110.057 Y67.895 E49.6861
G1 X110.695 Y68.497 E49.7299
G1 X111.129 Y69.252 E49.7733
G1 X111.323 Y70.558 E49.8392
G1 X108.336 Y83.257 E50.4900
G1 X118.954 Y90.727 E51.1377
G1 X119.862 Y92.327 E51.2295
G1 X119.860 Y93.587 E51.2924
G1 X119.449 Y94.575 E51.3457
G1 X118.597 Y95.427 E51.4059
G1 X117.569 Y95.861 E51.4615
G1 X104.080 Y95.943 E52.1345
G0 F3900 X103.795 Y95.544
G1 F900 X99.250 Y108.540 E52.8214
G1 X98.585 Y109.349 E52.8736
G1 X97.431 Y109.893 E52.9373
G1 X96.039 Y109.800 E53.0069
G1 X95.773 Y110.390 E53.0392
G1 X112.296 Y122.562 E54.0630
G1 X133.550 Y106.904 E55.3801
G1 X134.277 Y106.531 E55.4209
G1 X135.146 Y106.400 E55.4647
G1 X136.530 Y106.834 E55.5371
G1 X137.168 Y107.436 E55.5808
G1 X137.526 Y108.092 E55.6181
G1 X137.621 Y109.602 E55.6936
G1 X131.234 Y136.275 E57.0619
G1 X153.782 Y152.058 E58.4351
G1 X154.460 Y152.773 E58.4842
G1 X154.853 Y153.809 E58.5395
G1 X154.787 Y154.887 E58.5934
G1 X154.263 Y155.871 E58.6490
G1 X153.559 Y156.456 E58.6947
G1 X152.605 Y156.769 E58.7448
G1 X124.146 Y156.790 E60.1646
G1 X114.752 Y183.843 E61.5933
G1 X114.362 Y184.560 E61.6340
G1 X113.716 Y185.162 E61.6781
G1 X112.501 Y185.570 E61.7420
G1 X111.596 Y185.488 E61.7874
G1 X110.803 Y185.109 E61.8312
G1 X109.841 Y183.845 E61.9105
G1 X100.446 Y156.790 E63.3393
G1 X72.299 Y156.790 E64.7436
G1 X71.493 Y156.657 E64.7843
G1 X70.712 Y156.243 E64.8284
G1 X69.861 Y155.082 E64.9003
G1 X69.710 Y154.182 E64.9458
G1 X69.954 Y153.093 E65.0015
G1 X70.733 Y152.127 E65.0634
G1 X93.357 Y136.275 E66.4416
G1 X86.914 Y109.232 E67.8285
G1 X87.037 Y108.190 E67.8809
G1 X87.602 Y107.231 E67.9364
G1 X88.710 Y106.528 E68.0019
G1 X89.618 Y106.403 E68.0476
G1 X91.040 Y106.902 E68.1228
G1 X94.384 Y109.365 E68.3300
G1 X94.866 Y108.961 E68.3614
G1 X90.096 Y95.543 E69.0718
G1 X76.571 Y95.512 E69.7466
G1 X75.255 Y94.912 E69.8188
G1 X74.694 Y94.234 E69.8627
G1 X74.394 Y93.373 E69.9081
G1 X74.513 Y92.060 E69.9739
G1 X75.217 Y91.008 E70.0371
G1 X86.006 Y83.430 E70.6948
G1 X83.018 Y70.950 E71.3351
G1 X82.960 Y70.139 E71.3756
G1 X83.237 Y69.164 E71.4262
G1 X83.795 Y68.440 E71.4718
G1 X84.759 Y67.880 E71.5274
G1 X85.802 Y67.765 E71.5798
G1 X86.664 Y68.009 E71.6245
G1 X96.945 Y75.517 E72.2596
G1 X106.802 Y68.256 E72.8704
G1 X107.694 Y67.840 E72.9195
G1 X108.809 Y67.799 E72.9752
G1 X109.782 Y68.186 E73.0274
G1 X110.420 Y68.788 E73.0712
G1 X110.778 Y69.444 E73.1085
G1 X110.934 Y70.466 E73.1600
G1 X107.885 Y83.429 E73.8244
G1 X118.724 Y91.054 E74.4856
G1 X119.462 Y92.336 E74.5594
G1 X119.486 Y93.444 E74.6147
G1 X119.158 Y94.300 E74.6604
G1 X118.441 Y95.058 E74.7124
G1 X117.413 Y95.492 E74.7681
G1 X103.795 Y95.544 E75.4475
G0 F3900 X103.511 Y95.144
G1 F900 X98.872 Y108.408 E76.1486
G1 X98.405 Y108.992 E76.1859
G1 X97.413 Y109.493 E76.2413
G1 X96.666 Y109.526 E76.2786
G1 X95.807 Y109.341 E76.3225
G1 X95.275 Y110.520 E76.3870
G1 X112.296 Y123.059 E77.4417
G1 X133.787 Y107.226 E78.7735
G1 X134.457 Y106.888 E78.8109
G1 X135.195 Y106.797 E78.8480
G1 X136.263 Y107.132 E78.9039
G1 X136.817 Y107.628 E78.9410
G1 X137.175 Y108.284 E78.9782
G1 X137.232 Y109.509 E79.0394
G1 X130.782 Y136.447 E80.4213
G1 X153.553 Y152.386 E81.8081
G1 X154.086 Y152.915 E81.8455
G1 X154.479 Y153.951 E81.9008
G1 X154.434 Y154.699 E81.9382
G1 X153.910 Y155.683 E81.9938
G1 X153.316 Y156.138 E82.0311
G1 X152.605 Y156.369 E82.0684
G1 X123.861 Y156.390 E83.5025
G1 X114.374 Y183.712 E84.9454
G1 X114.012 Y184.366 E84.9827
G1 X113.451 Y184.862 E85.0201
G1 X112.384 Y185.187 E85.0757
G1 X111.648 Y185.091 E85.1127
G1 X110.984 Y184.753 E85.1499
G1 X110.219 Y183.714 E85.2143
G1 X100.731 Y156.390 E86.6573
G1 X72.299 Y156.390 E88.0758
G1 X71.561 Y156.263 E88.1132
G1 X70.908 Y155.895 E88.1506
G1 X70.253 Y155.000 E88.2059
G1 X70.100 Y154.269 E88.2432
G1 X70.344 Y153.180 E88.2988
G1 X71.034 Y152.390 E88.3512
G1 X93.809 Y136.447 E89.7381
G1 X87.303 Y109.139 E91.1387
G1 X87.382 Y108.393 E91.1761
G1 X87.947 Y107.434 E91.2316
G1 X88.911 Y106.874 E91.2873
G1 X89.657 Y106.801 E91.3247
G1 X90.803 Y107.224 E91.3856
G1 X94.400 Y109.874 E91.6085
G1 X95.365 Y109.065 E91.6713
G1 X94.869 Y108.069 E91.7268
G1 X90.381 Y95.144 E92.4094
G1 X76.572 Y95.112 E93.0984
G1 X75.556 Y94.649 E93.1541
G1 X75.066 Y94.087 E93.1913
G1 X74.793 Y93.394 E93.2284
G1 X74.851 Y92.274 E93.2844
G1 X75.447 Y91.335 E93.3399
G1 X86.458 Y83.601 E94.0112
G1 X83.407 Y70.857 E94.6649
G1 X83.359 Y70.113 E94.7021
G1 X83.563 Y69.396 E94.7393
G1 X83.996 Y68.786 E94.7767
G1 X84.960 Y68.226 E94.8323
G1 X85.706 Y68.153 E94.8697
G1 X86.428 Y68.332 E94.9068
G1 X96.946 Y76.013 E95.5566
G1 X107.039 Y68.578 E96.1820
G1 X107.709 Y68.240 E96.2194
G1 X108.824 Y68.199 E96.2751
G1 X109.515 Y68.484 E96.3124
G1 X110.069 Y68.980 E96.3495
G1 X110.427 Y69.636 E96.3867
G1 X110.545 Y70.374 E96.4240
G1 X107.434 Y83.601 E97.1019
G1 X118.494 Y91.381 E97.7766
G1 X119.062 Y92.345 E97.8324
G1 X119.086 Y93.453 E97.8877
G1 X118.790 Y94.142 E97.9251
G1 X118.285 Y94.689 E97.9622
G1 X117.257 Y95.123 E98.0179
G1 X103.511 Y95.144 E98.7037
G1 F2400 E95.7037
G0 F3900 X114.201 Y99.985
G1 F1500 E98.7037
G1 F900 X114.664 Y99.084 E98.7542
G1 X115.293 Y98.425 E98.7997
G1 X131.645 Y86.956 E99.7961
G1 X127.057 Y67.799 E100.7789
G1 X126.992 Y66.727 E100.8325
G1 X127.297 Y65.596 E100.8909
G1 X128.299 Y64.345 E100.9709
G1 X129.543 Y63.732 E101.0401
G1 X130.785 Y63.669 E101.1021
G1 X132.384 Y64.276 E101.1875
G1 X147.550 Y75.448 E102.1272
G1 X162.718 Y64.275 E103.0671
G1 X164.054 Y63.703 E103.1396
G1 X165.342 Y63.695 E103.2039
G1 X166.714 Y64.285 E103.2784
G1 X167.736 Y65.456 E103.3559
G1 X168.092 Y66.579 E103.4147
G1 X168.074 Y67.569 E103.4641
G1 X163.454 Y86.956 E104.4584
G1 X179.647 Y98.292 E105.4446
G1 X180.407 Y99.046 E105.4980
G1 X180.886 Y99.937 E105.5484
G1 X181.014 Y101.707 E105.6370
G1 X180.488 Y102.992 E105.7063
G1 X179.624 Y103.850 E105.7670
G1 X178.012 Y104.459 E105.8530
G1 X157.508 Y104.480 E106.8759
G1 X150.610 Y124.248 E107.9205
G1 X149.849 Y125.269 E107.9840
G1 X148.738 Y125.957 E108.0492
G1 X147.583 Y126.173 E108.1078
G1 X146.402 Y125.963 E108.1677
G1 X145.191 Y125.200 E108.2391
G1 X144.419 Y124.073 E108.3072
G1 X137.591 Y104.480 E109.3424
G1 X117.021 Y104.448 E110.3686
G1 X115.229 Y103.662 E110.4663
G1 X114.434 Y102.695 E110.5287
G1 X114.037 Y101.341 E110.5991
G1 X114.201 Y99.985 E110.6672
G0 F3900 X114.598 Y100.033
G1 F900 X115.014 Y99.277 E110.7103
G1 X115.578 Y98.706 E110.7503
G1 X132.097 Y87.128 E111.7567
G1 X127.446 Y67.706 E112.7531
G1 X127.378 Y66.831 E112.7969
G1 X127.683 Y65.700 E112.8553
G1 X128.485 Y64.699 E112.9193
G1 X129.563 Y64.131 E112.9801
G1 X130.805 Y64.068 E113.0422
G1 X132.147 Y64.598 E113.1141
G1 X147.550 Y75.945 E114.0686
G1 X162.955 Y64.597 E115.0232
G1 X164.069 Y64.103 E115.0840
G1 X165.184 Y64.062 E115.1396
G1 X166.556 Y64.652 E115.2142
G1 X167.427 Y65.710 E115.2825
G1 X167.707 Y66.689 E115.3333
G1 X167.674 Y67.554 E115.3765
G1 X163.002 Y87.128 E116.3805
G1 X179.418 Y98.620 E117.3802
G1 X180.055 Y99.235 E117.4244
G1 X180.534 Y100.126 E117.4749
G1 X180.640 Y101.565 E117.5469
G1 X180.206 Y102.708 E117.6079
G1 X179.342 Y103.566 E117.6686
G1 X178.012 Y104.059 E117.7394
G1 X157.223 Y104.080 E118.7765
G1 X150.232 Y124.116 E119.8352
G1 X149.532 Y125.025 E119.8925
G1 X148.535 Y125.612 E119.9502
G1 X147.519 Y125.778 E120.0016
G1 X146.480 Y125.571 E120.0544
G1 X145.411 Y124.866 E120.1183
G1 X144.754 Y123.855 E120.1785
G1 X137.876 Y104.080 E121.2230
G1 X117.022 Y104.048 E122.2634
G1 X115.396 Y103.299 E122.3527
G1 X114.752 Y102.453 E122.4058
G1 X114.434 Y101.389 E122.4612
G1 X114.598 Y100.033 E122.5293
G0 F3900 X114.948 Y100.226
G1 F900 X115.364 Y99.470 E122.5724
G1 X115.856 Y98.993 E122.6066
G1 X132.549 Y87.300 E123.6234
G1 X127.835 Y67.613 E124.6333
G1 X127.777 Y66.802 E124.6739
G1 X127.995 Y65.950 E124.7178
G1 X128.797 Y64.949 E124.7818
G1 X129.738 Y64.491 E124.8340
G1 X130.662 Y64.441 E124.8801
G1 X131.910 Y64.920 E124.9468
G1 X147.550 Y76.442 E125.9160
G1 X163.192 Y64.919 E126.8853
G1 X164.084 Y64.503 E126.9344
G1 X165.199 Y64.462 E126.9900
G1 X166.387 Y65.015 E127.0554
G1 X167.045 Y65.828 E127.1076
G1 X167.307 Y66.674 E127.1518
G1 X167.274 Y67.539 E127.1950
G1 X162.550 Y87.300 E128.2086
G1 X179.189 Y98.948 E129.2219
G1 X179.775 Y99.521 E129.2628
G1 X180.178 Y100.308 E129.3069
G1 X180.240 Y101.584 E129.3707
G1 X179.915 Y102.433 E129.4160
G1 X179.196 Y103.194 E129.4683
G1 X178.012 Y103.659 E129.5317
G1 X156.938 Y103.680 E130.5831
G1 X149.854 Y123.984 E131.6560
G1 X149.220 Y124.775 E131.7065
G1 X148.461 Y125.219 E131.7504
G1 X147.586 Y125.384 E131.7948
G1 X146.691 Y125.231 E131.8401
G1 X145.744 Y124.644 E131.8957
G1 X145.132 Y123.724 E131.9508
G1 X138.161 Y103.680 E133.0096
G1 X117.023 Y103.648 E134.0642
G1 X115.707 Y103.048 E134.1363
G1 X115.135 Y102.338 E134.1818
G1 X114.817 Y101.274 E134.2372
G1 X114.948 Y100.226 E134.2899
G0 F3900 X115.303 Y100.410
G1 F900 X115.642 Y99.757 E134.3266
G1 X116.134 Y99.280 E134.3608
G1 X133.001 Y87.472 E135.3880
G1 X128.224 Y67.520 E136.4116
G1 X128.176 Y66.776 E136.4488
G1 X128.380 Y66.059 E136.4859
G1 X129.102 Y65.208 E136.5416
G1 X129.777 Y64.889 E136.5789
G1 X130.523 Y64.816 E136.6163
G1 X131.673 Y65.242 E136.6775
G1 X147.550 Y76.939 E137.6613
G1 X163.429 Y65.241 E138.6453
G1 X164.099 Y64.903 E138.6827
G1 X165.214 Y64.862 E138.7384
G1 X166.204 Y65.371 E138.7939
G1 X166.667 Y65.957 E138.8312
G1 X166.907 Y66.659 E138.8682
G1 X166.874 Y67.524 E138.9114
G1 X162.098 Y87.472 E139.9347
G1 X178.960 Y99.276 E140.9616
G1 X179.493 Y99.805 E140.9991
G1 X179.817 Y100.481 E141.0365
G1 X179.840 Y101.592 E141.0919
G1 X179.547 Y102.275 E141.1290
G1 X179.040 Y102.825 E141.1663
G1 X178.012 Y103.259 E141.2220
G1 X156.653 Y103.280 E142.2876
G1 X149.476 Y123.852 E143.3746
G1 X149.009 Y124.435 E143.4119
G1 X148.377 Y124.828 E143.4490
G1 X147.638 Y124.987 E143.4867
G1 X146.902 Y124.891 E143.5237
G1 X145.955 Y124.304 E143.5793
G1 X145.473 Y123.515 E143.6255
G1 X138.446 Y103.280 E144.6941
G1 X117.024 Y103.248 E145.7629
G1 X116.008 Y102.785 E145.8186
