;Sliced by ideaMaker 5.2.4.8581, 2025-10-17 06:30:26 UTC+0200
;Slicer Version: 5.2.3.8580
;Dimension: 250.000 250.000 250.000 0.400
;Plate Shape: 0
;Origin Center: 0
;Extruder Offset #1: 25.000 0.000
;Filament Diameter #1: 1.750
;Filament Diameter #2: 1.750
;Filament Compensation #1: 94.000
;Filament Compensation #2: 90.000
;Filament Density #1: 1240.000
;Filament Density #2: 1240.000
;Filament Type #1: PLA
;Filament Type #2: PLA
;Filament Name #1: [Raise3D] Premium PLA 1.75mm
;Filament Name #2: [Raise3D] Premium PLA 1.75mm
;Filament #1: PLA 1.75mm
;Filament #2: PLA 1.75mm
;Printer Type: floppy
;Firmware: Klipper
;Bounding Box: 96.500 153.500 77.117 172.930 0.000 36.000
;Model Gap: 0.000
M221 T0 S94.00
M140 S45.00
M104 T0 S200.00
M109 T0 S200.00
T0
M190 S45.00
G21 ;metric values
G90 ;absolute positioning
M82 ;set extruder to absolute mode
M107 ;start with the fan off
G28 X0 Y0 ;move X/Y to min endstops
G28 Z0 ;move Z to min endstops
G1 Z15.0 F9000 ;move the platform down 15mm
G92 E0 ;zero the extruded length
G0 X43 Y27 F2000  ;go to the edge of the bed
G92 X0 Y0 E0 ;set zero to edge of the bed
G0 F9000 Z1 ;Z up with 1mm
G1 F200 Z0 ;Z home slowly
G1 Z15.0 F9000 ;move the platform down 15mm
G1 F9000 ;speed setting
G92 E-3 ;retraction
M117 Printing...
M1001
;TOTAL_NUM: 1
;PRINTING_TIME: 0
;REMAINING_TIME: 7239
;LAYER:0
;Z:0.300
;HEIGHT:0.300
;PRINTING: NON-OBJECT
;PRINTING_ID: -1
G1 F2400 E-3.0000
G0 F3900 X114.598 Y86.975
G0 F300 Z0.300
;TYPE:SKIRT
;WIDTH:0.400
G1 F1500 E0.0000
G1 F900 X115.154 Y86.264 E0.0450
G1 X116.001 Y86.000 E0.0893
G1 X131.146 Y86.000 E0.8449
G1 X130.158 Y85.164 E0.9094
G1 X129.192 Y83.268 E1.0156
G1 X129.063 Y81.523 E1.1029
G1 X129.575 Y79.791 E1.1930
G1 X130.770 Y78.273 E1.2894
G1 X132.478 Y77.315 E1.3871
G1 X134.678 Y77.117 E1.4973
G1 X136.395 Y77.681 E1.5875
G1 X137.663 Y78.676 E1.6679
G1 X138.818 Y80.810 E1.7889
G1 X138.963 Y82.390 E1.8681
G1 X138.602 Y83.923 E1.9467
G1 X137.397 Y85.650 E2.0517
G1 X136.944 Y85.971 E2.0794
G1 X151.997 Y86.000 E2.8304
G1 X153.153 Y86.541 E2.8941
G1 X153.500 Y87.501 E2.9450
G1 X153.500 Y97.497 E3.4437
G1 X152.959 Y98.653 E3.5074
G1 X151.999 Y99.000 E3.5583
G1 X140.500 Y99.000 E4.1320
G1 X140.403 Y163.022 E7.3261
G1 X139.846 Y163.736 E7.3713
G1 X138.999 Y164.000 E7.4155
G1 X129.073 Y164.000 E7.9107
G1 X128.637 Y164.841 E7.9580
G1 X126.222 Y166.924 E8.1171
G1 X124.979 Y167.498 E8.1854
G1 X123.718 Y167.714 E8.2493
G1 X122.033 Y167.461 E8.3343
G1 X120.198 Y166.423 E8.4394
G1 X118.836 Y166.202 E8.5083
G1 X116.983 Y165.386 E8.6093
G1 X116.179 Y164.611 E8.6650
G1 X115.891 Y164.000 E8.6987
G1 X108.751 Y164.000 E9.0549
G1 X109.681 Y164.850 E9.1178
G1 X110.629 Y166.734 E9.2230
G1 X110.762 Y168.456 E9.3092
G1 X110.275 Y170.135 E9.3964
G1 X109.071 Y171.698 E9.4948
G1 X107.352 Y172.679 E9.5936
G1 X105.614 Y172.930 E9.6812
G1 X103.935 Y172.561 E9.7669
G1 X101.972 Y171.093 E9.8892
G1 X101.097 Y169.497 E9.9800
G1 X100.847 Y167.767 E10.0672
G1 X101.534 Y165.437 E10.1884
G1 X102.461 Y164.297 E10.2617
G1 X102.859 Y164.024 E10.2858
G1 X97.831 Y163.961 E10.5367
G1 X96.847 Y163.459 E10.5918
G1 X96.500 Y162.496 E10.6429
G1 X96.597 Y146.975 E11.4172
G1 X97.154 Y146.264 E11.4623
G1 X98.001 Y146.000 E11.5065
G1 X102.832 Y146.000 E11.7476
G1 X101.841 Y145.166 E11.8122
G1 X100.970 Y143.571 E11.9029
G1 X100.720 Y141.843 E11.9900
G1 X101.258 Y139.797 E12.0955
G1 X102.328 Y138.380 E12.1841
G1 X104.156 Y137.319 E12.2895
G1 X105.968 Y137.080 E12.3807
G1 X107.938 Y137.611 E12.4825
G1 X109.452 Y138.804 E12.5787
G1 X110.454 Y140.657 E12.6838
G1 X110.633 Y142.532 E12.7777
G1 X110.151 Y144.203 E12.8645
G1 X109.071 Y145.660 E12.9550
G1 X108.629 Y145.972 E12.9820
G1 X116.184 Y146.101 E13.3590
G1 X116.818 Y144.801 E13.4311
G1 X117.800 Y143.927 E13.4967
G1 X119.401 Y143.386 E13.5810
G1 X121.121 Y143.598 E13.6675
G1 X122.127 Y143.200 E13.7215
G1 X123.388 Y143.040 E13.7849
G1 X124.617 Y143.227 E13.8469
G1 X125.526 Y143.192 E13.8923
G1 X126.686 Y143.467 E13.9518
G1 X127.486 Y143.985 E13.9993
G1 X127.500 Y99.000 E16.2436
G1 X116.003 Y99.000 E16.8172
G1 X115.080 Y98.683 E16.8659
G1 X114.500 Y97.495 E16.9318
G1 X114.598 Y86.975 E17.4567
G0 F3900 X114.965 Y87.133
G1 F900 X115.356 Y86.609 E17.4893
G1 X116.001 Y86.400 E17.5232
G1 X131.433 Y86.400 E18.2931
G1 X131.616 Y85.854 E18.3218
G1 X130.512 Y84.977 E18.3921
G1 X129.590 Y83.232 E18.4906
G1 X129.447 Y81.636 E18.5705
G1 X129.959 Y79.904 E18.6606
G1 X131.080 Y78.525 E18.7493
G1 X132.668 Y77.667 E18.8394
G1 X134.559 Y77.499 E18.9341
G1 X136.148 Y77.996 E19.0171
G1 X137.416 Y78.991 E19.0975
G1 X138.420 Y80.847 E19.2028
G1 X138.565 Y82.427 E19.2820
G1 X138.214 Y83.826 E19.3539
G1 X137.072 Y85.417 E19.4516
G1 X136.485 Y85.788 E19.4863
G1 X136.639 Y86.400 E19.5178
G1 X151.997 Y86.400 E20.2840
G1 X152.854 Y86.807 E20.3313
G1 X153.100 Y87.501 E20.3681
G1 X153.100 Y97.497 E20.8668
G1 X152.693 Y98.354 E20.9141
G1 X151.999 Y98.600 E20.9508
G1 X140.100 Y98.600 E21.5445
G1 X140.035 Y162.866 E24.7507
G1 X139.644 Y163.391 E24.7834
G1 X138.999 Y163.600 E24.8172
G1 X128.819 Y163.600 E25.3251
G1 X128.376 Y164.538 E25.3768
G1 X125.961 Y166.621 E25.5359
G1 X124.816 Y167.133 E25.5985
G1 X123.655 Y167.319 E25.6572
G1 X122.097 Y167.066 E25.7359
G1 X120.333 Y166.038 E25.8378
G1 X118.997 Y165.836 E25.9052
G1 X117.144 Y165.020 E26.0062
G1 X116.464 Y164.330 E26.0545
G1 X116.157 Y163.600 E26.0941
G1 X108.470 Y163.600 E26.4776
G1 X108.280 Y164.127 E26.5055
G1 X109.326 Y165.035 E26.5746
G1 X110.231 Y166.771 E26.6723
G1 X110.376 Y168.351 E26.7514
G1 X109.958 Y169.891 E26.8311
G1 X108.754 Y171.454 E26.9295
G1 X107.160 Y172.328 E27.0202
G1 X105.563 Y172.533 E27.1005
G1 X104.027 Y172.172 E27.1792
G1 X102.323 Y170.901 E27.2853
G1 X101.448 Y169.305 E27.3761
G1 X101.244 Y167.716 E27.4560
G1 X101.844 Y165.689 E27.5615
G1 X102.771 Y164.549 E27.6348
G1 X103.318 Y164.212 E27.6668
G1 X103.165 Y163.600 E27.6983
G1 X98.003 Y163.600 E27.9558
G1 X97.146 Y163.193 E28.0032
G1 X96.900 Y162.498 E28.0400
G1 X96.965 Y147.133 E28.8065
G1 X97.356 Y146.609 E28.8392
G1 X98.001 Y146.400 E28.8730
G1 X103.119 Y146.400 E29.1283
G1 X103.302 Y145.854 E29.1570
G1 X102.192 Y144.974 E29.2277
G1 X101.321 Y143.379 E29.3184
G1 X101.117 Y141.792 E29.3982
G1 X101.643 Y139.904 E29.4960
G1 X102.643 Y138.626 E29.5769
G1 X104.352 Y137.668 E29.6747
G1 X106.014 Y137.477 E29.7582
G1 X107.828 Y137.996 E29.8523
G1 X109.199 Y139.114 E29.9405
G1 X110.056 Y140.701 E30.0305
G1 X110.247 Y142.427 E30.1172
G1 X109.830 Y143.965 E30.1967
G1 X108.750 Y145.422 E30.2871
G1 X108.171 Y145.788 E30.3213
G1 X108.325 Y146.404 E30.3530
G1 X116.433 Y146.504 E30.7575
G1 X117.178 Y144.976 E30.8424
G1 X118.058 Y144.232 E30.8998
G1 X119.384 Y143.786 E30.9696
G1 X120.504 Y143.833 E31.0256
G1 X121.142 Y144.022 E31.0588
G1 X122.177 Y143.597 E31.1146
G1 X123.438 Y143.437 E31.1780
G1 X124.591 Y143.629 E31.2363
G1 X125.542 Y143.592 E31.2838
G1 X126.589 Y143.855 E31.3377
G1 X127.454 Y144.448 E31.3900
G1 X127.900 Y144.225 E31.4149
G1 X127.900 Y98.600 E33.6911
G1 X116.003 Y98.600 E34.2846
G1 X115.344 Y98.382 E34.3193
G1 X114.900 Y97.498 E34.3686
G1 X114.965 Y87.133 E34.8857
G0 F3900 X116.001 Y86.800
G1 F900 X131.721 Y86.800 E35.6700
G1 X132.086 Y85.708 E35.7275
G1 X130.863 Y84.785 E35.8039
G1 X129.988 Y83.189 E35.8947
G1 X129.831 Y81.749 E35.9670
G1 X130.343 Y80.017 E36.0571
G1 X131.270 Y78.877 E36.1304
G1 X132.858 Y78.019 E36.2204
G1 X134.440 Y77.881 E36.2997
G1 X136.029 Y78.378 E36.3827
G1 X137.163 Y79.301 E36.4557
G1 X138.022 Y80.890 E36.5458
G1 X138.177 Y82.330 E36.6180
G1 X137.826 Y83.729 E36.6900
G1 X136.751 Y85.179 E36.7801
G1 X136.023 Y85.589 E36.8217
G1 X136.327 Y86.800 E36.8840
G1 X151.997 Y86.800 E37.6658
G1 X152.553 Y87.070 E37.6967
G1 X152.700 Y87.501 E37.7194
G1 X152.700 Y97.497 E38.2181
G1 X152.430 Y98.053 E38.2489
G1 X151.999 Y98.200 E38.2716
G1 X139.700 Y98.200 E38.8852
G1 X139.667 Y162.710 E42.1036
G1 X139.430 Y163.053 E42.1244
G1 X138.999 Y163.200 E42.1472
G1 X128.555 Y163.200 E42.6682
G1 X128.115 Y164.235 E42.7243
G1 X125.700 Y166.318 E42.8834
G1 X124.658 Y166.765 E42.9400
G1 X123.596 Y166.923 E42.9936
G1 X122.166 Y166.672 E43.0660
G1 X120.470 Y165.653 E43.1647
G1 X119.158 Y165.470 E43.2308
G1 X117.305 Y164.654 E43.3318
G1 X116.758 Y164.059 E43.3721
G1 X116.433 Y163.200 E43.4180
G1 X108.189 Y163.200 E43.8293
G1 X107.808 Y164.256 E43.8853
G1 X108.974 Y165.225 E43.9609
G1 X109.833 Y166.814 E44.0510
G1 X109.988 Y168.254 E44.1233
G1 X109.637 Y169.653 E44.1952
G1 X108.562 Y171.103 E44.2853
G1 X106.968 Y171.977 E44.3760
G1 X105.520 Y172.135 E44.4487
G1 X104.125 Y171.784 E44.5204
G1 X102.674 Y170.709 E44.6105
G1 X101.799 Y169.113 E44.7013
G1 X101.642 Y167.673 E44.7736
G1 X102.154 Y165.941 E44.8637
G1 X103.081 Y164.801 E44.9370
G1 X103.780 Y164.413 E44.9769
G1 X103.478 Y163.200 E45.0392
G1 X98.003 Y163.200 E45.3124
G1 X97.447 Y162.930 E45.3432
G1 X97.300 Y162.499 E45.3660
G1 X97.333 Y147.290 E46.1247
G1 X97.570 Y146.947 E46.1455
G1 X98.001 Y146.800 E46.1683
G1 X103.407 Y146.800 E46.4380
G1 X103.772 Y145.708 E46.4954
G1 X102.543 Y144.782 E46.5722
G1 X101.672 Y143.187 E46.6628
G1 X101.515 Y141.749 E46.7350
G1 X102.027 Y140.017 E46.8251
G1 X102.953 Y138.878 E46.8984
G1 X104.542 Y138.020 E46.9884
G1 X106.052 Y137.875 E47.0641
G1 X107.712 Y138.379 E47.1507
G1 X108.847 Y139.304 E47.2237
G1 X109.704 Y140.891 E47.3137
G1 X109.859 Y142.330 E47.3859
G1 X109.509 Y143.727 E47.4578
G1 X108.429 Y145.184 E47.5482
G1 X107.709 Y145.588 E47.5894
G1 X108.012 Y146.800 E47.6518
G1 X116.687 Y146.907 E48.0846
G1 X117.444 Y145.275 E48.1744
G1 X118.193 Y144.608 E48.2244
G1 X119.367 Y144.186 E48.2866
G1 X120.487 Y144.233 E48.3426
G1 X121.162 Y144.448 E48.3779
G1 X122.233 Y143.993 E48.4360
G1 X123.372 Y143.832 E48.4933
G1 X124.566 Y144.031 E48.5537
G1 X125.445 Y143.980 E48.5977
G1 X126.492 Y144.243 E48.6515
G1 X127.416 Y144.915 E48.7085
G1 X128.300 Y144.472 E48.7578
G1 X128.300 Y98.200 E51.0664
G1 X116.003 Y98.200 E51.6799
G1 X115.602 Y98.076 E51.7008
G1 X115.300 Y97.499 E51.7333
G1 X115.333 Y87.290 E52.2426
G1 X115.570 Y86.947 E52.2634
G1 X116.001 Y86.800 E52.2861
;PRINTING: sensor_halter_RA.stl
;PRINTING_ID: 0
G1 F2400 E49.2861
G1 F300 Z0.500
G0 F3900 X138.800 Y97.300
;TYPE:WALL-OUTER
;WIDTH:0.400
G1 F300 Z0.300
G1 F1500 E52.2861
G1 F2400 X138.800 Y162.300 E55.5290
G1 X129.200 Y162.300 E56.0080
G1 X129.200 Y97.300 E59.2508
G1 X116.200 Y97.300 E59.8994
G1 X116.200 Y87.700 E60.3783
G1 X151.800 Y87.700 E62.1544
G1 X151.800 Y97.300 E62.6334
G1 X138.800 Y97.300 E63.2820
G0 F3900 X138.400 Y96.900
;TYPE:WALL-INNER
;WIDTH:0.400
G1 F2400 X138.400 Y161.900 E66.5248
G1 X129.600 Y161.900 E66.9638
G1 X129.600 Y96.900 E70.2067
G1 X116.600 Y96.900 E70.8553
G1 X116.600 Y88.100 E71.2943
G1 X151.400 Y88.100 E73.0305
G1 X151.400 Y96.900 E73.4695
G1 X138.400 Y96.900 E74.1181
G0 F3900 X138.000 Y96.500
G1 F2400 X138.000 Y161.500 E77.3610
G1 X130.000 Y161.500 E77.7601
G1 X130.000 Y96.500 E81.0030
G1 X117.000 Y96.500 E81.6515
G1 X117.000 Y88.500 E82.0506
G1 X151.000 Y88.500 E83.7469
G1 X151.000 Y96.500 E84.1460
G1 X138.000 Y96.500 E84.7946
G0 F3900 X137.600 Y96.100
G1 F2400 X137.600 Y161.100 E88.0375
G1 X130.400 Y161.100 E88.3967
G1 X130.400 Y96.100 E91.6395
G1 X117.400 Y96.100 E92.2881
G1 X117.400 Y88.900 E92.6473
G1 X150.600 Y88.900 E94.3037
G1 X150.600 Y96.100 E94.6629
G1 X137.600 Y96.100 E95.3115
G1 F2400 E92.3115
G1 F300 Z0.500
G0 F3900 X149.895 Y89.084
;TYPE:SOLID-FILL
;WIDTH:0.400
G1 F300 Z0.300
G1 F1500 E95.3115
G1 F2400 X150.415 Y89.604 E95.3481
G0 F2400 X150.415 Y90.170
G1 F2400 X149.329 Y89.084 E95.4248
G0 F2400 X148.763 Y89.084
G1 F2400 X150.415 Y90.735 E95.5413
G0 F2400 X150.415 Y91.301
G1 F2400 X148.198 Y89.084 E95.6977
G0 F2400 X147.632 Y89.084
G1 F2400 X150.415 Y91.867 E95.8941
G0 F2400 X150.415 Y92.432
G1 F2400 X147.066 Y89.084 E96.1303
G0 F2400 X146.501 Y89.084
G1 F2400 X150.415 Y92.998 E96.4065
G0 F2400 X150.415 Y93.564
G1 F2400 X145.935 Y89.084 E96.7226
G0 F2400 X145.369 Y89.084
G1 F2400 X150.415 Y94.130 E97.0786
G0 F2400 X150.415 Y94.695
G1 F2400 X144.804 Y89.084 E97.4745
G0 F2400 X144.238 Y89.084
G1 F2400 X150.415 Y95.261 E97.9103
G0 F2400 X150.415 Y95.827
G1 F2400 X143.672 Y89.084 E98.3861
G0 F2400 X143.107 Y89.084
G1 F2400 X149.939 Y95.916 E98.8681
G0 F2400 X149.373 Y95.916
G1 F2400 X142.541 Y89.084 E99.3501
G0 F2400 X141.975 Y89.084
G1 F2400 X148.807 Y95.916 E99.8322
G0 F2400 X148.242 Y95.916
G1 F2400 X141.410 Y89.084 E100.3142
G0 F2400 X140.844 Y89.084
G1 F2400 X147.676 Y95.916 E100.7962
G0 F2400 X147.110 Y95.916
G1 F2400 X140.278 Y89.084 E101.2783
G0 F2400 X139.712 Y89.084
G1 F2400 X146.545 Y95.916 E101.7603
G0 F2400 X145.979 Y95.916
G1 F2400 X139.147 Y89.084 E102.2424
G0 F2400 X138.581 Y89.084
G1 F2400 X145.413 Y95.916 E102.7244
G0 F2400 X144.847 Y95.916
G1 F2400 X138.015 Y89.084 E103.2064
G0 F2400 X137.450 Y89.084
G1 F2400 X144.282 Y95.916 E103.6885
G0 F2400 X143.716 Y95.916
G1 F2400 X136.884 Y89.084 E104.1705
G0 F2400 X136.318 Y89.084
G1 F2400 X143.150 Y95.916 E104.6525
G0 F2400 X142.585 Y95.916
G1 F2400 X135.753 Y89.084 E105.1346
G0 F2400 X135.187 Y89.084
G1 F2400 X142.019 Y95.916 E105.6166
G0 F2400 X141.453 Y95.916
G1 F2400 X134.621 Y89.084 E106.0986
G0 F2400 X134.056 Y89.084
G1 F2400 X140.888 Y95.916 E106.5807
G0 F2400 X140.322 Y95.916
G1 F2400 X133.490 Y89.084 E107.0627
G0 F2400 X132.924 Y89.084
G1 F2400 X139.756 Y95.916 E107.5447
G0 F2400 X139.191 Y95.916
G1 F2400 X132.359 Y89.084 E108.0268
G0 F2400 X131.793 Y89.084
G1 F2400 X138.625 Y95.916 E108.5088
G0 F2400 X138.059 Y95.916
G1 F2400 X131.227 Y89.084 E108.9908
G0 F2400 X130.662 Y89.084
G1 F2400 X137.494 Y95.916 E109.4729
G0 F2400 X137.415 Y96.403
G1 F2400 X130.096 Y89.084 E109.9893
G0 F2400 X129.530 Y89.084
G1 F2400 X137.415 Y96.969 E110.5456
G0 F2400 X137.415 Y97.534
G1 F2400 X128.964 Y89.084 E111.1418
G0 F2400 X128.399 Y89.084
G1 F2400 X137.415 Y98.100 E111.7780
G0 F2400 X137.415 Y98.666
G1 F2400 X127.833 Y89.084 E112.4540
G0 F2400 X127.267 Y89.084
G1 F2400 X137.415 Y99.231 E113.1700
G0 F2400 X137.415 Y99.797
G1 F2400 X126.702 Y89.084 E113.9258
G0 F2400 X126.136 Y89.084
G1 F2400 X137.415 Y100.363 E114.7216
G0 F2400 X137.415 Y100.928
G1 F2400 X125.570 Y89.084 E115.5573
G0 F2400 X125.005 Y89.084
G1 F2400 X137.415 Y101.494 E116.4329
G0 F2400 X137.415 Y102.060
G1 F2400 X124.439 Y89.084 E117.3485
G0 F2400 X123.873 Y89.084
G1 F2400 X137.415 Y102.625 E118.3039
G0 F2400 X137.415 Y103.191
G1 F2400 X130.582 Y96.358 E118.7860
G0 F2400 X130.582 Y96.924
G1 F2400 X137.415 Y103.757 E119.2681
G0 F2400 X137.415 Y104.322
G1 F2400 X130.582 Y97.490 E119.7502
G0 F2400 X130.582 Y98.055
G1 F2400 X137.415 Y104.888 E120.2323
G0 F2400 X137.415 Y105.454
G1 F2400 X130.582 Y98.621 E120.7144
G0 F2400 X130.582 Y99.187
G1 F2400 X137.415 Y106.020 E121.1965
G0 F2400 X137.415 Y106.585
G1 F2400 X130.582 Y99.752 E121.6786
G0 F2400 X130.582 Y100.318
G1 F2400 X137.415 Y107.151 E122.1607
G0 F2400 X137.415 Y107.717
G1 F2400 X130.582 Y100.884 E122.6428
G0 F2400 X130.582 Y101.450
G1 F2400 X137.415 Y108.282 E123.1249
G0 F2400 X137.415 Y108.848
G1 F2400 X130.582 Y102.015 E123.6070
G0 F2400 X130.582 Y102.581
G1 F2400 X137.415 Y109.414 E124.0891
G0 F2400 X137.415 Y109.979
G1 F2400 X130.582 Y103.147 E124.5711
G0 F2400 X130.582 Y103.712
G1 F2400 X137.415 Y110.545 E125.0532
G0 F2400 X137.415 Y111.111
G1 F2400 X130.582 Y104.278 E125.5353
G0 F2400 X130.582 Y104.844
G1 F2400 X137.415 Y111.676 E126.0174
G0 F2400 X137.415 Y112.242
G1 F2400 X130.582 Y105.409 E126.4995
G0 F2400 X130.582 Y105.975
G1 F2400 X137.415 Y112.808 E126.9816
G0 F2400 X137.415 Y113.373
G1 F2400 X130.582 Y106.541 E127.4637
G0 F2400 X130.582 Y107.106
G1 F2400 X137.415 Y113.939 E127.9458
G0 F2400 X137.415 Y114.505
G1 F2400 X130.582 Y107.672 E128.4279
G0 F2400 X130.582 Y108.238
G1 F2400 X137.415 Y115.071 E128.9100
G0 F2400 X137.415 Y115.636
G1 F2400 X130.582 Y108.803 E129.3921
G0 F2400 X130.582 Y109.369
G1 F2400 X137.415 Y116.202 E129.8742
G0 F2400 X137.415 Y116.768
G1 F2400 X130.582 Y109.935 E130.3563
G0 F2400 X130.582 Y110.500
G1 F2400 X137.415 Y117.333 E130.8384
G0 F2400 X137.415 Y117.899
G1 F2400 X130.582 Y111.066 E131.3205
G0 F2400 X130.582 Y111.632
