;Sliced by ideaMaker 5.2.4.8581, 2025-08-31 11:59:43 UTC+0200
;Slicer Version: 5.2.3.8580
;Dimension: 250.000 250.000 250.000 0.400
;Plate Shape: 0
;Origin Center: 0
;Extruder Offset #1: 25.000 0.000
;Filament Diameter #1: 1.750
;Filament Diameter #2: 1.750
;Filament Compensation #1: 94.000
;Filament Compensation #2: 90.000
;Filament Density #1: 1240.000
;Filament Density #2: 1240.000
;Filament Type #1: PLA
;Filament Type #2: PLA
;Filament Name #1: [Raise3D] Premium PLA 1.75mm
;Filament Name #2: [Raise3D] Premium PLA 1.75mm
;Filament #1: PLA 1.75mm
;Filament #2: PLA 1.75mm
;Printer Type: floppy
;Firmware: Klipper
;Bounding Box: 57.200 192.799 49.975 200.024 0.000 14.400
;Model Gap: 0.000
M221 T0 S94.00
M140 S45.00
M104 T0 S200.00
M109 T0 S200.00
T0
M190 S45.00
G21 ;metric values
G90 ;absolute positioning
M82 ;set extruder to absolute mode
M107 ;start with the fan off
G28 X0 Y0 ;move X/Y to min endstops
G28 Z0 ;move Z to min endstops
G1 Z15.0 F9000 ;move the platform down 15mm
G92 E0 ;zero the extruded length
G0 X43 Y27 F2000  ;go to the edge of the bed
G92 X0 Y0 E0 ;set zero to edge of the bed
G0 F9000 Z1 ;Z up with 1mm
G1 F200 Z0 ;Z home slowly
G1 Z15.0 F9000 ;move the platform down 15mm
G1 F9000 ;speed setting
G92 E-3 ;retraction
M117 Printing...
M1001
;TOTAL_NUM: 1
;PRINTING_TIME: 0
;REMAINING_TIME: 8762
;LAYER:0
;Z:0.300
;HEIGHT:0.300
;PRINTING: NON-OBJECT
;PRINTING_ID: -1
G1 F2400 E-3.0000
G0 F3900 X60.734 Y74.351
G0 F300 Z0.300
;TYPE:SKIRT
;WIDTH:0.400
G1 F1500 E0.0000
G1 F900 X62.046 Y73.341 E0.0826
G1 X63.270 Y72.699 E0.1516
G1 X64.677 Y72.255 E0.2252
G1 X66.143 Y72.083 E0.2988
G1 X133.665 Y72.082 E3.6675
G1 X135.024 Y72.224 E3.7357
G1 X136.444 Y72.645 E3.8096
G1 X137.683 Y73.265 E3.8787
G1 X138.918 Y74.175 E3.9552
G1 X140.008 Y75.294 E4.0331
G1 X141.772 Y78.331 E4.2084
G1 X142.509 Y81.135 E4.3530
G1 X142.646 Y82.865 E4.4396
G1 X142.650 Y166.157 E8.5950
G1 X142.533 Y167.866 E8.6805
G1 X141.772 Y170.817 E8.8326
G1 X140.218 Y173.575 E8.9905
G1 X139.119 Y174.795 E9.0724
G1 X137.803 Y175.808 E9.1553
G1 X136.579 Y176.450 E9.2242
G1 X135.172 Y176.894 E9.2978
G1 X133.706 Y177.066 E9.3715
G1 X66.302 Y177.074 E12.7343
G1 X64.976 Y176.953 E12.8007
G1 X63.541 Y176.557 E12.8750
G1 X62.072 Y175.823 E12.9569
G1 X60.834 Y174.890 E13.0342
G1 X59.837 Y173.851 E13.1061
G1 X58.238 Y171.206 E13.2603
G1 X57.342 Y168.022 E13.4253
G1 X57.204 Y166.284 E13.5123
G1 X57.200 Y82.992 E17.6677
G1 X57.316 Y81.284 E17.7531
G1 X58.077 Y78.332 E17.9052
G1 X59.630 Y75.576 E18.0631
G1 X60.734 Y74.351 E18.1453
G0 F3900 X61.030 Y74.620
G1 F900 X62.289 Y73.659 E18.2243
G1 X63.454 Y73.054 E18.2898
G1 X64.796 Y72.637 E18.3599
G1 X66.188 Y72.480 E18.4298
G1 X133.623 Y72.480 E21.7942
G1 X134.982 Y72.622 E21.8623
G1 X136.329 Y73.028 E21.9325
G1 X137.502 Y73.622 E21.9981
G1 X138.680 Y74.496 E22.0713
G1 X139.720 Y75.572 E22.1460
G1 X141.385 Y78.433 E22.3111
G1 X142.122 Y81.237 E22.4558
G1 X142.247 Y82.895 E22.5387
G1 X142.250 Y166.157 E26.6927
G1 X142.134 Y167.838 E26.7767
G1 X141.385 Y170.716 E26.9251
G1 X139.870 Y173.377 E27.0779
G1 X138.823 Y174.526 E27.1554
G1 X137.560 Y175.490 E27.2347
G1 X136.395 Y176.095 E27.3002
G1 X135.053 Y176.512 E27.3703
G1 X133.661 Y176.669 E27.4402
G1 X66.302 Y176.674 E30.8007
G1 X65.013 Y176.555 E30.8653
G1 X63.649 Y176.172 E30.9360
G1 X62.252 Y175.466 E31.0141
G1 X61.076 Y174.572 E31.0878
G1 X60.127 Y173.575 E31.1565
G1 X58.581 Y171.000 E31.3063
G1 X57.728 Y167.915 E31.4660
G1 X57.603 Y166.254 E31.5491
G1 X57.600 Y82.992 E35.7031
G1 X57.715 Y81.311 E35.7871
G1 X58.464 Y78.433 E35.9355
G1 X59.978 Y75.774 E36.0881
G1 X61.030 Y74.620 E36.1660
G0 F3900 X61.324 Y74.891
G1 F900 X62.530 Y73.978 E36.2415
G1 X63.637 Y73.410 E36.3036
G1 X64.913 Y73.019 E36.3702
G1 X66.231 Y72.878 E36.4363
G1 X133.581 Y72.878 E39.7964
G1 X134.940 Y73.020 E39.8646
G1 X136.212 Y73.410 E39.9309
G1 X137.319 Y73.978 E39.9930
G1 X138.441 Y74.816 E40.0629
G1 X139.431 Y75.849 E40.1343
G1 X140.998 Y78.535 E40.2894
G1 X141.735 Y81.339 E40.4341
G1 X141.848 Y82.923 E40.5133
G1 X141.850 Y166.157 E44.6658
G1 X141.735 Y167.810 E44.7485
G1 X140.998 Y170.614 E44.8932
G1 X139.523 Y173.178 E45.0407
G1 X138.529 Y174.255 E45.1138
G1 X137.319 Y175.171 E45.1896
G1 X136.212 Y175.739 E45.2516
G1 X134.936 Y176.130 E45.3182
G1 X133.618 Y176.271 E45.3843
G1 X66.302 Y176.274 E48.7428
G1 X65.050 Y176.157 E48.8055
G1 X63.759 Y175.787 E48.8725
G1 X62.434 Y175.110 E48.9467
G1 X61.320 Y174.255 E49.0168
G1 X60.418 Y173.300 E49.0823
G1 X58.925 Y170.795 E49.2278
G1 X58.114 Y167.810 E49.3821
G1 X58.002 Y166.226 E49.4614
G1 X58.000 Y82.992 E53.6139
G1 X58.114 Y81.339 E53.6966
G1 X58.851 Y78.535 E53.8412
G1 X60.325 Y75.973 E53.9887
G1 X61.324 Y74.891 E54.0622
G1 F2400 E51.0622
G1 F300 Z0.500
G0 F3900 X156.265 Y77.700
G1 F300 Z0.300
G1 F1500 E54.0622
G1 F900 X156.253 Y50.953 E55.3966
G1 X156.810 Y50.239 E55.4418
G1 X157.657 Y49.975 E55.4860
G1 X191.509 Y50.008 E57.1749
G1 X192.517 Y50.600 E57.2332
G1 X192.799 Y51.476 E57.2791
G1 X192.799 Y123.722 E60.8835
G1 X192.482 Y124.645 E60.9322
G1 X192.081 Y124.945 E60.9572
G1 X192.514 Y125.395 E60.9883
G1 X192.799 Y126.276 E61.0345
G1 X192.702 Y199.046 E64.6650
G1 X192.145 Y199.760 E64.7102
G1 X191.297 Y200.024 E64.7545
G1 X157.133 Y199.927 E66.4590
G1 X156.420 Y199.370 E66.5041
G1 X156.156 Y198.521 E66.5485
G1 X156.253 Y172.298 E67.8568
G1 X156.689 Y171.693 E67.8940
G1 X157.344 Y171.373 E67.9303
G1 X160.965 Y171.168 E68.1113
G1 X163.160 Y170.633 E68.2240
G1 X165.197 Y169.763 E68.3345
G1 X166.937 Y168.622 E68.4383
G1 X168.350 Y167.246 E68.5367
G1 X169.375 Y165.712 E68.6287
G1 X169.995 Y164.080 E68.7158
G1 X170.202 Y162.399 E68.8003
G1 X169.995 Y160.719 E68.8848
G1 X169.375 Y159.087 E68.9719
G1 X168.350 Y157.553 E69.0639
G1 X166.937 Y156.177 E69.1623
G1 X165.197 Y155.036 E69.2661
G1 X163.160 Y154.166 E69.3767
G1 X160.965 Y153.631 E69.4894
G1 X157.332 Y153.421 E69.6709
G1 X156.626 Y153.048 E69.7108
G1 X156.199 Y152.281 E69.7546
G1 X156.156 Y126.280 E71.0517
G1 X156.473 Y125.355 E71.1005
G1 X156.874 Y125.055 E71.1255
G1 X156.441 Y124.605 E71.1567
G1 X156.156 Y123.724 E71.2029
G1 X156.156 Y98.024 E72.4850
G1 X156.473 Y97.101 E72.5337
G1 X157.070 Y96.656 E72.5709
G1 X160.958 Y96.369 E72.7654
G1 X163.160 Y95.833 E72.8785
G1 X165.197 Y94.963 E72.9890
G1 X166.937 Y93.822 E73.0928
G1 X168.350 Y92.446 E73.1912
G1 X169.375 Y90.912 E73.2832
G1 X169.995 Y89.280 E73.3703
G1 X170.202 Y87.600 E73.4548
G1 X169.995 Y85.919 E73.5393
G1 X169.375 Y84.287 E73.6264
G1 X168.350 Y82.753 E73.7184
G1 X166.937 Y81.377 E73.8168
G1 X165.197 Y80.236 E73.9206
G1 X163.160 Y79.366 E74.0311
G1 X160.965 Y78.831 E74.1438
G1 X157.332 Y78.621 E74.3254
G1 X156.626 Y78.248 E74.3652
G1 X156.265 Y77.700 E74.3980
G0 F3900 X156.599 Y77.480
G1 F900 X156.621 Y51.109 E75.7136
G1 X157.012 Y50.584 E75.7463
G1 X157.657 Y50.375 E75.7801
G1 X191.509 Y50.408 E77.4690
G1 X192.190 Y50.831 E77.5090
G1 X192.399 Y51.476 E77.5428
G1 X192.399 Y123.722 E81.1472
G1 X192.181 Y124.381 E81.1818
G1 X191.674 Y124.744 E81.2129
G1 X191.691 Y125.279 E81.2396
G1 X192.177 Y125.611 E81.2690
G1 X192.399 Y126.276 E81.3040
G1 X192.334 Y198.890 E84.9267
G1 X191.943 Y199.415 E84.9593
G1 X191.298 Y199.624 E84.9932
G1 X157.290 Y199.559 E86.6898
G1 X156.765 Y199.168 E86.7225
G1 X156.556 Y198.522 E86.7564
G1 X156.621 Y172.455 E88.0569
G1 X157.010 Y171.931 E88.0894
G1 X157.488 Y171.746 E88.1150
G1 X161.028 Y171.565 E88.2918
G1 X163.285 Y171.015 E88.4077
G1 X165.387 Y170.117 E88.5218
G1 X167.189 Y168.936 E88.6293
G1 X168.659 Y167.504 E88.7316
G1 X169.733 Y165.897 E88.8281
G1 X170.386 Y164.177 E88.9199
G1 X170.605 Y162.399 E89.0092
G1 X170.386 Y160.622 E89.0986
G1 X169.733 Y158.902 E89.1903
G1 X168.659 Y157.295 E89.2868
G1 X167.189 Y155.863 E89.3892
G1 X165.387 Y154.682 E89.4967
G1 X163.285 Y153.784 E89.6107
G1 X161.028 Y153.234 E89.7266
G1 X157.489 Y153.053 E89.9034
G1 X156.960 Y152.828 E89.9321
G1 X156.599 Y152.280 E89.9648
G1 X156.556 Y126.279 E91.2620
G1 X156.774 Y125.619 E91.2967
G1 X157.281 Y125.256 E91.3278
G1 X157.264 Y124.721 E91.3545
G1 X156.778 Y124.389 E91.3839
G1 X156.556 Y123.724 E91.4188
G1 X156.556 Y98.024 E92.7010
G1 X156.774 Y97.365 E92.7356
G1 X157.305 Y96.980 E92.7684
G1 X161.022 Y96.766 E92.9541
G1 X163.285 Y96.215 E93.0703
G1 X165.387 Y95.317 E93.1843
G1 X167.189 Y94.136 E93.2918
G1 X168.659 Y92.704 E93.3942
G1 X169.733 Y91.097 E93.4907
G1 X170.386 Y89.377 E93.5824
G1 X170.605 Y87.600 E93.6718
G1 X170.386 Y85.822 E93.7611
G1 X169.733 Y84.102 E93.8529
G1 X168.659 Y82.495 E93.9494
G1 X167.189 Y81.063 E94.0517
G1 X165.387 Y79.882 E94.1592
G1 X163.285 Y78.984 E94.2733
G1 X161.028 Y78.434 E94.3892
G1 X157.489 Y78.253 E94.5660
G1 X156.960 Y78.028 E94.5946
G1 X156.599 Y77.480 E94.6274
G0 F3900 X157.625 Y77.877
G1 F900 X157.232 Y77.735 E94.6482
G1 X156.990 Y77.394 E94.6691
G1 X156.989 Y51.265 E95.9727
G1 X157.226 Y50.922 E95.9935
G1 X157.657 Y50.775 E96.0162
G1 X191.509 Y50.808 E97.7051
G1 X191.852 Y51.045 E97.7259
G1 X191.999 Y51.476 E97.7486
G1 X191.999 Y123.722 E101.3530
G1 X191.875 Y124.123 E101.3739
G1 X191.267 Y124.537 E101.4106
G1 X191.298 Y125.508 E101.4591
G1 X191.852 Y125.845 E101.4914
G1 X191.999 Y126.276 E101.5141
G1 X191.966 Y198.734 E105.1291
G1 X191.729 Y199.077 E105.1499
G1 X191.298 Y199.224 E105.1726
G1 X157.446 Y199.191 E106.8615
G1 X157.103 Y198.954 E106.8823
G1 X156.956 Y198.523 E106.9050
G1 X156.989 Y172.611 E108.1978
G1 X157.225 Y172.269 E108.2185
G1 X157.626 Y172.122 E108.2398
G1 X161.085 Y171.963 E108.4125
G1 X163.410 Y171.397 E108.5319
G1 X165.573 Y170.473 E108.6493
G1 X167.441 Y169.248 E108.7607
G1 X168.967 Y167.761 E108.8670
G1 X170.092 Y166.079 E108.9680
G1 X170.777 Y164.274 E109.0643
G1 X171.008 Y162.399 E109.1585
G1 X170.777 Y160.525 E109.2528
G1 X170.092 Y158.720 E109.3491
G1 X168.967 Y157.038 E109.4500
G1 X167.441 Y155.551 E109.5563
G1 X165.573 Y154.326 E109.6678
G1 X163.410 Y153.402 E109.7851
G1 X161.085 Y152.836 E109.9045
G1 X157.625 Y152.677 E110.0773
G1 X157.232 Y152.535 E110.0982
G1 X156.990 Y152.194 E110.1190
G1 X156.956 Y126.278 E111.4120
G1 X157.080 Y125.877 E111.4329
G1 X157.688 Y125.463 E111.4696
G1 X157.657 Y124.492 E111.5181
G1 X157.103 Y124.155 E111.5504
G1 X156.956 Y123.724 E111.5731
G1 X156.956 Y98.024 E112.8553
G1 X157.080 Y97.623 E112.8763
G1 X157.409 Y97.366 E112.8971
G1 X161.085 Y97.163 E113.0808
G1 X163.410 Y96.597 E113.2001
G1 X165.573 Y95.673 E113.3175
G1 X167.441 Y94.448 E113.4289
G1 X168.967 Y92.961 E113.5352
G1 X170.092 Y91.279 E113.6362
G1 X170.777 Y89.474 E113.7325
G1 X171.008 Y87.600 E113.8267
G1 X170.777 Y85.725 E113.9210
G1 X170.092 Y83.920 E114.0173
G1 X168.967 Y82.238 E114.1182
G1 X167.441 Y80.751 E114.2245
G1 X165.573 Y79.526 E114.3360
G1 X163.410 Y78.602 E114.4533
G1 X161.085 Y78.036 E114.5727
G1 X157.625 Y77.877 E114.7455
;PRINTING: Spoon_holder.stl
;PRINTING_ID: 0
G1 F2400 E111.7455
G1 F300 Z0.500
G0 F3900 X61.966 Y75.521
;TYPE:WALL-OUTER
;WIDTH:0.400
G1 F300 Z0.300
G1 F1500 E114.7455
G1 F2400 X62.958 Y74.770 E114.8076
G1 X64.027 Y74.222 E114.8675
G1 X65.154 Y73.887 E114.9262
G1 X66.313 Y73.775 E114.9843
G1 X133.570 Y73.778 E118.3397
G1 X134.695 Y73.887 E118.3961
G1 X135.822 Y74.222 E118.4548
G1 X136.891 Y74.770 E118.5147
G1 X137.879 Y75.519 E118.5766
G1 X138.764 Y76.453 E118.6408
G1 X140.135 Y78.788 E118.7759
G1 X140.857 Y81.539 E118.9178
G1 X140.950 Y82.995 E118.9905
G1 X140.950 Y166.154 E123.1394
G1 X140.857 Y167.610 E123.2122
G1 X140.135 Y170.361 E123.3540
G1 X138.764 Y172.696 E123.4891
G1 X137.879 Y173.630 E123.5533
G1 X136.891 Y174.379 E123.6152
G1 X135.822 Y174.927 E123.6751
G1 X134.695 Y175.262 E123.7338
G1 X133.536 Y175.374 E123.7919
G1 X66.313 Y175.374 E127.1456
G1 X65.154 Y175.262 E127.2037
G1 X64.027 Y174.927 E127.2624
G1 X62.958 Y174.379 E127.3223
G1 X61.970 Y173.630 E127.3842
G1 X61.085 Y172.696 E127.4484
G1 X59.714 Y170.361 E127.5835
G1 X58.992 Y167.610 E127.7254
G1 X58.900 Y166.154 E127.7981
G1 X58.900 Y82.995 E131.9470
G1 X58.992 Y81.539 E132.0197
G1 X59.714 Y78.788 E132.1616
G1 X61.087 Y76.451 E132.2969
G1 X61.966 Y75.521 E132.3607
G0 F3900 X62.234 Y75.820
;TYPE:WALL-INNER
;WIDTH:0.400
G1 F2400 X63.172 Y75.110 E132.4194
G1 X64.176 Y74.595 E132.4757
G1 X65.231 Y74.281 E132.5306
G1 X66.332 Y74.175 E132.5858
G1 X133.551 Y74.178 E135.9394
G1 X134.618 Y74.281 E135.9928
G1 X135.673 Y74.595 E136.0478
G1 X136.677 Y75.110 E136.1041
G1 X138.442 Y76.695 E136.2224
G1 X139.762 Y78.943 E136.3525
G1 X140.460 Y81.603 E136.4897
G1 X140.550 Y83.008 E136.5599
G1 X140.550 Y166.141 E140.7074
G1 X140.460 Y167.546 E140.7777
G1 X139.762 Y170.206 E140.9149
G1 X138.442 Y172.454 E141.0449
G1 X136.677 Y174.039 E141.1633
G1 X135.673 Y174.554 E141.2196
G1 X134.618 Y174.868 E141.2745
G1 X133.517 Y174.974 E141.3297
G1 X66.332 Y174.974 E144.6815
G1 X65.231 Y174.868 E144.7367
G1 X64.176 Y174.554 E144.7916
G1 X63.172 Y174.039 E144.8479
G1 X61.407 Y172.454 E144.9663
G1 X60.087 Y170.206 E145.0963
G1 X59.389 Y167.546 E145.2335
G1 X59.300 Y166.141 E145.3038
G1 X59.300 Y83.008 E149.4513
G1 X59.389 Y81.603 E149.5215
G1 X60.087 Y78.943 E149.6587
G1 X61.409 Y76.693 E149.7889
G1 X62.234 Y75.820 E149.8489
G1 F2400 E146.8489
G1 F300 Z0.500
G0 F3900 X62.301 Y75.893
G0 X136.448 Y75.442
G1 F300 Z0.300
G1 F1500 E149.8489
G1 F2400 X138.129 Y76.951 E149.9616
G1 X139.389 Y79.098 E150.0858
G1 X140.063 Y81.667 E150.2183
G1 X140.150 Y83.021 E150.2860
G1 X140.150 Y166.128 E154.4322
G1 X140.063 Y167.482 E154.4999
G1 X139.389 Y170.051 E154.6324
G1 X138.129 Y172.198 E154.7566
G1 X136.448 Y173.707 E154.8693
G1 X135.523 Y174.181 E154.9211
G1 X134.541 Y174.474 E154.9723
G1 X133.498 Y174.574 E155.0245
G1 X66.351 Y174.574 E158.3745
G1 X65.308 Y174.474 E158.4268
G1 X63.401 Y173.707 E158.5293
G1 X61.720 Y172.198 E158.6420
G1 X60.460 Y170.051 E158.7662
G1 X59.786 Y167.482 E158.8987
G1 X59.700 Y166.128 E158.9664
G1 X59.700 Y83.021 E163.1126
G1 X59.786 Y81.667 E163.1803
G1 X60.460 Y79.098 E163.3128
G1 X61.731 Y76.935 E163.4380
G1 X62.502 Y76.119 E163.4940
G1 X64.326 Y74.968 E163.6016
G1 X65.308 Y74.675 E163.6527
G1 X66.351 Y74.575 E163.7050
G1 X133.532 Y74.578 E167.0567
G1 X134.541 Y74.675 E167.1073
G1 X136.448 Y75.442 E167.2098
G1 F2400 E164.2098
G1 F300 Z0.500
G0 F3900 X64.493 Y75.336
G1 F300 Z0.300
G1 F1500 E167.2098
G1 F2400 X66.370 Y74.975 E167.3052
G1 X133.513 Y74.978 E170.6549
G1 X134.445 Y75.068 E170.7017
G1 X136.233 Y75.787 E170.7978
G1 X137.816 Y77.207 E170.9039
G1 X139.016 Y79.253 E171.0222
G1 X139.666 Y81.731 E171.1500
G1 X139.750 Y83.034 E171.2152
G1 X139.750 Y166.115 E175.3601
G1 X139.666 Y167.418 E175.4253
G1 X139.016 Y169.896 E175.5531
G1 X137.816 Y171.942 E175.6714
G1 X136.219 Y173.375 E175.7785
G1 X134.464 Y174.080 E175.8728
G1 X133.479 Y174.174 E175.9222
G1 X66.370 Y174.174 E179.2703
G1 X65.404 Y174.081 E179.3187
G1 X63.616 Y173.362 E179.4148
G1 X62.033 Y171.942 E179.5209
G1 X60.833 Y169.896 E179.6392
G1 X60.183 Y167.418 E179.7671
G1 X60.100 Y166.115 E179.8322
G1 X60.100 Y83.034 E183.9771
G1 X60.183 Y81.731 E184.0423
G1 X60.833 Y79.253 E184.1701
G1 X62.053 Y77.177 E184.2902
G1 X62.758 Y76.430 E184.3415
G1 X64.493 Y75.336 E184.4438
G1 F2400 E181.4438
G1 F300 Z0.500
G0 F3900 X136.688 Y76.443
;TYPE:SOLID-FILL
;WIDTH:0.400
G1 F300 Z0.300
G1 F1500 E184.4438
G1 F2400 X137.813 Y77.568 E184.5232
G0 F2400 X138.616 Y78.937
G1 F2400 X135.282 Y75.603 E184.7584
G0 F2400 X134.358 Y75.244
G1 F2400 X138.988 Y79.874 E185.0851
G0 F2400 X139.190 Y80.641
G1 F2400 X133.732 Y75.184 E185.4701
G0 F2400 X133.144 Y75.161
G1 F2400 X139.391 Y81.409 E185.9109
G0 F2400 X139.505 Y82.088
G1 F2400 X132.578 Y75.161 E186.3996
G0 F2400 X132.013 Y75.161
G1 F2400 X139.543 Y82.691 E186.9309
G0 F2400 X139.565 Y83.280
G1 F2400 X131.447 Y75.161 E187.5037
G0 F2400 X130.881 Y75.161
G1 F2400 X139.565 Y83.845 E188.1164
G0 F2400 X139.565 Y84.411
G1 F2400 X130.316 Y75.161 E188.7690
G0 F2400 X129.750 Y75.161
G1 F2400 X139.565 Y84.977 E189.4616
G0 F2400 X139.565 Y85.542
G1 F2400 X129.184 Y75.161 E190.1940
G0 F2400 X128.619 Y75.161
G1 F2400 X139.565 Y86.108 E190.9663
G0 F2400 X139.565 Y86.674
G1 F2400 X128.053 Y75.161 E191.7786
G0 F2400 X127.487 Y75.161
G1 F2400 X139.565 Y87.240 E192.6308
