;Sliced by ideaMaker 5.2.3.8580, 2025-04-26 17:31:38 UTC+0200
;Slicer Version: 5.2.3.8580
;Dimension: 250.000 250.000 250.000 0.400
;Plate Shape: 0
;Origin Center: 0
;Extruder Offset #1: 25.000 0.000
;Filament Diameter #1: 1.750
;Filament Diameter #2: 1.750
;Filament Compensation #1: 94.000
;Filament Compensation #2: 90.000
;Filament Density #1: 1240.000
;Filament Density #2: 1240.000
;Filament Type #1: PLA
;Filament Type #2: PLA
;Filament Name #1: [Raise3D] Premium PLA 1.75mm
;Filament Name #2: [Raise3D] Premium PLA 1.75mm
;Filament #1: PLA 1.75mm
;Filament #2: PLA 1.75mm
;Printer Type: floppy
;Firmware: Klipper
;Bounding Box: 99.231 150.769 99.292 150.769 0.000 24.900
;Model Gap: 0.000
M221 T0 S94.00
M140 S50.00
M104 T0 S190.00
M109 T0 S190.00
T0
M190 S50.00
G21 ;metric values
G90 ;absolute positioning
M82 ;set extruder to absolute mode
M107 ;start with the fan off
G28 X0 Y0 ;move X/Y to min endstops
G28 Z0 ;move Z to min endstops
G1 Z15.0 F9000 ;move the platform down 15mm
G92 E0 ;zero the extruded length
G0 X43 Y27 F2000  ;go to the edge of the bed
G92 X0 Y0 E0 ;set zero to edge of the bed
G0 F9000 Z1 ;Z up with 1mm
G1 F200 Z0 ;Z home slowly
G1 Z15.0 F9000 ;move the platform down 15mm
G1 F9000 ;speed setting
G92 E-3 ;retraction
M117 Printing...
M1001
;TOTAL_NUM: 1
;PRINTING_TIME: 0
;REMAINING_TIME: 4428
;LAYER:0
;Z:0.300
;HEIGHT:0.300
;PRINTING: NON-OBJECT
;PRINTING_ID: -1
G1 F2400 E-3.0000
G0 F3900 X100.925 Y100.874
G0 F300 Z0.300
;TYPE:SKIRT
;WIDTH:0.400
G1 F1500 E0.0000
G1 F900 X104.830 Y99.292 E0.2102
G1 X145.419 Y99.294 E2.2352
G1 X149.322 Y101.324 E2.4547
G1 X150.708 Y104.817 E2.6422
G1 X150.769 Y145.094 E4.6516
G1 X149.075 Y149.126 E4.8698
G1 X145.183 Y150.708 E5.0794
G1 X104.906 Y150.769 E7.0888
G1 X100.874 Y149.075 E7.3070
G1 X99.292 Y145.183 E7.5166
G1 X99.231 Y104.906 E9.5260
G1 X100.925 Y100.874 E9.7442
G0 F3900 X101.204 Y101.161
G1 F900 X104.830 Y99.692 E9.9394
G1 X145.419 Y99.694 E11.9644
G1 X149.013 Y101.578 E12.1668
G1 X150.308 Y104.818 E12.3409
G1 X150.369 Y145.095 E14.3504
G1 X148.796 Y148.839 E14.5530
G1 X145.182 Y150.308 E14.7476
G1 X104.905 Y150.369 E16.7570
G1 X101.161 Y148.796 E16.9596
G1 X99.692 Y145.182 E17.1543
G1 X99.631 Y104.905 E19.1637
G1 X101.204 Y101.161 E19.3663
G0 F3900 X101.483 Y101.448
G1 F900 X104.830 Y100.092 E19.5465
G1 X145.419 Y100.094 E21.5715
G1 X148.703 Y101.831 E21.7568
G1 X149.908 Y104.819 E21.9175
G1 X149.969 Y145.096 E23.9270
G1 X148.517 Y148.552 E24.1140
G1 X145.181 Y149.908 E24.2936
G1 X104.904 Y149.969 E26.3031
G1 X101.448 Y148.517 E26.4901
G1 X100.092 Y145.181 E26.6697
G1 X100.031 Y104.904 E28.6792
G1 X101.483 Y101.448 E28.8662
G0 F3900 X101.762 Y101.735
G1 F900 X104.830 Y100.492 E29.0313
G1 X145.419 Y100.494 E31.0563
G1 X148.392 Y102.082 E31.2245
G1 X149.508 Y104.820 E31.3720
G1 X149.569 Y145.097 E33.3814
G1 X148.238 Y148.265 E33.5529
G1 X145.180 Y149.508 E33.7176
G1 X104.903 Y149.569 E35.7270
G1 X101.735 Y148.238 E35.8984
G1 X100.492 Y145.180 E36.0631
G1 X100.431 Y104.903 E38.0725
G1 X101.762 Y101.735 E38.2440
G0 F3900 X102.041 Y102.022
G1 F900 X104.830 Y100.892 E38.3941
G1 X145.419 Y100.894 E40.4191
G1 X148.080 Y102.332 E40.5700
G1 X149.108 Y104.821 E40.7044
G1 X149.169 Y145.098 E42.7138
G1 X147.959 Y147.978 E42.8696
G1 X145.179 Y149.108 E43.0193
G1 X104.902 Y149.169 E45.0288
G1 X102.022 Y147.959 E45.1846
G1 X100.892 Y145.179 E45.3343
G1 X100.831 Y104.902 E47.3438
G1 X102.041 Y102.022 E47.4996
G0 F3900 X102.320 Y102.309
G1 F900 X104.830 Y101.292 E47.6347
G1 X145.419 Y101.294 E49.6597
G1 X147.766 Y102.580 E49.7932
G1 X148.708 Y104.822 E49.9146
G1 X148.769 Y145.099 E51.9240
G1 X147.680 Y147.691 E52.0643
G1 X145.178 Y148.708 E52.1990
G1 X104.901 Y148.769 E54.2084
G1 X102.309 Y147.680 E54.3487
G1 X101.292 Y145.178 E54.4834
G1 X101.231 Y104.901 E56.4929
G1 X102.320 Y102.309 E56.6331
G0 F3900 X102.599 Y102.596
G1 F900 X104.830 Y101.692 E56.7532
G1 X145.419 Y101.694 E58.7782
G1 X147.450 Y102.826 E58.8942
G1 X148.308 Y104.823 E59.0027
G1 X148.369 Y145.100 E61.0121
G1 X147.401 Y147.404 E61.1368
G1 X145.177 Y148.308 E61.2566
G1 X104.900 Y148.369 E63.2660
G1 X102.596 Y147.401 E63.3907
G1 X101.692 Y145.177 E63.5104
G1 X101.631 Y104.900 E65.5199
G1 X102.599 Y102.596 E65.6445
G0 F3900 X102.878 Y102.883
G1 F900 X104.830 Y102.092 E65.7496
G1 X145.419 Y102.094 E67.7746
G1 X147.132 Y103.069 E67.8730
G1 X147.908 Y104.824 E67.9687
G1 X147.969 Y145.101 E69.9781
G1 X147.122 Y147.117 E70.0872
G1 X145.176 Y147.908 E70.1920
G1 X104.899 Y147.969 E72.2014
G1 X102.883 Y147.122 E72.3105
G1 X102.092 Y145.176 E72.4153
G1 X102.031 Y104.899 E74.4248
G1 X102.878 Y102.883 E74.5339
G0 F3900 X103.157 Y103.170
G1 F900 X104.830 Y102.492 E74.6239
G1 X145.419 Y102.494 E76.6489
G1 X146.811 Y103.308 E76.7294
G1 X147.508 Y104.825 E76.8127
G1 X147.569 Y145.102 E78.8221
G1 X146.843 Y146.830 E78.9156
G1 X145.175 Y147.508 E79.0054
G1 X104.898 Y147.569 E81.0149
G1 X103.170 Y146.843 E81.1084
G1 X102.492 Y145.175 E81.1982
G1 X102.431 Y104.898 E83.2076
G1 X103.157 Y103.170 E83.3011
G0 F3900 X103.436 Y103.457
G1 F900 X104.830 Y102.892 E83.3762
G1 X145.419 Y102.894 E85.4012
G1 X146.452 Y103.484 E85.4605
G1 X147.108 Y104.826 E85.5350
G1 X147.169 Y145.103 E87.5445
G1 X146.564 Y146.543 E87.6224
G1 X145.174 Y147.108 E87.6973
G1 X104.897 Y147.169 E89.7067
G1 X103.457 Y146.564 E89.7846
G1 X102.892 Y145.174 E89.8595
G1 X102.831 Y104.897 E91.8689
G1 X103.436 Y103.457 E91.9468
G0 F3900 X104.830 Y103.292
G1 F900 X145.419 Y103.294 E93.9718
G1 X146.098 Y103.671 E94.0106
G1 X146.708 Y104.827 E94.0758
G1 X146.769 Y145.104 E96.0852
G1 X146.285 Y146.256 E96.1475
G1 X145.173 Y146.708 E96.2074
G1 X104.896 Y146.769 E98.2169
G1 X103.744 Y146.285 E98.2792
G1 X103.292 Y145.173 E98.3391
G1 X103.231 Y104.896 E100.3485
G1 X103.715 Y103.744 E100.4109
G1 X104.830 Y103.292 E100.4709
G0 F3900 X104.830 Y103.692
G1 F900 X145.419 Y103.694 E102.4959
G1 X145.752 Y103.872 E102.5147
G1 X146.308 Y104.828 E102.5699
G1 X146.369 Y145.105 E104.5793
G1 X146.006 Y145.969 E104.6261
G1 X145.172 Y146.308 E104.6710
G1 X104.895 Y146.369 E106.6804
G1 X104.031 Y146.006 E106.7272
G1 X103.692 Y145.172 E106.7721
G1 X103.631 Y104.895 E108.7815
G1 X103.994 Y104.031 E108.8283
G1 X104.830 Y103.692 E108.8733
G0 F3900 X104.830 Y104.092
G1 F900 X145.419 Y104.094 E110.8983
G1 X145.908 Y104.829 E110.9423
G1 X145.969 Y145.106 E112.9517
G1 X145.727 Y145.682 E112.9829
G1 X145.171 Y145.908 E113.0129
G1 X104.894 Y145.969 E115.0223
G1 X104.318 Y145.727 E115.0535
G1 X104.092 Y145.171 E115.0834
G1 X104.031 Y104.894 E117.0928
G1 X104.273 Y104.318 E117.1240
G1 X104.830 Y104.092 E117.1540
G0 F3900 X104.830 Y104.492
G1 F900 X145.263 Y104.462 E119.1712
G1 X145.508 Y104.830 E119.1933
G1 X145.569 Y145.107 E121.2027
G1 X145.448 Y145.395 E121.2183
G1 X145.170 Y145.508 E121.2332
G1 X104.893 Y145.569 E123.2427
G1 X104.605 Y145.448 E123.2583
G1 X104.492 Y145.170 E123.2732
G1 X104.431 Y104.893 E125.2827
G1 X104.552 Y104.605 E125.2982
G1 X104.830 Y104.492 E125.3132
G0 F3900 X104.831 Y104.892
G1 F900 X145.108 Y104.831 E127.3226
G1 X145.169 Y145.108 E129.3321
G1 X104.892 Y145.169 E131.3415
G1 X104.831 Y104.892 E133.3509
;PRINTING: T??glalap_xy.stl
;PRINTING_ID: 0
G1 F2400 E130.3509
G0 F3900 X105.200 Y105.200
;TYPE:WALL-OUTER
;WIDTH:0.400
G1 F1500 E133.3509
G1 F2400 X144.800 Y105.200 E135.3266
G1 X144.800 Y144.800 E137.3022
G1 X105.200 Y144.800 E139.2779
G1 X105.200 Y105.200 E141.2535
G0 F3900 X105.600 Y105.600
;TYPE:WALL-INNER
;WIDTH:0.400
G1 F2400 X144.400 Y105.600 E143.1893
G1 X144.400 Y144.400 E145.1250
G1 X105.600 Y144.400 E147.0608
G1 X105.600 Y105.600 E148.9965
G0 F3900 X106.000 Y106.000
G1 F2400 X144.000 Y106.000 E150.8923
G1 X144.000 Y144.000 E152.7882
G1 X106.000 Y144.000 E154.6840
G1 X106.000 Y106.000 E156.5798
G0 F3900 X106.400 Y106.400
G1 F2400 X143.600 Y106.400 E158.4357
G1 X143.600 Y143.600 E160.2916
G1 X106.400 Y143.600 E162.1476
G1 X106.400 Y106.400 E164.0035
G1 F2400 E161.0035
G0 F3900 X106.583 Y143.070
;TYPE:SOLID-FILL
;WIDTH:0.400
G1 F1500 E164.0035
G1 F2400 X106.928 Y143.415 E164.0278
G0 F2400 X107.494 Y143.415
G1 F2400 X106.583 Y142.504 E164.0921
G0 F2400 X106.583 Y141.938
G1 F2400 X108.060 Y143.415 E164.1963
G0 F2400 X108.625 Y143.415
G1 F2400 X106.583 Y141.373 E164.3404
G0 F2400 X106.583 Y140.807
G1 F2400 X109.191 Y143.415 E164.5244
G0 F2400 X109.757 Y143.415
G1 F2400 X106.583 Y140.241 E164.7483
G0 F2400 X106.583 Y139.676
G1 F2400 X110.322 Y143.415 E165.0121
G0 F2400 X110.888 Y143.415
G1 F2400 X106.583 Y139.110 E165.3159
G0 F2400 X106.583 Y138.544
G1 F2400 X111.454 Y143.415 E165.6596
G0 F2400 X112.019 Y143.415
G1 F2400 X106.583 Y137.979 E166.0431
G0 F2400 X106.583 Y137.413
G1 F2400 X112.585 Y143.415 E166.4666
G0 F2400 X113.151 Y143.415
G1 F2400 X106.583 Y136.847 E166.9300
G0 F2400 X106.583 Y136.282
G1 F2400 X113.716 Y143.415 E167.4332
G0 F2400 X114.282 Y143.415
G1 F2400 X106.583 Y135.716 E167.9764
G0 F2400 X106.583 Y135.150
G1 F2400 X114.848 Y143.415 E168.5596
G0 F2400 X115.413 Y143.415
G1 F2400 X106.583 Y134.585 E169.1826
G0 F2400 X106.583 Y134.019
G1 F2400 X115.979 Y143.415 E169.8455
G0 F2400 X116.545 Y143.415
G1 F2400 X106.583 Y133.453 E170.5484
G0 F2400 X106.583 Y132.887
G1 F2400 X117.111 Y143.415 E171.2912
G0 F2400 X117.676 Y143.415
G1 F2400 X106.583 Y132.322 E172.0739
G0 F2400 X106.583 Y131.756
G1 F2400 X118.242 Y143.415 E172.8965
G0 F2400 X118.808 Y143.415
G1 F2400 X106.583 Y131.190 E173.7590
G0 F2400 X106.583 Y130.625
G1 F2400 X119.373 Y143.415 E174.6614
G0 F2400 X119.939 Y143.415
G1 F2400 X106.583 Y130.059 E175.6038
G0 F2400 X106.583 Y129.493
G1 F2400 X120.505 Y143.415 E176.5860
G0 F2400 X121.070 Y143.415
G1 F2400 X106.583 Y128.928 E177.6082
G0 F2400 X106.583 Y128.362
G1 F2400 X121.636 Y143.415 E178.6702
G0 F2400 X122.202 Y143.415
G1 F2400 X106.583 Y127.796 E179.7723
G0 F2400 X106.583 Y127.231
G1 F2400 X122.767 Y143.415 E180.9141
G0 F2400 X123.333 Y143.415
G1 F2400 X106.583 Y126.665 E182.0959
G0 F2400 X106.583 Y126.099
G1 F2400 X123.899 Y143.415 E183.3177
G0 F2400 X124.464 Y143.415
G1 F2400 X106.583 Y125.534 E184.5793
G0 F2400 X106.583 Y124.968
G1 F2400 X125.030 Y143.415 E185.8808
G0 F2400 X125.596 Y143.415
G1 F2400 X106.583 Y124.402 E187.2223
G0 F2400 X106.583 Y123.837
G1 F2400 X126.161 Y143.415 E188.6036
G0 F2400 X126.727 Y143.415
G1 F2400 X106.583 Y123.271 E190.0249
G0 F2400 X106.583 Y122.705
G1 F2400 X127.293 Y143.415 E191.4861
G0 F2400 X127.859 Y143.415
G1 F2400 X106.583 Y122.139 E192.9872
G0 F2400 X106.583 Y121.574
G1 F2400 X128.424 Y143.415 E194.5282
G0 F2400 X128.990 Y143.415
G1 F2400 X106.583 Y121.008 E196.1091
G0 F2400 X106.583 Y120.442
G1 F2400 X129.556 Y143.415 E197.7300
G0 F2400 X130.121 Y143.415
G1 F2400 X106.583 Y119.877 E199.3907
G0 F2400 X106.583 Y119.311
G1 F2400 X130.687 Y143.415 E201.0914
G0 F2400 X131.253 Y143.415
G1 F2400 X106.583 Y118.745 E202.8320
G0 F2400 X106.583 Y118.180
G1 F2400 X131.818 Y143.415 E204.6125
G0 F2400 X132.384 Y143.415
G1 F2400 X106.583 Y117.614 E206.4329
G0 F2400 X106.583 Y117.048
G1 F2400 X132.950 Y143.415 E208.2932
G0 F2400 X133.515 Y143.415
G1 F2400 X106.583 Y116.483 E210.1934
G0 F2400 X106.583 Y115.917
G1 F2400 X134.081 Y143.415 E212.1335
G0 F2400 X134.647 Y143.415
G1 F2400 X106.583 Y115.351 E214.1136
G0 F2400 X106.583 Y114.786
G1 F2400 X135.212 Y143.415 E216.1335
G0 F2400 X135.778 Y143.415
G1 F2400 X106.583 Y114.220 E218.1934
G0 F2400 X106.583 Y113.654
G1 F2400 X136.344 Y143.415 E220.2932
G0 F2400 X136.910 Y143.415
G1 F2400 X106.583 Y113.089 E222.4329
G0 F2400 X106.583 Y112.523
G1 F2400 X137.475 Y143.415 E224.6125
G0 F2400 X138.041 Y143.415
G1 F2400 X106.583 Y111.957 E226.8320
G0 F2400 X106.583 Y111.391
G1 F2400 X138.607 Y143.415 E229.0915
G0 F2400 X139.172 Y143.415
G1 F2400 X106.583 Y110.826 E231.3908
G0 F2400 X106.583 Y110.260
G1 F2400 X139.738 Y143.415 E233.7301
G0 F2400 X140.304 Y143.415
G1 F2400 X106.583 Y109.694 E236.1093
G0 F2400 X106.583 Y109.129
G1 F2400 X140.869 Y143.415 E238.5284
G0 F2400 X141.435 Y143.415
G1 F2400 X106.583 Y108.563 E240.9874
G0 F2400 X106.583 Y107.997
G1 F2400 X142.001 Y143.415 E243.4863
G0 F2400 X142.566 Y143.415
G1 F2400 X106.583 Y107.432 E246.0251
G0 F2400 X106.583 Y106.866
G1 F2400 X143.132 Y143.415 E248.6038
G0 F2400 X143.415 Y143.132
G1 F2400 X106.866 Y106.583 E251.1825
G0 F2400 X107.432 Y106.583
G1 F2400 X143.415 Y142.566 E253.7213
G0 F2400 X143.415 Y142.001
G1 F2400 X107.997 Y106.583 E256.2203
G0 F2400 X108.563 Y106.583
G1 F2400 X143.415 Y141.435 E258.6793
G0 F2400 X143.415 Y140.869
G1 F2400 X109.129 Y106.583 E261.0983
G0 F2400 X109.694 Y106.583
G1 F2400 X143.415 Y140.304 E263.4775
G0 F2400 X143.415 Y139.738
G1 F2400 X110.260 Y106.583 E265.8168
G0 F2400 X110.826 Y106.583
G1 F2400 X143.415 Y139.172 E268.1161
G0 F2400 X143.415 Y138.607
G1 F2400 X111.391 Y106.583 E270.3756
G0 F2400 X111.957 Y106.583
G1 F2400 X143.415 Y138.041 E272.5951
G0 F2400 X143.415 Y137.475
G1 F2400 X112.523 Y106.583 E274.7747
G0 F2400 X113.089 Y106.583
G1 F2400 X143.415 Y136.910 E276.9144
G0 F2400 X143.415 Y136.344
G1 F2400 X113.654 Y106.583 E279.0142
G0 F2400 X114.220 Y106.583
G1 F2400 X143.415 Y135.778 E281.0741
G0 F2400 X143.415 Y135.212
G1 F2400 X114.786 Y106.583 E283.0940
G0 F2400 X115.351 Y106.583
G1 F2400 X143.415 Y134.647 E285.0741
G0 F2400 X143.415 Y134.081
G1 F2400 X115.917 Y106.583 E287.0142
G0 F2400 X116.483 Y106.583
G1 F2400 X143.415 Y133.515 E288.9144
G0 F2400 X143.415 Y132.950
G1 F2400 X117.048 Y106.583 E290.7747
G0 F2400 X117.614 Y106.583
G1 F2400 X143.415 Y132.384 E292.5951
G0 F2400 X143.415 Y131.818
G1 F2400 X118.180 Y106.583 E294.3756
G0 F2400 X118.745 Y106.583
G1 F2400 X143.415 Y131.253 E296.1162
G0 F2400 X143.415 Y130.687
G1 F2400 X119.311 Y106.583 E297.8169
G0 F2400 X119.877 Y106.583
G1 F2400 X143.415 Y130.121 E299.4776
G0 F2400 X143.415 Y129.556
G1 F2400 X120.442 Y106.583 E301.0985
G0 F2400 X121.008 Y106.583
G1 F2400 X143.415 Y128.990 E302.6794
G0 F2400 X143.415 Y128.424
G1 F2400 X121.574 Y106.583 E304.2204
G0 F2400 X122.139 Y106.583
G1 F2400 X143.415 Y127.859 E305.7215
G0 F2400 X143.415 Y127.293
G1 F2400 X122.705 Y106.583 E307.1827
G0 F2400 X123.271 Y106.583
G1 F2400 X143.415 Y126.727 E308.6040
G0 F2400 X143.415 Y126.161
G1 F2400 X123.837 Y106.583 E309.9854
G0 F2400 X124.402 Y106.583
G1 F2400 X143.415 Y125.596 E311.3268
G0 F2400 X143.415 Y125.030
G1 F2400 X124.968 Y106.583 E312.6284
G0 F2400 X125.534 Y106.583
G1 F2400 X143.415 Y124.464 E313.8900
G0 F2400 X143.415 Y123.899
G1 F2400 X126.099 Y106.583 E315.1117
G0 F2400 X126.665 Y106.583
G1 F2400 X143.415 Y123.333 E316.2935
G0 F2400 X143.415 Y122.767
G1 F2400 X127.231 Y106.583 E317.4354
G0 F2400 X127.796 Y106.583
G1 F2400 X143.415 Y122.202 E318.5374
G0 F2400 X143.415 Y121.636
G1 F2400 X128.362 Y106.583 E319.5994
G0 F2400 X128.928 Y106.583
G1 F2400 X143.415 Y121.070 E320.6216
G0 F2400 X143.415 Y120.505
G1 F2400 X129.493 Y106.583 E321.6038
G0 F2400 X130.059 Y106.583
G1 F2400 X143.415 Y119.939 E322.5462
G0 F2400 X143.415 Y119.373
G1 F2400 X130.625 Y106.583 E323.4486
G0 F2400 X131.190 Y106.583
G1 F2400 X143.415 Y118.808 E324.3111
G0 F2400 X143.415 Y118.242
G1 F2400 X131.756 Y106.583 E325.1337
G0 F2400 X132.322 Y106.583
G1 F2400 X143.415 Y117.676 E325.9164
G0 F2400 X143.415 Y117.111
G1 F2400 X132.887 Y106.583 E326.6592
G0 F2400 X133.453 Y106.583
G1 F2400 X143.415 Y116.545 E327.3621
G0 F2400 X143.415 Y115.979
G1 F2400 X134.019 Y106.583 E328.0250
G0 F2400 X134.585 Y106.583
G1 F2400 X143.415 Y115.413 E328.6480
G0 F2400 X143.415 Y114.848
G1 F2400 X135.150 Y106.583 E329.2312
G0 F2400 X135.716 Y106.583
G1 F2400 X143.415 Y114.282 E329.7744
G0 F2400 X143.415 Y113.716
G1 F2400 X136.282 Y106.583 E330.2776
G0 F2400 X136.847 Y106.583
G1 F2400 X143.415 Y113.151 E330.7411
G0 F2400 X143.415 Y112.585
G1 F2400 X137.413 Y106.583 E331.1645
G0 F2400 X137.979 Y106.583
G1 F2400 X143.415 Y112.019 E331.5481
G0 F2400 X143.415 Y111.454
G1 F2400 X138.544 Y106.583 E331.8917
G0 F2400 X139.110 Y106.583
G1 F2400 X143.415 Y110.888 E332.1955
G0 F2400 X143.415 Y110.322
G1 F2400 X139.676 Y106.583 E332.4593
G0 F2400 X140.241 Y106.583
G1 F2400 X143.415 Y109.757 E332.6832
G0 F2400 X143.415 Y109.191
G1 F2400 X140.807 Y106.583 E332.8672
