;Sliced by ideaMaker 5.2.4.8581, 2025-10-19 11:45:48 UTC+0200
;Slicer Version: 5.2.3.8580
;Dimension: 250.000 250.000 250.000 0.400
;Plate Shape: 0
;Origin Center: 0
;Extruder Offset #1: 25.000 0.000
;Filament Diameter #1: 1.750
;Filament Diameter #2: 1.750
;Filament Compensation #1: 94.000
;Filament Compensation #2: 90.000
;Filament Density #1: 1240.000
;Filament Density #2: 1240.000
;Filament Type #1: PLA
;Filament Type #2: PLA
;Filament Name #1: [Raise3D] Premium PLA 1.75mm
;Filament Name #2: [Raise3D] Premium PLA 1.75mm
;Filament #1: PLA 1.75mm
;Filament #2: PLA 1.75mm
;Printer Type: floppy
;Firmware: Klipper
;Bounding Box: 81.221 168.779 81.495 168.580 0.000 1.500
;Model Gap: 0.000
M221 T0 S94.00
M140 S45.00
M104 T0 S200.00
M109 T0 S200.00
T0
M190 S45.00
G21 ;metric values
G90 ;absolute positioning
M82 ;set extruder to absolute mode
M107 ;start with the fan off
G28 X0 Y0 ;move X/Y to min endstops
G28 Z0 ;move Z to min endstops
G1 Z15.0 F9000 ;move the platform down 15mm
G92 E0 ;zero the extruded length
G0 X43 Y27 F2000  ;go to the edge of the bed
G92 X0 Y0 E0 ;set zero to edge of the bed
G0 F9000 Z1 ;Z up with 1mm
G1 F200 Z0 ;Z home slowly
G1 Z15.0 F9000 ;move the platform down 15mm
G1 F9000 ;speed setting
G92 E-3 ;retraction
M117 Printing...
M1001
;TOTAL_NUM: 1
;PRINTING_TIME: 0
;REMAINING_TIME: 1630
;LAYER:0
;Z:0.300
;HEIGHT:0.300
;PRINTING: NON-OBJECT
;PRINTING_ID: -1
G1 F2400 E-3.0000
G0 F3900 X95.400 Y92.742
G0 F300 Z0.300
;TYPE:SKIRT
;WIDTH:0.400
G1 F1500 E0.0000
G1 F900 X102.750 Y87.294 E0.4564
G1 X111.079 Y83.491 E0.9132
G1 X120.020 Y81.503 E1.3702
G1 X129.888 Y81.495 E1.8625
G1 X138.144 Y83.241 E2.2835
G1 X146.526 Y86.878 E2.7394
G1 X153.985 Y92.189 E3.1962
G1 X160.174 Y98.934 E3.6529
G1 X164.824 Y106.817 E4.1095
G1 X167.733 Y115.493 E4.5660
G1 X168.779 Y124.585 E5.0226
G1 X167.904 Y133.706 E5.4798
G1 X165.160 Y142.426 E5.9358
G1 X160.665 Y150.388 E6.3920
G1 X154.601 Y157.254 E6.8490
G1 X147.249 Y162.704 E7.3056
G1 X138.921 Y166.508 E7.7624
G1 X129.979 Y168.496 E8.2194
G1 X120.829 Y168.580 E8.6759
G1 X111.856 Y166.762 E9.1327
G1 X103.472 Y163.120 E9.5887
G1 X96.014 Y157.810 E10.0455
G1 X89.823 Y151.062 E10.5023
G1 X85.174 Y143.181 E10.9588
G1 X82.266 Y134.506 E11.4153
G1 X81.221 Y125.410 E11.8721
G1 X82.095 Y116.292 E12.3291
G1 X84.839 Y107.573 E12.7851
G1 X89.334 Y99.611 E13.2413
G1 X95.400 Y92.742 E13.6985
G0 F3900 X95.700 Y93.007
G1 F900 X102.988 Y87.616 E14.1507
G1 X111.245 Y83.855 E14.6034
G1 X120.106 Y81.894 E15.0562
G1 X129.805 Y81.886 E15.5400
G1 X138.061 Y83.632 E15.9610
G1 X146.366 Y87.245 E16.4129
G1 X153.753 Y92.515 E16.8656
G1 X159.879 Y99.204 E17.3181
G1 X164.479 Y107.020 E17.7706
G1 X167.354 Y115.620 E18.2230
G1 X168.382 Y124.630 E18.6754
G1 X167.506 Y133.667 E19.1284
G1 X164.779 Y142.306 E19.5804
G1 X160.317 Y150.191 E20.0324
G1 X154.301 Y156.989 E20.4852
G1 X147.011 Y162.382 E20.9376
G1 X138.755 Y166.144 E21.3903
G1 X129.893 Y168.105 E21.8431
G1 X120.826 Y168.180 E22.2955
G1 X111.936 Y166.370 E22.7481
G1 X103.632 Y162.753 E23.2000
G1 X96.246 Y157.484 E23.6526
G1 X90.118 Y150.792 E24.1053
G1 X85.519 Y142.978 E24.5577
G1 X82.645 Y134.379 E25.0100
G1 X81.618 Y125.365 E25.4626
G1 X82.493 Y116.331 E25.9154
G1 X85.220 Y107.693 E26.3674
G1 X89.682 Y99.808 E26.8194
G1 X95.700 Y93.007 E27.2724
G0 F3900 X95.999 Y93.272
G1 F900 X103.226 Y87.938 E27.7206
G1 X111.410 Y84.219 E28.1690
G1 X120.192 Y82.285 E28.6177
G1 X129.722 Y82.277 E29.0931
G1 X137.978 Y84.023 E29.5141
G1 X146.206 Y87.612 E29.9620
G1 X153.520 Y92.840 E30.4105
G1 X159.584 Y99.474 E30.8589
G1 X164.134 Y107.223 E31.3072
G1 X166.975 Y115.746 E31.7555
G1 X167.985 Y124.675 E32.2038
G1 X167.108 Y133.628 E32.6526
G1 X164.398 Y142.185 E33.1004
G1 X159.969 Y149.994 E33.5483
G1 X154.002 Y156.724 E33.9970
G1 X146.773 Y162.060 E34.4453
G1 X138.589 Y165.780 E34.8938
G1 X129.807 Y167.714 E35.3424
G1 X120.823 Y167.780 E35.7906
G1 X112.016 Y165.978 E36.2391
G1 X103.792 Y162.386 E36.6868
G1 X96.479 Y157.159 E37.1353
G1 X90.413 Y150.522 E37.5839
G1 X85.864 Y142.775 E38.0321
G1 X83.024 Y134.253 E38.4802
G1 X82.015 Y125.320 E38.9287
G1 X82.891 Y116.370 E39.3774
G1 X85.601 Y107.814 E39.8252
G1 X90.030 Y100.005 E40.2731
G1 X95.999 Y93.272 E40.7220
G0 F3900 X96.298 Y93.538
G1 F900 X103.463 Y88.260 E41.1659
G1 X111.575 Y84.583 E41.6103
G1 X120.278 Y82.676 E42.0548
G1 X129.639 Y82.668 E42.5218
G1 X137.895 Y84.414 E42.9428
G1 X146.046 Y87.978 E43.3866
G1 X153.287 Y93.165 E43.8310
G1 X159.288 Y99.744 E44.2753
G1 X163.789 Y107.425 E44.7194
G1 X166.595 Y115.872 E45.1635
G1 X167.587 Y124.720 E45.6077
G1 X166.710 Y133.589 E46.0523
G1 X164.017 Y142.064 E46.4960
G1 X159.621 Y149.796 E46.9397
G1 X153.703 Y156.458 E47.3843
G1 X146.536 Y161.738 E47.8284
G1 X138.424 Y165.416 E48.2728
G1 X129.721 Y167.323 E48.7173
G1 X120.820 Y167.380 E49.1613
G1 X112.097 Y165.586 E49.6056
G1 X103.952 Y162.020 E50.0492
G1 X96.712 Y156.834 E50.4935
G1 X90.709 Y150.252 E50.9380
G1 X86.209 Y142.573 E51.3820
G1 X83.404 Y134.127 E51.8260
G1 X82.413 Y125.275 E52.2704
G1 X83.289 Y116.409 E52.7149
G1 X85.982 Y107.935 E53.1585
G1 X90.378 Y100.203 E53.6022
G1 X96.298 Y93.538 E54.0470
G0 F3900 X96.597 Y93.804
G1 F900 X103.700 Y88.582 E54.4868
G1 X111.740 Y84.947 E54.9270
G1 X120.363 Y83.067 E55.3673
G1 X129.556 Y83.059 E55.8260
G1 X137.812 Y84.805 E56.2470
G1 X145.885 Y88.344 E56.6867
G1 X153.054 Y93.490 E57.1270
G1 X158.992 Y100.013 E57.5671
G1 X163.444 Y107.627 E58.0071
G1 X166.215 Y115.998 E58.4470
G1 X167.189 Y124.764 E58.8871
G1 X166.312 Y133.549 E59.3275
G1 X163.636 Y141.942 E59.7670
G1 X159.273 Y149.598 E60.2067
G1 X153.404 Y156.192 E60.6471
G1 X146.299 Y161.416 E61.0870
G1 X138.259 Y165.052 E61.5273
G1 X129.636 Y166.932 E61.9676
G1 X120.818 Y166.980 E62.4075
G1 X112.178 Y165.194 E62.8477
G1 X104.113 Y161.654 E63.2871
G1 X96.945 Y156.509 E63.7273
G1 X91.005 Y149.983 E64.1676
G1 X86.554 Y142.371 E64.6075
G1 X83.784 Y134.001 E65.0473
G1 X82.811 Y125.231 E65.4876
G1 X83.687 Y116.449 E65.9279
G1 X86.363 Y108.057 E66.3673
G1 X90.726 Y100.401 E66.8069
G1 X96.597 Y93.804 E67.2475
G0 F3900 X96.896 Y94.070
G1 F900 X103.937 Y88.905 E67.6832
G1 X111.904 Y85.312 E68.1192
G1 X120.448 Y83.458 E68.5554
G1 X129.473 Y83.450 E69.0057
G1 X137.729 Y85.196 E69.4267
G1 X145.724 Y88.710 E69.8624
G1 X152.820 Y93.815 E70.2985
G1 X158.696 Y100.282 E70.7344
G1 X163.099 Y107.829 E71.1703
G1 X165.835 Y116.123 E71.6060
G1 X166.791 Y124.808 E72.0420
G1 X165.914 Y133.509 E72.4783
G1 X163.255 Y141.820 E72.9136
G1 X158.926 Y149.400 E73.3491
G1 X153.105 Y155.926 E73.7854
G1 X146.062 Y161.094 E74.2212
G1 X138.095 Y164.687 E74.6572
G1 X129.551 Y166.541 E75.0934
G1 X120.816 Y166.580 E75.5292
G1 X112.259 Y164.802 E75.9652
G1 X104.274 Y161.288 E76.4005
G1 X97.179 Y156.184 E76.8365
G1 X91.301 Y149.714 E77.2726
G1 X86.900 Y142.169 E77.7084
G1 X84.164 Y133.876 E78.1441
G1 X83.209 Y125.187 E78.5802
G1 X84.085 Y116.489 E79.0163
G1 X86.744 Y108.179 E79.4516
G1 X91.073 Y100.599 E79.8871
G1 X96.896 Y94.070 E80.3236
G0 F3900 X97.194 Y94.337
G1 F900 X104.173 Y89.228 E80.7551
G1 X112.068 Y85.677 E81.1870
G1 X120.532 Y83.849 E81.6190
G1 X129.390 Y83.841 E82.0609
G1 X137.646 Y85.587 E82.4819
G1 X145.563 Y89.076 E82.9136
G1 X152.586 Y94.139 E83.3455
G1 X158.400 Y100.551 E83.7773
G1 X162.753 Y108.030 E84.2090
G1 X165.455 Y116.248 E84.6406
G1 X166.393 Y124.851 E85.0724
G1 X165.516 Y133.468 E85.5045
G1 X162.874 Y141.698 E85.9357
G1 X158.579 Y149.201 E86.3671
G1 X152.807 Y155.659 E86.7992
G1 X145.826 Y160.771 E87.2309
G1 X137.931 Y164.322 E87.6628
G1 X129.467 Y166.150 E88.0948
G1 X120.815 Y166.180 E88.5264
G1 X112.341 Y164.410 E88.9583
G1 X104.435 Y160.922 E89.3894
G1 X97.413 Y155.860 E89.8213
G1 X91.597 Y149.445 E90.2533
G1 X87.246 Y141.968 E90.6849
G1 X84.544 Y133.751 E91.1164
G1 X83.607 Y125.144 E91.5484
G1 X84.483 Y116.529 E91.9804
G1 X87.125 Y108.301 E92.4115
G1 X91.420 Y100.798 E92.8428
G1 X97.194 Y94.337 E93.2751
G0 F3900 X97.492 Y94.604
G1 F900 X104.409 Y89.551 E93.7025
G1 X112.232 Y86.042 E94.1303
G1 X120.616 Y84.240 E94.5581
G1 X129.307 Y84.232 E94.9917
G1 X137.563 Y85.978 E95.4127
G1 X145.401 Y89.442 E95.8402
G1 X152.352 Y94.463 E96.2680
G1 X158.103 Y100.819 E96.6957
G1 X162.407 Y108.231 E97.1233
G1 X165.075 Y116.373 E97.5507
G1 X165.995 Y124.894 E97.9783
G1 X165.118 Y133.427 E98.4063
G1 X162.493 Y141.575 E98.8333
G1 X158.232 Y149.002 E99.2605
G1 X152.509 Y155.392 E99.6885
G1 X145.590 Y160.448 E100.1160
G1 X137.767 Y163.957 E100.5438
G1 X129.383 Y165.759 E100.9716
G1 X120.814 Y165.780 E101.3991
G1 X112.423 Y164.019 E101.8269
G1 X104.597 Y160.556 E102.2538
G1 X97.647 Y155.536 E102.6816
G1 X91.894 Y149.177 E103.1094
G1 X87.592 Y141.767 E103.5368
G1 X84.924 Y133.626 E103.9643
G1 X84.005 Y125.101 E104.3920
G1 X84.881 Y116.570 E104.8199
G1 X87.506 Y108.424 E105.2469
G1 X91.767 Y100.997 E105.6741
G1 X97.492 Y94.604 E106.1022
G0 F3900 X97.790 Y94.871
G1 F900 X104.645 Y89.874 E106.5254
G1 X112.395 Y86.407 E106.9490
G1 X120.700 Y84.631 E107.3727
G1 X129.224 Y84.623 E107.7980
G1 X137.480 Y86.369 E108.2190
G1 X145.239 Y89.808 E108.6424
G1 X152.117 Y94.787 E109.0660
G1 X157.806 Y101.087 E109.4895
G1 X162.061 Y108.432 E109.9130
G1 X164.695 Y116.497 E110.3363
G1 X165.597 Y124.937 E110.7597
G1 X164.720 Y133.386 E111.1835
G1 X162.112 Y141.452 E111.6065
G1 X157.885 Y148.803 E112.0295
G1 X152.211 Y155.125 E112.4533
G1 X145.354 Y160.125 E112.8767
G1 X137.604 Y163.592 E113.3003
G1 X129.299 Y165.368 E113.7240
G1 X120.813 Y165.380 E114.1474
G1 X112.506 Y163.628 E114.5709
G1 X104.759 Y160.190 E114.9938
G1 X97.882 Y155.212 E115.4173
G1 X92.191 Y148.909 E115.8410
G1 X87.938 Y141.567 E116.2643
G1 X85.304 Y133.502 E116.6876
G1 X84.403 Y125.059 E117.1112
G1 X85.279 Y116.611 E117.5349
G1 X87.887 Y108.547 E117.9577
G1 X92.114 Y101.196 E118.3808
G1 X97.790 Y94.871 E118.8048
G0 F3900 X98.087 Y95.138
G1 F900 X104.880 Y90.197 E119.2239
G1 X112.558 Y86.772 E119.6433
G1 X120.783 Y85.022 E120.0628
G1 X129.224 Y85.023 E120.4840
G1 X137.397 Y86.760 E120.9008
G1 X145.077 Y90.174 E121.3201
G1 X151.882 Y95.111 E121.7396
G1 X157.509 Y101.355 E122.1589
G1 X161.715 Y108.632 E122.5782
G1 X164.315 Y116.621 E122.9974
G1 X165.199 Y124.979 E123.4167
G1 X164.322 Y133.344 E123.8363
G1 X161.732 Y141.329 E124.2551
G1 X157.538 Y148.603 E124.6740
G1 X151.914 Y154.858 E125.0937
G1 X145.119 Y159.802 E125.5129
G1 X137.441 Y163.227 E125.9324
G1 X129.216 Y164.977 E126.3519
G1 X120.813 Y164.980 E126.7711
G1 X112.589 Y163.237 E127.1905
G1 X104.922 Y159.825 E127.6092
G1 X98.117 Y154.888 E128.0286
G1 X92.488 Y148.641 E128.4482
G1 X88.284 Y141.367 E128.8673
G1 X85.684 Y133.378 E129.2865
G1 X84.801 Y125.017 E129.7059
G1 X85.677 Y116.653 E130.1255
G1 X88.267 Y108.670 E130.5442
G1 X92.461 Y101.396 E130.9631
G1 X98.087 Y95.138 E131.3829
;PRINTING: Washer_Hole.stl
;PRINTING_ID: 0
G1 F2400 E128.3829
G1 F300 Z0.500
G0 F3900 X98.369 Y95.424
;TYPE:WALL-OUTER
;WIDTH:0.400
G1 F300 Z0.300
G1 F1500 E131.3829
G1 F2400 X105.102 Y90.532 E131.7981
G1 X112.700 Y87.149 E132.2131
G1 X120.841 Y85.419 E132.6283
G1 X129.158 Y85.419 E133.0433
G1 X129.905 Y85.578 E133.0814
G1 X137.299 Y87.149 E133.4585
G1 X144.897 Y90.532 E133.8734
G1 X151.630 Y95.424 E134.2886
G1 X157.199 Y101.608 E134.7038
G1 X161.357 Y108.812 E135.1188
G1 X163.928 Y116.724 E135.5338
G1 X164.799 Y125.000 E135.9490
G1 X163.928 Y133.275 E136.3641
G1 X161.357 Y141.187 E136.7792
G1 X157.199 Y148.391 E137.1942
G1 X151.630 Y154.575 E137.6094
G1 X144.897 Y159.467 E138.0246
G1 X137.299 Y162.850 E138.4395
G1 X129.158 Y164.580 E138.8547
G1 X120.841 Y164.580 E139.2697
G1 X112.700 Y162.850 E139.6849
G1 X105.102 Y159.467 E140.0998
G1 X98.369 Y154.575 E140.5151
G1 X92.800 Y148.391 E140.9302
G1 X88.642 Y141.187 E141.3452
G1 X86.071 Y133.275 E141.7603
G1 X85.201 Y125.000 E142.1754
G1 X86.071 Y116.724 E142.5906
G1 X88.642 Y108.812 E143.0056
G1 X92.800 Y101.608 E143.4206
G1 X98.369 Y95.424 E143.8358
G1 F2400 E140.8358
G1 F300 Z0.500
G0 F3900 X98.705 Y95.797
G0 X122.589 Y126.933
G0 X122.883 Y126.530
G1 F300 Z0.300
G1 F1500 E143.8358
G1 F2400 X124.193 Y127.482 E143.9166
G1 X125.806 Y127.482 E143.9970
G1 X127.111 Y126.534 E144.0775
G1 X127.566 Y125.137 E144.1508
G1 X127.116 Y123.469 E144.2370
G1 X125.806 Y122.517 E144.3178
G1 X124.193 Y122.517 E144.3983
G1 X122.888 Y123.465 E144.4787
G1 X122.433 Y124.862 E144.5520
G1 X122.883 Y126.530 E144.6382
G1 F2400 E141.6382
G1 F300 Z0.500
G0 F3900 X122.589 Y126.933
G0 X98.704 Y95.798
G0 X98.638 Y95.723
;TYPE:WALL-INNER
;WIDTH:0.400
G1 F300 Z0.300
G1 F1500 E144.6382
G1 F2400 X105.303 Y90.880 E145.0493
G1 X112.824 Y87.532 E145.4600
G1 X120.883 Y85.819 E145.8710
G1 X129.116 Y85.819 E146.2818
G1 X129.822 Y85.969 E146.3178
G1 X137.175 Y87.532 E146.6928
G1 X144.696 Y90.880 E147.1035
G1 X151.361 Y95.723 E147.5146
G1 X156.874 Y101.844 E147.9256
G1 X160.990 Y108.976 E148.3364
G1 X163.535 Y116.808 E148.7472
G1 X164.397 Y125.000 E149.1582
G1 X163.535 Y133.191 E149.5691
G1 X160.990 Y141.023 E149.9799
G1 X156.874 Y148.155 E150.3908
G1 X151.361 Y154.276 E150.8017
G1 X144.696 Y159.119 E151.2128
G1 X137.175 Y162.467 E151.6235
G1 X129.116 Y164.180 E152.0345
G1 X120.883 Y164.180 E152.4453
G1 X112.824 Y162.467 E152.8563
G1 X105.303 Y159.119 E153.2671
G1 X98.638 Y154.276 E153.6781
G1 X93.125 Y148.155 E154.0891
G1 X89.009 Y141.023 E154.4999
G1 X86.464 Y133.191 E154.9108
G1 X85.603 Y125.000 E155.3217
G1 X86.464 Y116.808 E155.7326
G1 X89.009 Y108.976 E156.1435
G1 X93.125 Y101.844 E156.5543
G1 X98.638 Y95.723 E156.9653
G1 F2400 E153.9653
G1 F300 Z0.500
G0 F3900 X98.704 Y95.798
G0 X122.484 Y126.856
G0 X122.534 Y126.771
G1 F300 Z0.300
G1 F1500 E156.9653
G1 F2400 X124.063 Y127.882 E157.0596
G1 X125.936 Y127.882 E157.1530
G1 X127.451 Y126.781 E157.2464
G1 X127.983 Y125.148 E157.3321
G1 X127.465 Y123.228 E157.4313
G1 X125.936 Y122.117 E157.5256
G1 X124.063 Y122.117 E157.6191
G1 X122.548 Y123.218 E157.7125
G1 X122.016 Y124.851 E157.7982
G1 X122.534 Y126.771 E157.8974
G1 F2400 E154.8974
G1 F300 Z0.500
G0 F3900 X122.484 Y126.856
G0 X98.907 Y96.022
G1 F300 Z0.300
G1 F1500 E157.8974
G1 F2400 X105.504 Y91.228 E158.3043
G1 X112.948 Y87.915 E158.7108
G1 X120.925 Y86.219 E159.1176
G1 X129.074 Y86.219 E159.5242
G1 X129.739 Y86.360 E159.5581
G1 X137.051 Y87.915 E159.9310
G1 X144.495 Y91.228 E160.3376
G1 X151.092 Y96.022 E160.7444
G1 X156.549 Y102.080 E161.1512
G1 X160.623 Y109.140 E161.5578
G1 X163.142 Y116.892 E161.9645
G1 X163.995 Y125.000 E162.3712
G1 X163.142 Y133.107 E162.7779
G1 X160.623 Y140.859 E163.1846
G1 X156.549 Y147.919 E163.5912
G1 X151.092 Y153.977 E163.9980
G1 X144.495 Y158.771 E164.4049
G1 X137.051 Y162.084 E164.8114
G1 X129.074 Y163.780 E165.2182
G1 X120.925 Y163.780 E165.6248
G1 X112.948 Y162.084 E166.0317
G1 X105.504 Y158.771 E166.4382
G1 X98.907 Y153.977 E166.8450
G1 X93.450 Y147.919 E167.2518
G1 X89.376 Y140.859 E167.6585
G1 X86.857 Y133.107 E168.0651
G1 X86.005 Y125.000 E168.4718
G1 X86.857 Y116.892 E168.8785
G1 X89.376 Y109.140 E169.2852
G1 X93.450 Y102.080 E169.6919
G1 X98.907 Y96.022 E170.0986
G1 F2400 E167.0986
G1 F300 Z0.500
G0 F3900 X122.185 Y127.012
G1 F300 Z0.300
G1 F1500 E170.0986
G1 F2400 X123.933 Y128.282 E170.2064
G1 X126.066 Y128.282 E170.3128
G1 X127.791 Y127.028 E170.4192
G1 X128.400 Y125.159 E170.5173
G1 X127.814 Y122.987 E170.6296
G1 X126.066 Y121.717 E170.7373
G1 X123.933 Y121.717 E170.8438
G1 X122.208 Y122.971 E170.9502
G1 X121.599 Y124.840 E171.0482
G1 X122.185 Y127.012 E171.1605
G1 F2400 E168.1605
G1 F300 Z0.500
G0 F3900 X99.176 Y96.321
G1 F300 Z0.300
G1 F1500 E171.1605
G1 F2400 X105.705 Y91.576 E171.5631
G1 X113.072 Y88.298 E171.9654
G1 X120.967 Y86.619 E172.3681
G1 X129.032 Y86.619 E172.7705
G1 X129.656 Y86.751 E172.8023
G1 X136.927 Y88.298 E173.1732
G1 X144.294 Y91.576 E173.5754
G1 X150.823 Y96.321 E173.9781
G1 X156.224 Y102.316 E174.3807
G1 X160.256 Y109.304 E174.7832
G1 X162.749 Y116.976 E175.1857
G1 X163.593 Y125.000 E175.5882
G1 X162.749 Y133.023 E175.9907
G1 X160.256 Y140.695 E176.3931
G1 X156.224 Y147.683 E176.7956
G1 X150.823 Y153.678 E177.1982
G1 X144.294 Y158.423 E177.6009
G1 X136.927 Y161.701 E178.0031
G1 X129.032 Y163.380 E178.4058
G1 X120.967 Y163.380 E178.8082
G1 X113.072 Y161.701 E179.2109
