;Sliced by ideaMaker 5.2.2.8570, 2025-04-22 18:30:51 UTC+0200
;Slicer Version: 5.2.2.8570
;Dimension: 250.000 250.000 250.000 0.400
;Plate Shape: 0
;Origin Center: 0
;Extruder Offset #1: 25.000 0.000
;Filament Diameter #1: 1.750
;Filament Diameter #2: 1.750
;Filament Compensation #1: 94.000
;Filament Compensation #2: 90.000
;Filament Density #1: 1240.000
;Filament Density #2: 1240.000
;Filament Type #1: PLA
;Filament Type #2: PLA
;Filament Name #1: [Raise3D] Premium PLA 1.75mm
;Filament Name #2: [Raise3D] Premium PLA 1.75mm
;Filament #1: PLA 1.75mm
;Filament #2: PLA 1.75mm
;Printer Type: floppy
;Firmware: Klipper
;Bounding Box: 107.771 142.329 98.939 151.100 0.000 2.300
;Model Gap: 0.000
M221 T0 S94.00
M140 S40.00
M104 T0 S200.00
M109 T0 S200.00
T0
M190 S40.00
G21 ;metric values
G90 ;absolute positioning
M82 ;set extruder to absolute mode
M107 ;start with the fan off
G28 X0 Y0 ;move X/Y to min endstops
G28 Z0 ;move Z to min endstops
G1 Z15.0 F9000 ;move the platform down 15mm
G92 E0 ;zero the extruded length
G0 X43 Y27 F2000  ;go to the edge of the bed
G92 X0 Y0 E0 ;set zero to edge of the bed
G0 F9000 Z1 ;Z up with 1mm
G1 F200 Z0 ;Z home slowly
G1 Z15.0 F9000 ;move the platform down 15mm
G1 F9000 ;speed setting
G92 E-3 ;retraction
M117 Printing...
M1001
;TOTAL_NUM: 1
;PRINTING_TIME: 0
;REMAINING_TIME: 500
;LAYER:0
;Z:0.500
;HEIGHT:0.500
;PRINTING: NON-OBJECT
;PRINTING_ID: -1
G1 F2400 E-3.0000
G0 F3900 X114.690 Y104.096
G0 F300 Z0.500
;TYPE:SKIRT
;WIDTH:0.400
;FLOW:65.0
G1 F1500 E0.0000
G1 F900 X116.493 Y102.111 E0.1449
G1 X118.642 Y100.557 E0.2883
G1 X120.749 Y99.583 E0.4137
G1 X123.269 Y98.979 E0.5538
G1 X126.530 Y98.939 E0.7300
G1 X127.903 Y99.180 E0.8054
G1 X130.263 Y99.994 E0.9403
G1 X132.546 Y101.329 E1.0833
G1 X134.520 Y103.123 E1.2274
G1 X136.075 Y105.275 E1.3709
G1 X137.051 Y107.387 E1.4967
G1 X137.710 Y110.592 E1.6735
G1 X137.793 Y122.253 E2.3038
G1 X139.763 Y124.773 E2.4767
G1 X141.326 Y128.046 E2.6727
G1 X142.168 Y131.558 E2.8679
G1 X142.329 Y134.157 E3.0086
G1 X142.112 Y136.592 E3.1408
G1 X141.030 Y140.359 E3.3526
G1 X138.996 Y144.001 E3.5780
G1 X136.112 Y147.081 E3.8061
G1 X133.055 Y149.147 E4.0055
G1 X129.681 Y150.491 E4.2018
G1 X126.109 Y151.100 E4.3977
G1 X123.014 Y151.033 E4.5650
G1 X119.559 Y150.261 E4.7563
G1 X116.713 Y149.036 E4.9238
G1 X113.812 Y147.040 E5.1141
G1 X111.625 Y144.833 E5.2820
G1 X109.676 Y141.890 E5.4728
G1 X108.476 Y139.031 E5.6404
G1 X107.771 Y135.578 E5.8309
G1 X107.777 Y131.986 E6.0250
G1 X108.534 Y128.443 E6.2208
G1 X109.753 Y125.585 E6.3887
G1 X112.165 Y122.249 E6.6112
G1 X112.215 Y111.147 E7.2113
G1 X112.528 Y108.863 E7.3359
G1 X113.352 Y106.398 E7.4764
G1 X114.690 Y104.096 E7.6203
G0 F3900 X115.035 Y104.298
G1 F900 X116.788 Y102.381 E7.7607
G1 X118.875 Y100.882 E7.8995
G1 X120.916 Y99.947 E8.0209
G1 X123.361 Y99.368 E8.1567
G1 X126.461 Y99.333 E8.3242
G1 X127.834 Y99.574 E8.3996
G1 X130.132 Y100.372 E8.5311
G1 X132.343 Y101.674 E8.6697
G1 X134.250 Y103.418 E8.8094
G1 X135.750 Y105.508 E8.9484
G1 X136.687 Y107.554 E9.0701
G1 X137.318 Y110.671 E9.2420
G1 X137.394 Y122.391 E9.8754
G1 X139.448 Y125.019 E10.0557
G1 X140.965 Y128.217 E10.2470
G1 X141.779 Y131.650 E10.4377
G1 X141.930 Y134.181 E10.5747
G1 X141.714 Y136.556 E10.7036
G1 X140.646 Y140.248 E10.9113
G1 X138.647 Y143.805 E11.1319
G1 X135.821 Y146.807 E11.3547
G1 X132.832 Y148.815 E11.5493
G1 X129.534 Y150.119 E11.7410
G1 X126.043 Y150.706 E11.9323
G1 X123.024 Y150.633 E12.0955
G1 X119.647 Y149.871 E12.2826
G1 X116.872 Y148.669 E12.4461
G1 X114.039 Y146.711 E12.6322
G1 X111.910 Y144.552 E12.7961
G1 X110.010 Y141.670 E12.9827
G1 X108.845 Y138.877 E13.1462
G1 X108.163 Y135.499 E13.3325
G1 X108.177 Y131.988 E13.5223
G1 X108.925 Y128.528 E13.7136
G1 X110.121 Y125.743 E13.8774
G1 X112.564 Y122.380 E14.1021
G1 X112.615 Y111.149 E14.7091
G1 X112.924 Y108.918 E14.8308
G1 X113.731 Y106.526 E14.9672
G1 X115.035 Y104.298 E15.1068
G0 F3900 X115.380 Y104.501
G1 F900 X117.082 Y102.652 E15.2426
G1 X119.107 Y101.208 E15.3770
G1 X121.081 Y100.311 E15.4942
G1 X123.452 Y99.758 E15.6258
G1 X126.392 Y99.727 E15.7847
G1 X127.765 Y99.968 E15.8600
G1 X130.000 Y100.750 E15.9880
G1 X132.139 Y102.018 E16.1224
G1 X133.979 Y103.712 E16.2576
G1 X135.424 Y105.740 E16.3922
G1 X136.323 Y107.719 E16.5097
G1 X136.926 Y110.749 E16.6766
G1 X136.995 Y122.529 E17.3133
G1 X139.133 Y125.265 E17.5010
G1 X140.603 Y128.387 E17.6875
G1 X141.390 Y131.741 E17.8737
G1 X141.531 Y134.204 E18.0070
G1 X141.316 Y136.519 E18.1327
G1 X140.262 Y140.136 E18.3363
G1 X138.299 Y143.608 E18.5519
G1 X135.531 Y146.532 E18.7695
G1 X132.610 Y148.482 E18.9593
G1 X129.388 Y149.747 E19.1464
G1 X125.978 Y150.311 E19.3332
G1 X123.035 Y150.233 E19.4923
G1 X119.736 Y149.481 E19.6752
G1 X117.032 Y148.302 E19.8346
G1 X114.267 Y146.382 E20.0166
G1 X112.195 Y144.272 E20.1764
G1 X110.344 Y141.451 E20.3588
G1 X109.215 Y138.724 E20.5183
G1 X108.555 Y135.421 E20.7003
G1 X108.577 Y131.991 E20.8857
G1 X109.316 Y128.614 E21.0726
G1 X110.488 Y125.902 E21.2323
G1 X112.413 Y123.112 E21.4155
G1 X112.963 Y122.541 E21.4583
G1 X113.015 Y111.151 E22.0739
G1 X113.320 Y108.973 E22.1928
G1 X114.110 Y106.655 E22.3251
G1 X115.380 Y104.501 E22.4603
G0 F3900 X115.724 Y104.705
G1 F900 X117.375 Y102.924 E22.5915
G1 X119.338 Y101.535 E22.7215
G1 X121.245 Y100.676 E22.8346
G1 X123.542 Y100.148 E22.9619
G1 X126.323 Y100.121 E23.1123
G1 X127.696 Y100.362 E23.1876
G1 X129.867 Y101.127 E23.3120
G1 X131.934 Y102.361 E23.4421
G1 X133.707 Y104.005 E23.5728
G1 X135.097 Y105.971 E23.7029
G1 X135.958 Y107.883 E23.8163
G1 X136.533 Y110.826 E23.9783
G1 X136.596 Y122.667 E24.6183
G1 X138.818 Y125.511 E24.8134
G1 X140.241 Y128.556 E24.9950
G1 X141.000 Y131.831 E25.1767
G1 X141.132 Y134.226 E25.3064
G1 X140.918 Y136.481 E25.4288
G1 X139.878 Y140.023 E25.6283
G1 X137.951 Y143.410 E25.8389
G1 X135.241 Y146.256 E26.0513
G1 X132.389 Y148.149 E26.2363
G1 X129.243 Y149.374 E26.4188
G1 X125.914 Y149.916 E26.6011
G1 X123.047 Y149.833 E26.7561
G1 X119.826 Y149.091 E26.9348
G1 X117.193 Y147.936 E27.0902
G1 X114.496 Y146.054 E27.2679
G1 X112.481 Y143.992 E27.4237
G1 X110.679 Y141.232 E27.6019
G1 X109.585 Y138.572 E27.7574
G1 X108.947 Y135.343 E27.9352
G1 X108.977 Y131.995 E28.1162
G1 X109.707 Y128.701 E28.2986
G1 X110.855 Y126.062 E28.4541
G1 X112.742 Y123.340 E28.6331
G1 X113.362 Y122.704 E28.6811
G1 X113.415 Y111.153 E29.3054
G1 X113.716 Y109.029 E29.4214
G1 X114.488 Y106.785 E29.5496
G1 X115.724 Y104.705 E29.6804
G0 F3900 X116.067 Y104.911
G1 F900 X117.667 Y103.197 E29.8071
G1 X119.568 Y101.862 E29.9327
G1 X121.408 Y101.041 E30.0416
G1 X123.630 Y100.538 E30.1647
G1 X126.254 Y100.515 E30.3065
G1 X127.627 Y100.756 E30.3819
G1 X129.733 Y101.504 E30.5027
G1 X131.728 Y102.704 E30.6285
G1 X133.434 Y104.297 E30.7547
G1 X134.769 Y106.201 E30.8803
G1 X135.593 Y108.046 E30.9895
G1 X136.140 Y110.901 E31.1467
G1 X136.197 Y122.805 E31.7900
G1 X138.503 Y125.757 E31.9925
G1 X139.878 Y128.724 E32.1693
G1 X140.610 Y131.920 E32.3465
G1 X140.733 Y134.247 E32.4724
G1 X140.520 Y136.442 E32.5916
G1 X139.494 Y139.909 E32.7870
G1 X137.604 Y143.211 E32.9926
G1 X134.952 Y145.979 E33.1998
G1 X132.169 Y147.815 E33.3800
G1 X129.099 Y149.001 E33.5579
G1 X125.851 Y149.521 E33.7357
G1 X123.060 Y149.433 E33.8866
G1 X119.917 Y148.701 E34.0610
G1 X117.354 Y147.570 E34.2124
G1 X114.726 Y145.727 E34.3859
G1 X112.768 Y143.713 E34.5377
G1 X111.014 Y141.014 E34.7117
G1 X109.955 Y138.421 E34.8631
G1 X109.340 Y135.266 E35.0368
G1 X109.377 Y132.000 E35.2134
G1 X110.097 Y128.789 E35.3912
G1 X111.221 Y126.222 E35.5427
G1 X113.070 Y123.569 E35.7175
G1 X113.761 Y122.869 E35.7706
G1 X113.815 Y111.155 E36.4037
G1 X114.112 Y109.086 E36.5167
G1 X114.866 Y106.916 E36.6409
G1 X116.067 Y104.911 E36.7672
G0 F3900 X116.409 Y105.118
G1 F900 X117.958 Y103.471 E36.8894
G1 X119.797 Y102.190 E37.0105
G1 X121.570 Y101.407 E37.1153
G1 X123.717 Y100.928 E37.2342
G1 X126.185 Y100.909 E37.3676
G1 X127.558 Y101.150 E37.4429
G1 X129.598 Y101.881 E37.5600
G1 X131.521 Y103.046 E37.6815
G1 X133.160 Y104.588 E37.8032
G1 X134.441 Y106.429 E37.9244
G1 X135.227 Y108.208 E38.0295
G1 X135.747 Y110.975 E38.1817
G1 X135.798 Y122.979 E38.8305
G1 X136.315 Y123.464 E38.8688
G1 X138.181 Y125.994 E39.0387
G1 X139.515 Y128.891 E39.2111
G1 X140.220 Y132.008 E39.3838
G1 X140.333 Y134.267 E39.5060
G1 X140.122 Y136.403 E39.6220
G1 X139.111 Y139.795 E39.8133
G1 X137.257 Y143.011 E40.0140
G1 X134.664 Y145.701 E40.2159
G1 X131.950 Y147.481 E40.3913
G1 X128.956 Y148.627 E40.5646
G1 X125.789 Y149.126 E40.7379
G1 X123.074 Y149.033 E40.8847
G1 X120.009 Y148.312 E41.0549
G1 X117.517 Y147.204 E41.2023
G1 X114.956 Y145.400 E41.3716
G1 X113.055 Y143.435 E41.5194
G1 X111.350 Y140.797 E41.6891
G1 X110.326 Y138.271 E41.8364
G1 X109.733 Y135.190 E42.0060
G1 X109.777 Y132.006 E42.1781
G1 X110.487 Y128.878 E42.3515
G1 X111.587 Y126.383 E42.4989
G1 X113.398 Y123.799 E42.6694
G1 X114.160 Y123.034 E42.7278
G1 X114.215 Y111.157 E43.3697
G1 X114.508 Y109.144 E43.4796
G1 X115.243 Y107.048 E43.5997
G1 X116.409 Y105.118 E43.7216
G0 F3900 X116.751 Y105.326
G1 F900 X118.248 Y103.746 E43.8392
G1 X120.024 Y102.519 E43.9559
G1 X121.730 Y101.773 E44.0565
G1 X123.803 Y101.319 E44.1712
G1 X126.116 Y101.303 E44.2962
G1 X127.489 Y101.544 E44.3716
G1 X129.462 Y102.257 E44.4849
G1 X131.312 Y103.387 E44.6021
G1 X132.885 Y104.878 E44.7192
G1 X134.112 Y106.656 E44.8360
G1 X134.860 Y108.368 E44.9370
G1 X135.354 Y111.048 E45.0843
G1 X135.399 Y123.153 E45.7385
G1 X136.041 Y123.756 E45.7861
G1 X137.859 Y126.231 E45.9521
G1 X139.151 Y129.057 E46.1201
G1 X139.830 Y132.095 E46.2883
G1 X139.933 Y134.286 E46.4068
G1 X139.724 Y136.363 E46.5197
G1 X138.728 Y139.680 E46.7069
G1 X136.911 Y142.810 E46.9025
G1 X134.377 Y145.423 E47.0992
G1 X131.732 Y147.146 E47.2698
G1 X128.814 Y148.253 E47.4385
G1 X125.728 Y148.731 E47.6073
G1 X123.089 Y148.633 E47.7500
G1 X120.101 Y147.923 E47.9160
G1 X117.680 Y146.839 E48.0594
G1 X115.187 Y145.074 E48.2244
G1 X113.343 Y143.158 E48.3682
G1 X111.686 Y140.581 E48.5338
G1 X110.697 Y138.122 E48.6770
G1 X110.126 Y135.115 E48.8424
G1 X110.177 Y132.013 E49.0101
G1 X110.877 Y128.968 E49.1790
G1 X111.953 Y126.545 E49.3223
G1 X113.725 Y124.029 E49.4886
G1 X114.559 Y123.202 E49.5521
G1 X114.615 Y111.159 E50.2030
G1 X114.904 Y109.202 E50.3099
G1 X115.620 Y107.182 E50.4257
G1 X116.751 Y105.326 E50.5432
G0 F3900 X117.092 Y105.536
G1 F900 X118.537 Y104.022 E50.6563
G1 X120.250 Y102.849 E50.7685
G1 X121.889 Y102.140 E50.8650
G1 X123.887 Y101.710 E50.9755
G1 X126.047 Y101.697 E51.0922
G1 X127.420 Y101.938 E51.1676
G1 X129.325 Y102.633 E51.2772
G1 X131.102 Y103.728 E51.3900
G1 X132.609 Y105.167 E51.5026
G1 X133.782 Y106.882 E51.6149
G1 X134.493 Y108.527 E51.7118
G1 X134.960 Y111.119 E51.8541
G1 X135.000 Y123.326 E52.5139
G1 X135.767 Y124.047 E52.5708
G1 X137.536 Y126.467 E52.7328
G1 X138.787 Y129.222 E52.8963
G1 X139.439 Y132.181 E53.0601
G1 X139.533 Y134.304 E53.1750
G1 X139.326 Y136.322 E53.2846
G1 X138.345 Y139.564 E53.4677
G1 X136.566 Y142.608 E53.6582
G1 X134.091 Y145.144 E53.8497
G1 X131.515 Y146.810 E54.0155
G1 X128.673 Y147.879 E54.1797
G1 X125.668 Y148.336 E54.3439
G1 X123.105 Y148.233 E54.4826
G1 X120.194 Y147.534 E54.6444
G1 X117.845 Y146.474 E54.7837
G1 X115.419 Y144.748 E54.9446
G1 X113.632 Y142.881 E55.0843
G1 X112.023 Y140.365 E55.2457
G1 X111.068 Y137.974 E55.3848
G1 X110.519 Y135.041 E55.5461
G1 X110.577 Y132.021 E55.7094
G1 X111.267 Y129.059 E55.8737
G1 X112.318 Y126.708 E56.0129
G1 X114.051 Y124.260 E56.1750
G1 X114.958 Y123.371 E56.2437
G1 X115.015 Y111.161 E56.9036
G1 X115.300 Y109.261 E57.0074
G1 X115.997 Y107.317 E57.1191
G1 X117.092 Y105.536 E57.2321
G0 F3900 X117.432 Y105.747
G1 F900 X118.825 Y104.299 E57.3407
G1 X120.475 Y103.180 E57.4484
G1 X122.046 Y102.508 E57.5408
G1 X123.970 Y102.101 E57.6470
G1 X125.978 Y102.091 E57.7556
G1 X127.351 Y102.332 E57.8309
G1 X129.187 Y103.008 E57.9367
G1 X130.891 Y104.068 E58.0451
G1 X132.332 Y105.455 E58.1532
G1 X133.451 Y107.106 E58.2610
G1 X134.125 Y108.684 E58.3538
G1 X134.566 Y111.188 E58.4912
G1 X134.600 Y123.500 E59.1566
G1 X135.493 Y124.339 E59.2228
G1 X137.213 Y126.702 E59.3808
G1 X138.422 Y129.386 E59.5399
G1 X139.048 Y132.266 E59.6992
G1 X139.133 Y134.321 E59.8104
G1 X138.928 Y136.280 E59.9168
G1 X137.962 Y139.447 E60.0958
G1 X136.221 Y142.405 E60.2813
G1 X133.806 Y144.864 E60.4676
G1 X131.299 Y146.473 E60.6286
G1 X128.533 Y147.504 E60.7881
G1 X125.609 Y147.940 E60.9479
G1 X123.122 Y147.833 E61.0824
G1 X120.288 Y147.145 E61.2401
G1 X118.011 Y146.110 E61.3752
G1 X115.652 Y144.423 E61.5320
G1 X113.922 Y142.605 E61.6676
G1 X112.360 Y140.150 E61.8249
G1 X111.440 Y137.827 E61.9599
G1 X110.912 Y134.968 E62.1171
G1 X110.977 Y132.030 E62.2759
G1 X111.656 Y129.151 E62.4358
G1 X112.683 Y126.872 E62.5709
G1 X114.377 Y124.492 E62.7288
G1 X115.357 Y123.541 E62.8026
G1 X115.415 Y111.163 E63.4716
G1 X115.695 Y109.321 E63.5723
G1 X116.373 Y107.453 E63.6797
G1 X117.432 Y105.747 E63.7882
G0 F3900 X117.771 Y105.959
G1 F900 X119.112 Y104.578 E63.8922
G1 X120.698 Y103.512 E63.9955
G1 X122.202 Y102.877 E64.0838
G1 X124.051 Y102.493 E64.1858
G1 X125.909 Y102.485 E64.2863
G1 X127.282 Y102.726 E64.3616
G1 X129.048 Y103.383 E64.4634
G1 X130.678 Y104.407 E64.5675
G1 X132.053 Y105.742 E64.6711
G1 X133.119 Y107.329 E64.7744
G1 X133.756 Y108.839 E64.8630
G1 X134.172 Y111.256 E64.9955
G1 X134.200 Y123.674 E65.6667
G1 X135.219 Y124.631 E65.7422
G1 X136.889 Y126.937 E65.8961
G1 X138.057 Y129.549 E66.0508
G1 X138.657 Y132.350 E66.2056
G1 X138.733 Y134.336 E66.3130
G1 X138.530 Y136.238 E66.4164
G1 X137.580 Y139.329 E66.5912
G1 X135.877 Y142.201 E66.7716
G1 X133.522 Y144.583 E66.9527
G1 X131.084 Y146.136 E67.1089
G1 X128.394 Y147.129 E67.2639
G1 X125.551 Y147.544 E67.4192
G1 X123.140 Y147.433 E67.5496
G1 X120.383 Y146.757 E67.7030
G1 X118.178 Y145.746 E67.8341
G1 X115.885 Y144.098 E67.9868
G1 X114.213 Y142.330 E68.1183
G1 X112.698 Y139.936 E68.2714
G1 X111.812 Y137.681 E68.4023
G1 X111.306 Y134.896 E68.5553
G1 X111.377 Y132.040 E68.7097
G1 X112.045 Y129.244 E68.8651
G1 X113.047 Y127.037 E68.9961
G1 X114.702 Y124.725 E69.1498
G1 X115.756 Y123.712 E69.2288
G1 X115.815 Y111.165 E69.9069
G1 X116.090 Y109.382 E70.0044
G1 X116.748 Y107.591 E70.1076
G1 X117.771 Y105.959 E70.2117
G0 F3900 X118.109 Y106.173
G1 F900 X119.398 Y104.858 E70.3112
G1 X120.920 Y103.845 E70.4100
G1 X122.356 Y103.246 E70.4941
G1 X124.131 Y102.885 E70.5920
G1 X125.840 Y102.879 E70.6844
G1 X127.213 Y103.120 E70.7597
G1 X128.907 Y103.757 E70.8575
G1 X130.464 Y104.745 E70.9572
G1 X131.773 Y106.028 E71.0563
G1 X132.786 Y107.551 E71.1551
G1 X133.387 Y108.993 E71.2396
G1 X133.778 Y111.322 E71.3672
G1 X133.800 Y123.848 E72.0442
G1 X134.945 Y124.923 E72.1291
G1 X136.564 Y127.171 E72.2788
G1 X137.691 Y129.711 E72.4290
G1 X138.266 Y132.433 E72.5794
G1 X138.333 Y134.350 E72.6830
G1 X138.132 Y136.195 E72.7833
G1 X137.198 Y139.211 E72.9540
G1 X135.534 Y141.996 E73.1293
G1 X133.239 Y144.301 E73.3051
G1 X130.870 Y145.798 E73.4566
G1 X128.257 Y146.753 E73.6070
G1 X125.494 Y147.148 E73.7578
G1 X123.160 Y147.033 E73.8841
G1 X120.479 Y146.369 E74.0334
G1 X118.346 Y145.383 E74.1604
G1 X116.119 Y143.774 E74.3089
G1 X114.505 Y142.056 E74.4363
G1 X113.037 Y139.723 E74.5853
G1 X112.185 Y137.536 E74.7121
G1 X111.700 Y134.826 E74.8609
G1 X111.777 Y132.051 E75.0110
G1 X112.434 Y129.338 E75.1618
G1 X113.411 Y127.204 E75.2887
G1 X115.027 Y124.959 E75.4382
G1 X116.155 Y123.883 E75.5224
G1 X116.215 Y111.167 E76.2097
G1 X116.485 Y109.444 E76.3040
G1 X117.123 Y107.731 E76.4028
G1 X118.109 Y106.173 E76.5024
G0 F3900 X118.446 Y106.388
G1 F900 X119.682 Y105.139 E76.5974
G1 X121.140 Y104.179 E76.6918
G1 X122.508 Y103.616 E76.7717
G1 X124.209 Y103.277 E76.8654
G1 X125.771 Y103.273 E76.9499
G1 X127.144 Y103.514 E77.0252
G1 X128.765 Y104.131 E77.1190
G1 X130.248 Y105.082 E77.2142
G1 X131.492 Y106.312 E77.3087
G1 X132.452 Y107.771 E77.4031
G1 X133.017 Y109.145 E77.4834
G1 X133.383 Y111.386 E77.6061
G1 X133.400 Y124.022 E78.2891
G1 X134.671 Y125.215 E78.3833
G1 X136.239 Y127.404 E78.5288
G1 X137.325 Y129.872 E78.6746
G1 X137.874 Y132.514 E78.8204
G1 X137.933 Y134.363 E78.9204
