;Sliced by ideaMaker 5.2.2.8570, 2025-04-23 18:45:20 UTC+0200
;Slicer Version: 5.2.2.8570
;Dimension: 250.000 250.000 250.000 0.400
;Plate Shape: 0
;Origin Center: 0
;Extruder Offset #1: 25.000 0.000
;Filament Diameter #1: 1.750
;Filament Diameter #2: 1.750
;Filament Compensation #1: 94.000
;Filament Compensation #2: 90.000
;Filament Density #1: 1240.000
;Filament Density #2: 1240.000
;Filament Type #1: PLA
;Filament Type #2: PLA
;Filament Name #1: [Raise3D] Premium PLA 1.75mm
;Filament Name #2: [Raise3D] Premium PLA 1.75mm
;Filament #1: PLA 1.75mm
;Filament #2: PLA 1.75mm
;Printer Type: floppy
;Firmware: Klipper
;Bounding Box: 44.616 205.392 44.589 205.386 0.000 0.300
;Model Gap: 0.000
M221 T0 S94.00
M140 S50.00
M104 T0 S190.00
M109 T0 S190.00
T0
M190 S50.00
G21 ;metric values
G90 ;absolute positioning
M82 ;set extruder to absolute mode
M107 ;start with the fan off
G28 X0 Y0 ;move X/Y to min endstops
G28 Z0 ;move Z to min endstops
G1 Z15.0 F9000 ;move the platform down 15mm
G92 E0 ;zero the extruded length
G0 X43 Y27 F2000  ;go to the edge of the bed
G92 X0 Y0 E0 ;set zero to edge of the bed
G0 F9000 Z1 ;Z up with 1mm
G1 F200 Z0 ;Z home slowly
G1 Z15.0 F9000 ;move the platform down 15mm
G1 F9000 ;speed setting
G92 E-3 ;retraction
M117 Printing...
M1001
;TOTAL_NUM: 1
;PRINTING_TIME: 0
;REMAINING_TIME: 1713
;LAYER:0
;Z:0.300
;HEIGHT:0.300
;PRINTING: NON-OBJECT
;PRINTING_ID: -1
G1 F2400 E-3.0000
G0 F3900 X44.651 Y91.752
G0 F300 Z0.300
;TYPE:SKIRT
;WIDTH:0.400
G1 F1500 E0.0000
G1 F900 X91.840 Y44.614 E3.3276
G1 X157.596 Y44.589 E6.6082
G1 X160.166 Y45.918 E6.7526
G1 X205.392 Y91.881 E9.9696
G1 X205.348 Y158.246 E13.2806
G1 X158.160 Y205.386 E16.6083
G1 X91.766 Y205.348 E19.9207
G1 X44.616 Y158.140 E23.2494
G1 X44.651 Y91.752 E26.5615
G0 F3900 X45.019 Y91.908
G1 F900 X91.990 Y44.985 E29.8739
G1 X157.596 Y44.989 E33.1470
G1 X159.881 Y46.199 E33.2760
G1 X205.020 Y92.028 E36.4852
G1 X204.980 Y158.090 E39.7810
G1 X158.010 Y205.015 E43.0934
G1 X91.922 Y204.980 E46.3906
G1 X44.987 Y157.990 E49.7040
G1 X45.019 Y91.908 E53.0009
G0 F3900 X45.387 Y92.064
G1 F900 X92.140 Y45.356 E56.2980
G1 X157.411 Y45.344 E59.5544
G1 X159.596 Y46.480 E59.6772
G1 X204.648 Y92.175 E62.8787
G1 X204.612 Y157.934 E66.1594
G1 X157.860 Y204.644 E69.4565
G1 X92.078 Y204.612 E72.7384
G1 X45.358 Y157.840 E76.0366
G1 X45.387 Y92.064 E79.3181
G0 F3900 X45.755 Y92.220
G1 F900 X92.290 Y45.727 E82.6000
G1 X157.411 Y45.744 E85.8489
G1 X159.311 Y46.761 E85.9564
G1 X204.276 Y92.323 E89.1500
G1 X204.244 Y157.778 E92.4156
G1 X157.710 Y204.273 E95.6974
G1 X92.234 Y204.244 E98.9641
G1 X45.729 Y157.690 E102.2470
G1 X45.755 Y92.220 E105.5133
G0 F3900 X46.123 Y92.376
G1 F900 X92.440 Y46.098 E108.7798
G1 X157.225 Y46.098 E112.0120
G1 X159.026 Y47.042 E112.1134
G1 X203.904 Y92.471 E115.2993
G1 X203.876 Y157.622 E118.5497
G1 X157.560 Y203.902 E121.8163
G1 X92.390 Y203.876 E125.0676
G1 X46.100 Y157.540 E128.3352
G1 X46.123 Y92.376 E131.5863
G0 F3900 X46.491 Y92.532
G1 F900 X92.590 Y46.469 E134.8375
G1 X157.043 Y46.454 E138.0531
G1 X158.742 Y47.323 E138.1483
G1 X203.532 Y92.619 E141.3264
G1 X203.508 Y157.466 E144.5616
G1 X157.410 Y203.531 E147.8129
G1 X92.546 Y203.508 E151.0490
G1 X46.471 Y157.390 E154.3014
G1 X46.491 Y92.532 E157.5371
G0 F3900 X46.859 Y92.688
G1 F900 X92.740 Y46.840 E160.7731
G1 X157.043 Y46.854 E163.9812
G1 X158.458 Y47.604 E164.0611
G1 X203.160 Y92.767 E167.2314
G1 X203.140 Y157.310 E170.4515
G1 X157.260 Y203.160 E173.6875
G1 X92.702 Y203.140 E176.9083
G1 X46.842 Y157.240 E180.1454
G1 X46.859 Y92.688 E183.3659
G0 F3900 X47.227 Y92.844
G1 F900 X92.890 Y47.211 E186.5866
G1 X156.860 Y47.210 E189.7781
G1 X158.174 Y47.886 E189.8518
G1 X202.789 Y92.915 E193.0143
G1 X202.772 Y157.154 E196.2192
G1 X157.110 Y202.789 E199.4399
G1 X92.858 Y202.772 E202.6455
G1 X47.213 Y157.090 E205.8673
G1 X47.227 Y92.844 E209.0725
G0 F3900 X47.595 Y93.000
G1 F900 X93.040 Y47.582 E212.2779
G1 X156.682 Y47.568 E215.4531
G1 X157.890 Y48.168 E215.5203
G1 X202.418 Y93.064 E218.6750
G1 X202.404 Y156.998 E221.8647
G1 X156.960 Y202.418 E225.0702
G1 X93.014 Y202.404 E228.2605
G1 X47.584 Y156.940 E231.4670
G1 X47.595 Y93.000 E234.6570
G0 F3900 X47.963 Y93.156
G1 F900 X93.190 Y47.953 E237.8472
G1 X156.510 Y47.929 E241.0062
G1 X157.606 Y48.450 E241.0667
G1 X202.047 Y93.213 E244.2137
G1 X202.036 Y156.842 E247.3881
G1 X156.810 Y202.047 E250.5783
G1 X93.170 Y202.036 E253.7534
G1 X47.955 Y156.790 E256.9446
G1 X47.963 Y93.156 E260.1193
G0 F3900 X48.331 Y93.312
G1 F900 X93.340 Y48.324 E263.2942
G1 X156.510 Y48.329 E266.4458
G1 X157.322 Y48.732 E266.4910
G1 X201.676 Y93.362 E269.6302
G1 X201.668 Y156.686 E272.7894
G1 X156.660 Y201.676 E275.9643
G1 X93.326 Y201.668 E279.1241
G1 X48.326 Y156.640 E282.3001
G1 X48.331 Y93.312 E285.4595
G0 F3900 X48.699 Y93.468
G1 F900 X93.490 Y48.695 E288.6191
G1 X156.342 Y48.692 E291.7548
G1 X157.038 Y49.014 E291.7931
G1 X201.305 Y93.511 E294.9245
G1 X201.300 Y156.530 E298.0685
G1 X156.510 Y201.305 E301.2282
G1 X93.482 Y201.300 E304.3726
G1 X48.697 Y156.490 E307.5333
G1 X48.699 Y93.468 E310.6775
G0 F3900 X49.067 Y93.624
G1 F900 X93.640 Y49.066 E313.8219
G1 X156.189 Y49.061 E316.9424
G1 X156.755 Y49.296 E316.9730
G1 X200.934 Y93.660 E320.0966
G1 X200.932 Y156.374 E323.2254
G1 X156.360 Y200.934 E326.3698
G1 X93.638 Y200.932 E329.4990
G1 X49.068 Y156.340 E332.6444
G1 X49.067 Y93.624 E335.7734
G0 F3900 X49.435 Y93.780
G1 F900 X93.790 Y49.437 E338.9024
G1 X156.189 Y49.461 E342.0155
G1 X156.472 Y49.578 E342.0308
G1 X200.563 Y93.810 E345.1466
G1 X200.564 Y156.218 E348.2602
G1 X156.210 Y200.563 E351.3893
G1 X93.794 Y200.564 E354.5032
G1 X49.439 Y156.190 E357.6334
G1 X49.435 Y93.780 E360.7470
G0 F3900 X49.803 Y93.936
G1 F900 X93.940 Y49.808 E363.8608
G1 X156.189 Y49.861 E366.9664
G1 X200.192 Y93.960 E370.0745
G1 X200.196 Y156.062 E373.1728
G1 X156.060 Y200.192 E376.2866
G1 X93.950 Y200.196 E379.3853
G1 X49.810 Y156.040 E382.5001
G1 X49.803 Y93.936 E385.5985
;PRINTING: First_Layer_Test.stl
;PRINTING_ID: 0
G1 F2400 E382.5985
G0 F3900 X50.203 Y94.018
;TYPE:WALL-OUTER
;WIDTH:0.400
G1 F1500 E385.5985
G1 F2400 X94.022 Y50.208 E388.6899
G1 X155.968 Y50.202 E391.7804
G1 X183.384 Y77.636 E393.7153
G1 X199.792 Y94.042 E394.8729
G1 X199.796 Y155.980 E397.9630
G1 X155.978 Y199.792 E401.0544
G1 X94.032 Y199.796 E404.1449
G1 X50.210 Y155.958 E407.2374
G1 X50.203 Y94.018 E410.3276
G0 F3900 X50.603 Y94.184
;TYPE:WALL-INNER
;WIDTH:0.400
G1 F2400 X94.188 Y50.608 E413.4024
G1 X155.802 Y50.602 E416.4763
G1 X183.101 Y77.919 E418.4031
G1 X199.392 Y94.208 E419.5524
G1 X199.396 Y155.814 E422.6260
G1 X155.812 Y199.392 E425.7008
G1 X94.198 Y199.396 E428.7748
G1 X50.610 Y155.792 E431.8507
G1 X50.603 Y94.184 E434.9243
G0 F3900 X51.003 Y94.350
G1 F2400 X94.354 Y51.008 E437.9827
G1 X155.636 Y51.002 E441.0400
G1 X182.818 Y78.202 E442.9585
G1 X198.992 Y94.374 E444.0996
G1 X198.996 Y155.648 E447.1566
G1 X155.646 Y198.992 E450.2149
G1 X94.364 Y198.996 E453.2723
G1 X51.010 Y155.626 E456.3317
G1 X51.003 Y94.350 E459.3888
G0 F3900 X51.403 Y94.516
G1 F2400 X94.520 Y51.408 E462.4306
G1 X155.470 Y51.402 E465.4714
G1 X182.535 Y78.485 E467.3817
G1 X198.592 Y94.540 E468.5145
G1 X198.596 Y155.482 E471.5549
G1 X155.480 Y198.592 E474.5968
G1 X94.530 Y198.596 E477.6376
G1 X51.410 Y155.460 E480.6805
G1 X51.403 Y94.516 E483.7210
G1 F2400 E480.7210
G0 F3900 X90.696 Y194.499
;TYPE:SOLID-FILL
;WIDTH:0.400
G1 F1500 E483.7210
G1 F2400 X94.607 Y198.410 E483.9969
G0 F2400 X95.173 Y198.410
G1 F2400 X51.593 Y154.830 E487.0717
G0 F2400 X51.593 Y154.265
G1 F2400 X95.738 Y198.410 E490.1864
G0 F2400 X96.304 Y198.410
G1 F2400 X51.593 Y153.699 E493.3410
G0 F2400 X51.593 Y153.133
G1 F2400 X96.870 Y198.410 E496.5355
G0 F2400 X97.435 Y198.410
G1 F2400 X51.593 Y152.568 E499.7699
G0 F2400 X51.593 Y152.002
G1 F2400 X98.001 Y198.410 E503.0443
G0 F2400 X98.567 Y198.410
G1 F2400 X51.593 Y151.436 E506.3585
G0 F2400 X51.593 Y150.871
G1 F2400 X99.132 Y198.410 E509.7127
G0 F2400 X99.698 Y198.410
G1 F2400 X51.593 Y150.305 E513.1067
G0 F2400 X51.593 Y149.739
G1 F2400 X100.264 Y198.410 E516.5407
G0 F2400 X100.829 Y198.410
G1 F2400 X51.592 Y149.173 E520.0147
G0 F2400 X51.592 Y148.607
G1 F2400 X101.395 Y198.410 E523.5286
G0 F2400 X101.961 Y198.410
G1 F2400 X51.592 Y148.041 E527.0824
G0 F2400 X51.592 Y147.476
G1 F2400 X102.526 Y198.410 E530.6760
G0 F2400 X103.092 Y198.410
G1 F2400 X51.592 Y146.910 E534.3096
G0 F2400 X51.592 Y146.344
G1 F2400 X103.658 Y198.410 E537.9832
G0 F2400 X104.224 Y198.410
G1 F2400 X51.592 Y145.779 E541.6966
G0 F2400 X51.592 Y145.213
G1 F2400 X104.788 Y198.409 E545.4499
G0 F2400 X105.354 Y198.409
G1 F2400 X51.592 Y144.647 E549.2431
G0 F2400 X51.592 Y144.082
G1 F2400 X105.920 Y198.409 E553.0762
G0 F2400 X106.486 Y198.409
G1 F2400 X51.592 Y143.516 E556.9492
G0 F2400 X51.591 Y142.950
G1 F2400 X107.051 Y198.409 E560.8622
G0 F2400 X107.617 Y198.409
G1 F2400 X51.591 Y142.384 E564.8151
G0 F2400 X51.591 Y141.818
G1 F2400 X108.183 Y198.409 E568.8079
G0 F2400 X108.748 Y198.409
G1 F2400 X51.591 Y141.253 E572.8406
G0 F2400 X51.591 Y140.687
G1 F2400 X109.314 Y198.409 E576.9132
G0 F2400 X109.880 Y198.409
G1 F2400 X51.591 Y140.121 E581.0258
G0 F2400 X51.591 Y139.556
G1 F2400 X110.445 Y198.409 E585.1782
G0 F2400 X111.011 Y198.409
G1 F2400 X51.591 Y138.990 E589.3706
G0 F2400 X51.591 Y138.424
G1 F2400 X111.577 Y198.409 E593.6029
G0 F2400 X112.142 Y198.409
G1 F2400 X51.591 Y137.858 E597.8751
G0 F2400 X51.591 Y137.293
G1 F2400 X112.708 Y198.409 E602.1872
G0 F2400 X113.274 Y198.409
G1 F2400 X51.591 Y136.726 E606.5393
G0 F2400 X51.591 Y136.161
G1 F2400 X113.839 Y198.409 E610.9312
G0 F2400 X114.405 Y198.409
G1 F2400 X51.591 Y135.595 E615.3631
G0 F2400 X51.591 Y135.029
G1 F2400 X114.970 Y198.409 E619.8348
G0 F2400 X115.536 Y198.409
G1 F2400 X51.591 Y134.464 E624.3465
G0 F2400 X51.591 Y133.898
G1 F2400 X116.101 Y198.409 E628.8981
G0 F2400 X116.667 Y198.409
G1 F2400 X51.591 Y133.332 E633.4896
G0 F2400 X51.591 Y132.767
G1 F2400 X117.233 Y198.409 E638.1210
G0 F2400 X117.799 Y198.409
G1 F2400 X51.591 Y132.201 E642.7923
G0 F2400 X51.591 Y131.635
G1 F2400 X118.364 Y198.409 E647.5035
G0 F2400 X118.930 Y198.409
G1 F2400 X51.591 Y131.070 E652.2547
G0 F2400 X51.590 Y130.503
G1 F2400 X119.496 Y198.409 E657.0458
G0 F2400 X120.061 Y198.409
G1 F2400 X51.590 Y129.937 E661.8768
G0 F2400 X51.590 Y129.372
G1 F2400 X120.627 Y198.409 E666.7478
G0 F2400 X121.193 Y198.409
G1 F2400 X51.590 Y128.806 E671.6586
G0 F2400 X51.590 Y128.240
G1 F2400 X121.758 Y198.409 E676.6094
G0 F2400 X122.324 Y198.409
G1 F2400 X51.590 Y127.675 E681.6001
G0 F2400 X51.590 Y127.109
G1 F2400 X122.890 Y198.409 E686.6307
G0 F2400 X123.455 Y198.409
G1 F2400 X51.590 Y126.543 E691.7012
G0 F2400 X51.590 Y125.978
G1 F2400 X124.021 Y198.409 E696.8116
G0 F2400 X124.587 Y198.409
G1 F2400 X51.590 Y125.412 E701.9619
G0 F2400 X51.589 Y124.846
G1 F2400 X125.152 Y198.408 E707.1521
G0 F2400 X125.717 Y198.408
G1 F2400 X51.589 Y124.280 E712.3823
G0 F2400 X51.589 Y123.714
G1 F2400 X126.283 Y198.408 E717.6523
G0 F2400 X126.849 Y198.408
G1 F2400 X51.589 Y123.149 E722.9623
G0 F2400 X51.589 Y122.583
G1 F2400 X127.414 Y198.408 E728.3121
G0 F2400 X127.980 Y198.408
G1 F2400 X51.589 Y122.017 E733.7019
G0 F2400 X51.589 Y121.451
G1 F2400 X128.546 Y198.408 E739.1317
G0 F2400 X129.112 Y198.408
G1 F2400 X51.589 Y120.886 E744.6013
G0 F2400 X51.589 Y120.320
G1 F2400 X129.677 Y198.408 E750.1108
G0 F2400 X130.243 Y198.408
G1 F2400 X51.589 Y119.754 E755.6603
G0 F2400 X51.589 Y119.189
G1 F2400 X130.809 Y198.408 E761.2497
G0 F2400 X131.374 Y198.408
G1 F2400 X51.589 Y118.622 E766.8790
G0 F2400 X51.589 Y118.057
G1 F2400 X131.940 Y198.408 E772.5482
G0 F2400 X132.506 Y198.408
G1 F2400 X51.589 Y117.491 E778.2573
G0 F2400 X51.589 Y116.925
G1 F2400 X133.071 Y198.408 E784.0063
G0 F2400 X133.637 Y198.408
G1 F2400 X51.589 Y116.360 E789.7953
G0 F2400 X51.589 Y115.794
G1 F2400 X134.203 Y198.408 E795.6241
G0 F2400 X134.768 Y198.408
G1 F2400 X51.589 Y115.228 E801.4929
G0 F2400 X51.589 Y114.663
G1 F2400 X135.333 Y198.407 E807.4015
G0 F2400 X135.899 Y198.407
G1 F2400 X51.589 Y114.097 E813.3500
G0 F2400 X51.589 Y113.531
G1 F2400 X136.465 Y198.407 E819.3385
G0 F2400 X137.030 Y198.407
G1 F2400 X51.589 Y112.965 E825.3668
G0 F2400 X51.588 Y112.399
G1 F2400 X137.596 Y198.407 E831.4351
G0 F2400 X138.162 Y198.407
G1 F2400 X51.588 Y111.833 E837.5434
G0 F2400 X51.588 Y111.268
G1 F2400 X138.727 Y198.407 E843.6915
G0 F2400 X139.293 Y198.407
G1 F2400 X51.588 Y110.702 E849.8796
G0 F2400 X51.588 Y110.136
G1 F2400 X139.859 Y198.407 E856.1076
G0 F2400 X140.425 Y198.407
G1 F2400 X51.588 Y109.571 E862.3755
G0 F2400 X51.588 Y109.005
G1 F2400 X140.990 Y198.407 E868.6833
G0 F2400 X141.556 Y198.407
G1 F2400 X51.588 Y108.439 E875.0310
G0 F2400 X51.588 Y107.874
G1 F2400 X142.122 Y198.407 E881.4186
G0 F2400 X142.687 Y198.407
G1 F2400 X51.588 Y107.308 E887.8462
G0 F2400 X51.587 Y106.742
G1 F2400 X143.253 Y198.407 E894.3137
G0 F2400 X143.819 Y198.407
G1 F2400 X51.587 Y106.176 E900.8211
G0 F2400 X51.587 Y105.610
G1 F2400 X144.384 Y198.407 E907.3684
G0 F2400 X144.950 Y198.407
G1 F2400 X51.587 Y105.044 E913.9557
G0 F2400 X51.587 Y104.479
G1 F2400 X145.515 Y198.407 E920.5828
G0 F2400 X146.081 Y198.407
G1 F2400 X51.587 Y103.913 E927.2499
G0 F2400 X51.587 Y103.347
G1 F2400 X146.646 Y198.407 E933.9568
G0 F2400 X147.212 Y198.407
G1 F2400 X51.587 Y102.782 E940.7037
G0 F2400 X51.587 Y102.216
G1 F2400 X147.778 Y198.407 E947.4905
G0 F2400 X148.343 Y198.407
G1 F2400 X51.587 Y101.650 E954.3172
G0 F2400 X51.587 Y101.085
G1 F2400 X148.909 Y198.407 E961.1838
G0 F2400 X149.475 Y198.407
G1 F2400 X51.586 Y100.518 E968.0904
G0 F2400 X51.586 Y99.953
G1 F2400 X150.040 Y198.407 E975.0368
G0 F2400 X150.606 Y198.407
G1 F2400 X51.586 Y99.387 E982.0232
G0 F2400 X51.586 Y98.821
G1 F2400 X151.172 Y198.407 E989.0496
G0 F2400 X151.738 Y198.407
G1 F2400 X51.586 Y98.256 E996.1158
G0 F2400 X51.586 Y97.690
G1 F2400 X152.303 Y198.407 E1003.2219
G0 F2400 X152.869 Y198.407
G1 F2400 X51.586 Y97.124 E1010.3680
G0 F2400 X51.586 Y96.558
G1 F2400 X153.435 Y198.407 E1017.5540
G0 F2400 X154.000 Y198.407
G1 F2400 X51.586 Y95.993 E1024.7798
G0 F2400 X51.586 Y95.427
G1 F2400 X154.566 Y198.407 E1032.0456
G0 F2400 X155.132 Y198.407
G1 F2400 X51.586 Y94.861 E1039.3514
G0 F2400 X51.735 Y94.444
G1 F2400 X155.550 Y198.260 E1046.6761
G0 F2400 X155.833 Y197.977
G1 F2400 X52.018 Y94.161 E1054.0009
G0 F2400 X52.301 Y93.879
G1 F2400 X156.116 Y197.694 E1061.3256
G0 F2400 X156.399 Y197.411
G1 F2400 X52.583 Y93.596 E1068.6503
G0 F2400 X52.866 Y93.313
G1 F2400 X156.682 Y197.128 E1075.9750
G0 F2400 X156.964 Y196.845
G1 F2400 X53.149 Y93.030 E1083.2998
G0 F2400 X53.432 Y92.747
G1 F2400 X157.247 Y196.562 E1090.6245
G0 F2400 X157.530 Y196.280
G1 F2400 X53.715 Y92.464 E1097.9492
G0 F2400 X53.998 Y92.181
G1 F2400 X157.813 Y195.997 E1105.2740
G0 F2400 X158.096 Y195.714
G1 F2400 X54.281 Y91.899 E1112.5987
G0 F2400 X54.563 Y91.616
G1 F2400 X158.379 Y195.431 E1119.9234
G0 F2400 X158.662 Y195.148
G1 F2400 X54.846 Y91.333 E1127.2482
G0 F2400 X55.129 Y91.050
G1 F2400 X158.944 Y194.865 E1134.5729
G0 F2400 X159.227 Y194.583
G1 F2400 X55.412 Y90.767 E1141.8976
G0 F2400 X55.695 Y90.484
G1 F2400 X159.510 Y194.300 E1149.2224
G0 F2400 X159.793 Y194.017
G1 F2400 X55.978 Y90.202 E1156.5471
G0 F2400 X56.260 Y89.919
G1 F2400 X160.076 Y193.734 E1163.8718
G0 F2400 X160.359 Y193.451
G1 F2400 X56.543 Y89.636 E1171.1965
G0 F2400 X56.826 Y89.353
G1 F2400 X160.641 Y193.168 E1178.5213
G0 F2400 X160.924 Y192.886
G1 F2400 X57.109 Y89.070 E1185.8460
G0 F2400 X57.392 Y88.787
G1 F2400 X161.207 Y192.603 E1193.1707
G0 F2400 X161.490 Y192.320
G1 F2400 X57.675 Y88.505 E1200.4955
G0 F2400 X57.958 Y88.222
G1 F2400 X161.773 Y192.037 E1207.8202
G0 F2400 X162.056 Y191.754
G1 F2400 X58.240 Y87.939 E1215.1449
G0 F2400 X58.523 Y87.656
G1 F2400 X162.338 Y191.471 E1222.4696
G0 F2400 X162.621 Y191.188
G1 F2400 X58.807 Y87.374 E1229.7943
G0 F2400 X59.090 Y87.091
G1 F2400 X162.904 Y190.906 E1237.1189
G0 F2400 X163.187 Y190.623
G1 F2400 X59.372 Y86.808 E1244.4436
G0 F2400 X59.655 Y86.525
G1 F2400 X163.470 Y190.340 E1251.7683
G0 F2400 X163.753 Y190.057
