;Sliced by ideaMaker 5.2.2.8570, 2025-04-22 17:46:27 UTC+0200
;Slicer Version: 5.2.2.8570
;Dimension: 250.000 250.000 250.000 0.400
;Plate Shape: 0
;Origin Center: 0
;Extruder Offset #1: 25.000 0.000
;Filament Diameter #1: 1.750
;Filament Diameter #2: 1.750
;Filament Compensation #1: 94.000
;Filament Compensation #2: 90.000
;Filament Density #1: 1240.000
;Filament Density #2: 1240.000
;Filament Type #1: PLA
;Filament Type #2: PLA
;Filament Name #1: [Raise3D] Premium PLA 1.75mm
;Filament Name #2: [Raise3D] Premium PLA 1.75mm
;Filament #1: PLA 1.75mm
;Filament #2: PLA 1.75mm
;Printer Type: floppy
;Firmware: Klipper
;Bounding Box: 111.700 138.333 102.879 147.148 0.000 2.300
;Model Gap: 0.000
M221 T0 S94.00
M140 S50.00
M104 T0 S190.00
M109 T0 S190.00
T0
M190 S50.00
G21 ;metric values
G90 ;absolute positioning
M82 ;set extruder to absolute mode
M107 ;start with the fan off
G28 X0 Y0 ;move X/Y to min endstops
G28 Z0 ;move Z to min endstops
G1 Z15.0 F9000 ;move the platform down 15mm
G92 E0 ;zero the extruded length
G0 X43 Y27 F2000  ;go to the edge of the bed
G92 X0 Y0 E0 ;set zero to edge of the bed
G0 F9000 Z1 ;Z up with 1mm
G1 F200 Z0 ;Z home slowly
G1 Z15.0 F9000 ;move the platform down 15mm
G1 F9000 ;speed setting
G92 E-3 ;retraction
M117 Printing...
M1001
;TOTAL_NUM: 1
;PRINTING_TIME: 0
;REMAINING_TIME: 412
;LAYER:0
;Z:0.500
;HEIGHT:0.500
M106 S26
;PRINTING: NON-OBJECT
;PRINTING_ID: -1
G1 F2400 E-3.0000
G0 F3900 X118.109 Y106.173
G0 F300 Z0.500
;TYPE:SKIRT
;WIDTH:0.400
;FLOW:65.0
G1 F1500 E0.0000
G1 F900 X119.398 Y104.858 E0.0995
G1 X120.920 Y103.845 E0.1983
G1 X122.356 Y103.246 E0.2824
G1 X124.131 Y102.885 E0.3803
G1 X125.840 Y102.879 E0.4727
G1 X127.213 Y103.120 E0.5480
G1 X128.907 Y103.757 E0.6459
G1 X130.464 Y104.745 E0.7455
G1 X131.773 Y106.028 E0.8446
G1 X132.786 Y107.551 E0.9434
G1 X133.387 Y108.993 E1.0279
G1 X133.778 Y111.322 E1.1555
G1 X133.800 Y123.848 E1.8325
G1 X134.945 Y124.923 E1.9174
G1 X136.564 Y127.171 E2.0671
G1 X137.691 Y129.711 E2.2173
G1 X138.266 Y132.433 E2.3677
G1 X138.333 Y134.350 E2.4714
G1 X138.132 Y136.195 E2.5717
G1 X137.198 Y139.211 E2.7423
G1 X135.534 Y141.996 E2.9177
G1 X133.239 Y144.301 E3.0935
G1 X130.870 Y145.798 E3.2449
G1 X128.257 Y146.753 E3.3953
G1 X125.494 Y147.148 E3.5461
G1 X123.160 Y147.033 E3.6724
G1 X120.479 Y146.369 E3.8217
G1 X118.346 Y145.383 E3.9487
G1 X116.119 Y143.774 E4.0972
G1 X114.505 Y142.056 E4.2246
G1 X113.037 Y139.723 E4.3736
G1 X112.185 Y137.536 E4.5005
G1 X111.700 Y134.826 E4.6492
G1 X111.777 Y132.051 E4.7993
G1 X112.434 Y129.338 E4.9502
G1 X113.411 Y127.204 E5.0770
G1 X115.027 Y124.959 E5.2265
G1 X116.155 Y123.883 E5.3108
G1 X116.215 Y111.167 E5.9980
G1 X116.485 Y109.444 E6.0923
G1 X117.123 Y107.731 E6.1911
G1 X118.109 Y106.173 E6.2908
G0 F3900 X118.446 Y106.388
G1 F900 X119.682 Y105.139 E6.3857
G1 X121.140 Y104.179 E6.4801
G1 X122.508 Y103.616 E6.5600
G1 X124.209 Y103.277 E6.6538
G1 X125.771 Y103.273 E6.7382
G1 X127.144 Y103.514 E6.8135
G1 X128.765 Y104.131 E6.9073
G1 X130.248 Y105.082 E7.0025
G1 X131.492 Y106.312 E7.0971
G1 X132.452 Y107.771 E7.1914
G1 X133.017 Y109.145 E7.2717
G1 X133.383 Y111.386 E7.3945
G1 X133.400 Y124.022 E8.0774
G1 X134.671 Y125.215 E8.1716
G1 X136.239 Y127.404 E8.3172
G1 X137.325 Y129.872 E8.4629
G1 X137.874 Y132.514 E8.6087
G1 X137.933 Y134.363 E8.7087
G1 X137.734 Y136.151 E8.8060
G1 X136.816 Y139.092 E8.9725
G1 X135.191 Y141.790 E9.1427
G1 X132.957 Y144.018 E9.3132
G1 X130.658 Y145.459 E9.4599
G1 X128.121 Y146.377 E9.6057
G1 X125.439 Y146.752 E9.7521
G1 X123.181 Y146.634 E9.8743
G1 X120.576 Y145.981 E10.0194
G1 X118.515 Y145.020 E10.1423
G1 X116.354 Y143.450 E10.2867
G1 X114.797 Y141.783 E10.4100
G1 X113.376 Y139.511 E10.5548
G1 X112.558 Y137.392 E10.6776
G1 X112.094 Y134.757 E10.8222
G1 X112.177 Y132.063 E10.9679
G1 X112.822 Y129.433 E11.1142
G1 X113.774 Y127.372 E11.2369
G1 X115.351 Y125.194 E11.3823
G1 X116.554 Y124.057 E11.4717
G1 X116.615 Y111.169 E12.1683
G1 X116.880 Y109.507 E12.2593
G1 X117.497 Y107.872 E12.3537
G1 X118.446 Y106.388 E12.4489
G0 F3900 X118.782 Y106.605
G1 F900 X119.965 Y105.422 E12.5393
G1 X121.358 Y104.514 E12.6292
G1 X122.658 Y103.987 E12.7050
G1 X124.285 Y103.670 E12.7946
G1 X125.702 Y103.667 E12.8712
G1 X127.075 Y103.908 E12.9465
G1 X128.621 Y104.504 E13.0361
G1 X130.030 Y105.418 E13.1269
G1 X131.209 Y106.595 E13.2169
G1 X132.117 Y107.989 E13.3068
G1 X132.646 Y109.295 E13.3830
G1 X132.988 Y111.449 E13.5008
G1 X133.000 Y124.196 E14.1898
G1 X134.397 Y125.507 E14.2933
G1 X135.913 Y127.636 E14.4346
G1 X136.958 Y130.032 E14.5759
G1 X137.482 Y132.594 E14.7172
G1 X137.533 Y134.374 E14.8135
G1 X137.337 Y136.106 E14.9077
G1 X136.434 Y138.972 E15.0701
G1 X134.849 Y141.582 E15.2351
G1 X132.676 Y143.734 E15.4004
G1 X130.447 Y145.119 E15.5422
G1 X127.986 Y146.000 E15.6835
G1 X125.385 Y146.356 E15.8254
G1 X123.203 Y146.235 E15.9435
G1 X120.674 Y145.593 E16.0845
G1 X118.685 Y144.658 E16.2033
G1 X116.590 Y143.127 E16.3436
G1 X115.090 Y141.511 E16.4627
G1 X113.716 Y139.300 E16.6034
G1 X112.932 Y137.249 E16.7221
G1 X112.488 Y134.689 E16.8625
G1 X112.577 Y132.077 E17.0038
G1 X113.210 Y129.529 E17.1457
G1 X114.137 Y127.541 E17.2642
G1 X115.674 Y125.429 E17.4054
G1 X116.953 Y124.231 E17.5001
G1 X117.015 Y111.171 E18.2060
G1 X117.275 Y109.571 E18.2936
G1 X117.871 Y108.015 E18.3837
G1 X118.782 Y106.605 E18.4744
G0 F3900 X119.117 Y106.824
G1 F900 X120.246 Y105.706 E18.5603
G1 X121.575 Y104.850 E18.6457
G1 X122.806 Y104.359 E18.7174
G1 X124.360 Y104.063 E18.8029
G1 X125.701 Y104.067 E18.8753
G1 X127.004 Y104.302 E18.9469
G1 X128.475 Y104.877 E19.0323
G1 X129.811 Y105.753 E19.1186
G1 X130.925 Y106.877 E19.2041
G1 X131.781 Y108.206 E19.2896
G1 X132.274 Y109.443 E19.3615
G1 X132.593 Y111.510 E19.4746
G1 X132.600 Y124.370 E20.1696
G1 X134.123 Y125.799 E20.2825
G1 X135.587 Y127.867 E20.4195
G1 X136.591 Y130.191 E20.5563
G1 X137.090 Y132.673 E20.6931
G1 X137.133 Y134.384 E20.7856
G1 X136.940 Y136.060 E20.8768
G1 X136.053 Y138.851 E21.0351
G1 X134.508 Y141.373 E21.1949
G1 X132.396 Y143.449 E21.3550
G1 X130.237 Y144.778 E21.4920
G1 X127.852 Y145.623 E21.6288
G1 X125.332 Y145.960 E21.7662
G1 X123.227 Y145.836 E21.8802
G1 X120.774 Y145.206 E22.0170
G1 X118.856 Y144.297 E22.1318
G1 X116.827 Y142.805 E22.2679
G1 X115.384 Y141.240 E22.3829
G1 X114.056 Y139.090 E22.5195
G1 X113.306 Y137.107 E22.6341
G1 X112.882 Y134.622 E22.7703
G1 X112.977 Y132.092 E22.9072
G1 X113.598 Y129.627 E23.0446
G1 X114.499 Y127.711 E23.1590
G1 X115.997 Y125.665 E23.2961
G1 X117.352 Y124.406 E23.3960
G1 X117.415 Y111.173 E24.1112
G1 X117.670 Y109.636 E24.1955
G1 X118.244 Y108.160 E24.2810
G1 X119.117 Y106.824 E24.3673
G0 F3900 X119.451 Y107.045
G1 F900 X120.526 Y105.992 E24.4486
G1 X121.790 Y105.188 E24.5296
G1 X122.952 Y104.731 E24.5971
G1 X124.433 Y104.456 E24.6785
G1 X125.698 Y104.467 E24.7469
G1 X126.931 Y104.695 E24.8146
G1 X128.328 Y105.249 E24.8959
G1 X129.590 Y106.086 E24.9777
G1 X130.639 Y107.157 E25.0587
G1 X131.443 Y108.421 E25.1397
G1 X131.902 Y109.589 E25.2075
G1 X132.197 Y111.569 E25.3157
G1 X132.200 Y124.544 E26.0170
G1 X133.849 Y126.091 E26.1392
G1 X135.260 Y128.097 E26.2718
G1 X136.223 Y130.348 E26.4041
G1 X136.698 Y132.751 E26.5365
G1 X136.733 Y134.393 E26.6252
G1 X136.543 Y136.013 E26.7134
G1 X135.672 Y138.729 E26.8676
G1 X134.168 Y141.163 E27.0222
G1 X132.117 Y143.163 E27.1770
G1 X130.029 Y144.437 E27.3092
G1 X127.720 Y145.246 E27.4415
G1 X125.280 Y145.563 E27.5744
G1 X123.252 Y145.437 E27.6843
G1 X120.875 Y144.819 E27.8170
G1 X119.029 Y143.936 E27.9276
G1 X117.065 Y142.483 E28.0596
G1 X115.679 Y140.970 E28.1705
G1 X114.397 Y138.881 E28.3030
G1 X113.681 Y136.967 E28.4135
G1 X113.276 Y134.556 E28.5456
G1 X113.377 Y132.108 E28.6780
G1 X113.986 Y129.726 E28.8109
G1 X114.860 Y127.882 E28.9212
G1 X116.319 Y125.902 E29.0541
G1 X117.751 Y124.582 E29.1594
G1 X117.815 Y111.175 E29.8840
G1 X118.064 Y109.703 E29.9647
G1 X118.616 Y108.307 E30.0458
G1 X119.451 Y107.045 E30.1276
;PRINTING: Bev??s??rl??_Coin_Cart_v2.STL
;PRINTING_ID: 0
G1 F2400 E27.1276
G0 F3900 X122.260 Y109.139
;TYPE:WALL-OUTER
;WIDTH:0.400
G1 F1500 E30.1276
G1 F2400 X121.525 Y110.348 E30.2041
G1 X121.303 Y111.868 E30.2871
G1 X121.662 Y113.238 E30.3637
G1 X122.522 Y114.386 E30.4412
G1 X123.835 Y115.147 E30.5232
G1 X125.238 Y115.327 E30.5997
G1 X126.605 Y114.969 E30.6760
G1 X127.739 Y114.124 E30.7525
G1 X128.474 Y112.915 E30.8289
G1 X128.696 Y111.395 E30.9120
G1 X128.337 Y110.026 E30.9885
G1 X127.491 Y108.892 E31.0649
G1 X126.165 Y108.116 E31.1480
G1 X124.761 Y107.936 E31.2245
G1 X123.394 Y108.294 E31.3008
G1 X122.260 Y109.139 E31.3773
G1 F2400 E28.3773
G0 F3900 X121.963 Y108.738
G0 X121.146 Y109.875
G0 X118.650 Y124.760
G0 X118.151 Y124.758
G1 F1500 E31.3773
G1 F2400 X118.215 Y111.198 E32.1102
G1 X118.454 Y109.794 E32.1872
G1 X118.981 Y108.470 E32.2642
G1 X119.767 Y107.291 E32.3408
G1 X120.786 Y106.297 E32.4177
G1 X121.990 Y105.536 E32.4947
G1 X123.086 Y105.108 E32.5583
G1 X124.492 Y104.852 E32.6355
G1 X125.672 Y104.867 E32.6993
G1 X126.838 Y105.087 E32.7634
G1 X128.162 Y105.613 E32.8404
G1 X129.340 Y106.399 E32.9170
G1 X130.334 Y107.418 E32.9939
G1 X131.095 Y108.622 E33.0709
G1 X131.522 Y109.717 E33.1344
G1 X131.799 Y111.610 E33.2378
G1 X131.800 Y124.719 E33.9463
G1 X133.561 Y126.370 E34.0768
G1 X134.921 Y128.311 E34.2049
G1 X135.848 Y130.488 E34.3328
G1 X136.303 Y132.811 E34.4607
G1 X136.334 Y134.387 E34.5459
G1 X136.145 Y135.958 E34.6314
G1 X135.300 Y138.582 E34.7804
G1 X133.840 Y140.933 E34.9300
G1 X131.865 Y142.854 E35.0789
G1 X129.840 Y144.083 E35.2069
G1 X127.603 Y144.864 E35.3350
G1 X125.260 Y145.164 E35.4627
G1 X123.285 Y145.037 E35.5696
G1 X120.997 Y144.438 E35.6974
G1 X119.220 Y143.586 E35.8040
G1 X117.317 Y142.171 E35.9321
G1 X115.987 Y140.714 E36.0387
G1 X114.750 Y138.690 E36.1670
G1 X114.062 Y136.847 E36.2733
G1 X113.673 Y134.512 E36.4012
G1 X113.776 Y132.145 E36.5293
G1 X114.368 Y129.851 E36.6573
G1 X115.215 Y128.071 E36.7639
G1 X116.625 Y126.161 E36.8922
G1 X118.151 Y124.758 E37.0042
G1 F2400 E34.0042
G0 F3900 X118.650 Y124.760
G0 X120.953 Y110.143
G0 X121.869 Y108.822
G0 X121.959 Y108.865
;TYPE:WALL-INNER
;WIDTH:0.400
G1 F1500 E37.0042
G1 F2400 X121.141 Y110.210 E37.0893
G1 X120.895 Y111.891 E37.1811
G1 X121.295 Y113.415 E37.2663
G1 X122.251 Y114.691 E37.3524
G1 X123.704 Y115.533 E37.4432
G1 X125.264 Y115.734 E37.5282
G1 X126.782 Y115.336 E37.6130
G1 X128.040 Y114.398 E37.6979
G1 X128.858 Y113.053 E37.7829
G1 X129.104 Y111.372 E37.8748
G1 X128.704 Y109.849 E37.9599
G1 X127.763 Y108.588 E38.0449
G1 X126.297 Y107.730 E38.1367
G1 X124.735 Y107.529 E38.2218
G1 X123.217 Y107.927 E38.3066
G1 X121.959 Y108.865 E38.3915
G1 F2400 E35.3915
G0 F3900 X121.869 Y108.822
G0 X121.128 Y109.891
G0 X118.650 Y124.924
G0 X118.550 Y124.934
G1 F1500 E38.3915
G1 F2400 X118.615 Y111.233 E39.1320
G1 X118.841 Y109.903 E39.2049
G1 X119.337 Y108.657 E39.2774
G1 X120.076 Y107.548 E39.3494
G1 X121.035 Y106.613 E39.4218
G1 X122.171 Y105.895 E39.4944
G1 X123.196 Y105.495 E39.5539
G1 X124.526 Y105.252 E39.6270
G1 X125.632 Y105.267 E39.6867
G1 X126.726 Y105.473 E39.7469
G1 X127.975 Y105.969 E39.8195
G1 X129.083 Y106.708 E39.8915
G1 X130.018 Y107.667 E39.9639
G1 X130.736 Y108.803 E40.0366
G1 X131.133 Y109.820 E40.0956
G1 X131.399 Y111.639 E40.1949
G1 X131.400 Y124.892 E40.9112
G1 X133.257 Y126.633 E41.0488
G1 X134.569 Y128.506 E41.1724
G1 X135.464 Y130.606 E41.2958
G1 X135.904 Y132.854 E41.4196
G1 X135.934 Y134.367 E41.5014
G1 X135.752 Y135.872 E41.5833
G1 X134.934 Y138.413 E41.7276
G1 X133.526 Y140.680 E41.8718
G1 X131.619 Y142.536 E42.0156
G1 X129.668 Y143.719 E42.1389
G1 X127.511 Y144.473 E42.2624
G1 X125.247 Y144.762 E42.3858
G1 X123.349 Y144.640 E42.4886
G1 X121.135 Y144.061 E42.6123
G1 X119.428 Y143.242 E42.7146
G1 X117.587 Y141.873 E42.8386
G1 X116.308 Y140.473 E42.9411
G1 X115.111 Y138.514 E43.0652
G1 X114.450 Y136.743 E43.1673
G1 X114.074 Y134.488 E43.2909
G1 X114.174 Y132.204 E43.4145
G1 X114.746 Y129.988 E43.5382
G1 X115.560 Y128.278 E43.6405
G1 X116.924 Y126.429 E43.7647
G1 X118.550 Y124.934 E43.8841
G1 F2400 E40.8841
G0 F3900 X118.650 Y124.924
G0 X120.953 Y110.143
G0 X121.658 Y108.591
G1 F1500 E43.8841
G1 F2400 X120.757 Y110.072 E43.9778
G1 X120.487 Y111.914 E44.0784
G1 X120.928 Y113.592 E44.1722
G1 X121.980 Y114.996 E44.2670
G1 X123.573 Y115.919 E44.3665
G1 X125.290 Y116.141 E44.4601
G1 X126.959 Y115.703 E44.5533
G1 X128.341 Y114.672 E44.6465
G1 X129.242 Y113.191 E44.7402
G1 X129.512 Y111.349 E44.8408
G1 X129.071 Y109.672 E44.9346
G1 X128.035 Y108.284 E45.0282
G1 X126.429 Y107.344 E45.1287
G1 X124.709 Y107.122 E45.2225
G1 X123.040 Y107.560 E45.3157
G1 X121.658 Y108.591 E45.4089
G1 F2400 E42.4089
G0 F3900 X121.088 Y109.847
G0 X118.949 Y125.110
G1 F1500 E45.4089
G1 F2400 X119.015 Y111.268 E46.1571
G1 X119.228 Y110.012 E46.2259
G1 X119.693 Y108.844 E46.2939
G1 X120.385 Y107.805 E46.3613
G1 X121.284 Y106.929 E46.4292
G1 X122.352 Y106.254 E46.4975
G1 X123.306 Y105.882 E46.5528
G1 X124.560 Y105.652 E46.6217
G1 X125.592 Y105.666 E46.6775
G1 X126.614 Y105.859 E46.7337
G1 X127.788 Y106.325 E46.8020
G1 X128.826 Y107.017 E46.8694
G1 X129.702 Y107.916 E46.9372
G1 X130.377 Y108.984 E47.0055
G1 X130.744 Y109.923 E47.0600
G1 X130.999 Y111.668 E47.1553
G1 X131.000 Y125.065 E47.8794
G1 X132.953 Y126.896 E48.0241
G1 X134.217 Y128.701 E48.1432
G1 X135.080 Y130.724 E48.2621
G1 X135.505 Y132.897 E48.3817
G1 X135.534 Y134.347 E48.4601
G1 X135.359 Y135.786 E48.5385
G1 X134.568 Y138.244 E48.6780
G1 X133.212 Y140.427 E48.8169
G1 X131.373 Y142.218 E48.9557
G1 X129.496 Y143.355 E49.0743
G1 X127.419 Y144.082 E49.1932
G1 X125.234 Y144.360 E49.3123
G1 X123.413 Y144.243 E49.4109
G1 X121.273 Y143.684 E49.5304
G1 X119.636 Y142.898 E49.6286
G1 X117.856 Y141.575 E49.7484
G1 X116.629 Y140.232 E49.8468
G1 X115.472 Y138.338 E49.9667
G1 X114.838 Y136.639 E50.0647
G1 X114.475 Y134.464 E50.1839
G1 X114.572 Y132.263 E50.3030
G1 X115.124 Y130.125 E50.4223
G1 X115.905 Y128.485 E50.5205
G1 X117.223 Y126.697 E50.6406
G1 X118.949 Y125.110 E50.7673
G1 F2400 E47.7673
G0 F3900 X121.357 Y108.317
G1 F1500 E50.7673
G1 F2400 X120.373 Y109.934 E50.8696
G1 X120.079 Y111.937 E50.9790
G1 X120.561 Y113.769 E51.0814
G1 X121.709 Y115.301 E51.1849
G1 X123.442 Y116.305 E51.2931
G1 X125.316 Y116.548 E51.3952
G1 X127.136 Y116.070 E51.4969
G1 X128.642 Y114.946 E51.5985
G1 X129.626 Y113.329 E51.7008
G1 X129.920 Y111.326 E51.8102
G1 X129.438 Y109.495 E51.9126
G1 X128.307 Y107.980 E52.0147
G1 X126.561 Y106.958 E52.1241
G1 X124.683 Y106.715 E52.2264
G1 X122.863 Y107.193 E52.3281
G1 X121.357 Y108.317 E52.4297
G1 F2400 E49.4297
G0 F3900 X121.171 Y109.333
G0 X119.348 Y125.286
G1 F1500 E52.4297
G1 F2400 X119.415 Y111.303 E53.1855
G1 X119.615 Y110.121 E53.2503
G1 X120.049 Y109.031 E53.3137
G1 X120.694 Y108.062 E53.3766
G1 X121.533 Y107.245 E53.4399
G1 X122.533 Y106.613 E53.5038
G1 X123.416 Y106.269 E53.5550
G1 X124.594 Y106.052 E53.6198
G1 X125.552 Y106.065 E53.6716
G1 X126.502 Y106.245 E53.7238
G1 X127.601 Y106.681 E53.7877
G1 X128.569 Y107.326 E53.8506
G1 X129.386 Y108.165 E53.9139
G1 X130.355 Y110.026 E54.0273
G1 X130.599 Y111.697 E54.1186
G1 X130.600 Y125.238 E54.8504
G1 X132.649 Y127.159 E55.0022
G1 X133.865 Y128.896 E55.1168
G1 X134.696 Y130.842 E55.2312
G1 X135.106 Y132.940 E55.3467
G1 X135.134 Y134.327 E55.4217
G1 X134.967 Y135.700 E55.4964
G1 X134.202 Y138.075 E55.6313
G1 X132.898 Y140.174 E55.7649
G1 X131.127 Y141.900 E55.8985
G1 X129.324 Y142.991 E56.0124
G1 X127.327 Y143.691 E56.1268
G1 X125.221 Y143.958 E56.2415
G1 X123.477 Y143.846 E56.3360
G1 X121.411 Y143.307 E56.4514
G1 X119.844 Y142.554 E56.5453
G1 X118.125 Y141.277 E56.6611
G1 X116.950 Y139.991 E56.7552
G1 X115.833 Y138.162 E56.8711
G1 X115.226 Y136.535 E56.9649
G1 X114.876 Y134.440 E57.0797
G1 X114.970 Y132.322 E57.1943
G1 X115.502 Y130.262 E57.3093
G1 X116.250 Y128.692 E57.4033
G1 X117.522 Y126.965 E57.5192
G1 X119.348 Y125.286 E57.6533
G1 F2400 E54.6533
G0 F3900 X116.413 Y138.758
;TYPE:SOLID-FILL
;WIDTH:0.400
G1 F1500 E57.6533
G1 F2400 X120.152 Y142.496 E57.9390
G0 F2400 X121.241 Y143.020
G1 F2400 X115.819 Y137.598 E58.3535
G0 F2400 X115.482 Y136.695
